%
(Header)
(Generated by gcodetools from Inkscape.)
(Using default header. To add your own header create file "header" in the output dir.)
M3
(Header end.)
G21 (All units in mm)
M5

(Start cutting path id: path34957)
(Change tool to Default tool)

G00 Z5.000000
G00 X73.236240 Y11.046588
M3S030
G01 Z-0.125000 F100.0(Penetrate)
G01 X73.236240 Y9.531210 Z-0.125000 F2000.000000
G01 X74.246492 Y10.036336 Z-0.125000
G01 X73.741366 Y11.046588 Z-0.125000
G01 X73.236240 Y11.046588 Z-0.125000
G00 Z5.000000
M5
(End cutting path id: path34957)


(Start cutting path id: path34955)
(Change tool to Default tool)

G00 Z5.000000
G00 X92.431024 Y11.551714
M3S030
G01 Z-0.125000 F100.0(Penetrate)
G01 X92.823911 Y11.187013 Z-0.125000 F2000.000000
G01 X93.090516 Y11.172869 Z-0.125000
G01 X93.497395 Y11.074875 Z-0.125000
G01 X93.960444 Y11.060732 Z-0.125000
G01 X94.423443 Y11.046588 Z-0.125000
G01 X94.928569 Y11.046588 Z-0.125000
G01 X95.966905 Y11.046588 Z-0.125000
G01 X95.574018 Y11.411289 Z-0.125000
G01 X95.307413 Y11.425432 Z-0.125000
G01 X94.900534 Y11.523427 Z-0.125000
G01 X94.437485 Y11.537570 Z-0.125000
G01 X93.974487 Y11.551714 Z-0.125000
G01 X93.469361 Y11.551714 Z-0.125000
G01 X92.431024 Y11.551714 Z-0.125000
G00 Z5.000000
M5
(Change tool to Default tool)

G00 Z5.000000
G00 X98.492535 Y11.551714
M3S030
G01 Z-0.125000 F100.0(Penetrate)
G01 X98.885422 Y11.187013 Z-0.125000 F2000.000000
G01 X99.152027 Y11.172869 Z-0.125000
G01 X99.558906 Y11.074875 Z-0.125000
G01 X100.021955 Y11.060732 Z-0.125000
G01 X101.018164 Y11.046588 Z-0.125000
G01 X101.495205 Y11.046588 Z-0.125000
G01 X103.038668 Y11.046588 Z-0.125000
G01 X102.645781 Y11.411289 Z-0.125000
G01 X102.379176 Y11.425432 Z-0.125000
G01 X101.972297 Y11.523427 Z-0.125000
G01 X101.509248 Y11.537570 Z-0.125000
G01 X100.513038 Y11.551714 Z-0.125000
G01 X100.035998 Y11.551714 Z-0.125000
G01 X98.492535 Y11.551714 Z-0.125000
G00 Z5.000000
M5
(End cutting path id: path34955)


(Start cutting path id: path34953)
(Change tool to Default tool)

G00 Z5.000000
G00 X88.895143 Y11.551714
M3S030
G01 Z-0.125000 F100.0(Penetrate)
G01 X89.259945 Y11.187013 Z-0.125000 F2000.000000
G01 X89.526550 Y11.172869 Z-0.125000
G01 X90.410520 Y11.046588 Z-0.125000
G01 X90.045719 Y11.411289 Z-0.125000
G01 X89.779113 Y11.425432 Z-0.125000
G01 X88.895143 Y11.551714 Z-0.125000
G00 Z5.000000
M5
(End cutting path id: path34953)


(Start cutting path id: path34951)
(Change tool to Default tool)

G00 Z5.000000
G00 X88.390017 Y11.551714
M3S030
G01 Z-0.125000 F100.0(Penetrate)
G01 X88.895143 Y11.046588 Z-0.125000 F2000.000000
G01 X88.390017 Y11.551714 Z-0.125000
G00 Z5.000000
M5
(End cutting path id: path34951)


(Start cutting path id: path34949)
(Change tool to Default tool)

G00 Z5.000000
G00 X82.328506 Y11.551714
M3S030
G01 Z-0.125000 F100.0(Penetrate)
G01 X82.833632 Y11.046588 Z-0.125000 F2000.000000
G01 X82.328506 Y11.551714 Z-0.125000
G00 Z5.000000
M5
(End cutting path id: path34949)


(Start cutting path id: path34947)
(Change tool to Default tool)

G00 Z5.000000
G00 X79.802877 Y11.551714
M3S030
G01 Z-0.125000 F100.0(Penetrate)
G01 X80.195764 Y11.187013 Z-0.125000 F2000.000000
G01 X80.462369 Y11.172869 Z-0.125000
G01 X80.841213 Y11.074875 Z-0.125000
G01 X81.304212 Y11.060732 Z-0.125000
G01 X82.328506 Y11.046588 Z-0.125000
G01 X81.935619 Y11.411289 Z-0.125000
G01 X81.669014 Y11.425432 Z-0.125000
G01 X81.290169 Y11.523427 Z-0.125000
G01 X80.827171 Y11.537570 Z-0.125000
G01 X79.802877 Y11.551714 Z-0.125000
G00 Z5.000000
M5
(End cutting path id: path34947)


(Start cutting path id: path34945)
(Change tool to Default tool)

G00 Z5.000000
G00 X74.246492 Y11.551714
M3S030
G01 Z-0.125000 F100.0(Penetrate)
G01 X74.751618 Y11.046588 Z-0.125000 F2000.000000
G01 X74.246492 Y11.551714 Z-0.125000
G00 Z5.000000
M5
(End cutting path id: path34945)


(Start cutting path id: path34943)
(Change tool to Default tool)

G00 Z5.000000
G00 X98.492535 Y12.056840
M3S030
G01 Z-0.125000 F100.0(Penetrate)
G01 X98.885422 Y11.692139 Z-0.125000 F2000.000000
G01 X99.152027 Y11.677995 Z-0.125000
G01 X99.558906 Y11.580001 Z-0.125000
G01 X100.021955 Y11.565857 Z-0.125000
G01 X101.018164 Y11.551714 Z-0.125000
G01 X101.495205 Y11.551714 Z-0.125000
G01 X103.038668 Y11.551714 Z-0.125000
G01 X102.645781 Y11.916415 Z-0.125000
G01 X102.379176 Y11.930558 Z-0.125000
G01 X101.972297 Y12.028553 Z-0.125000
G01 X101.509248 Y12.042696 Z-0.125000
G01 X100.513038 Y12.056840 Z-0.125000
G01 X100.035998 Y12.056840 Z-0.125000
G01 X98.492535 Y12.056840 Z-0.125000
G00 Z5.000000
M5
(End cutting path id: path34943)


(Start cutting path id: path34941)
(Change tool to Default tool)

G00 Z5.000000
G00 X97.987409 Y12.056840
M3S030
G01 Z-0.125000 F100.0(Penetrate)
G01 X98.492535 Y11.551714 Z-0.125000 F2000.000000
G01 X97.987409 Y12.056840 Z-0.125000
G00 Z5.000000
M5
(End cutting path id: path34941)


(Start cutting path id: path34939)
(Change tool to Default tool)

G00 Z5.000000
G00 X96.472031 Y12.056840
M3S030
G01 Z-0.125000 F100.0(Penetrate)
G01 X96.977157 Y11.551714 Z-0.125000 F2000.000000
G01 X96.472031 Y12.056840 Z-0.125000
G00 Z5.000000
M5
(End cutting path id: path34939)


(Start cutting path id: path34937)
(Change tool to Default tool)

G00 Z5.000000
G00 X92.431024 Y12.056840
M3S030
G01 Z-0.125000 F100.0(Penetrate)
G01 X92.936150 Y11.551714 Z-0.125000 F2000.000000
G01 X92.431024 Y12.056840 Z-0.125000
G00 Z5.000000
M5
(End cutting path id: path34937)


(Start cutting path id: path34935)
(Change tool to Default tool)

G00 Z5.000000
G00 X66.164477 Y12.056840
M3S030
G01 Z-0.125000 F100.0(Penetrate)
G01 X66.669603 Y11.551714 Z-0.125000 F2000.000000
G01 X66.164477 Y12.056840 Z-0.125000
G00 Z5.000000
M5
(Change tool to Default tool)

G00 Z5.000000
G00 X78.792625 Y12.056840
M3S030
G01 Z-0.125000 F100.0(Penetrate)
G01 X79.297751 Y11.551714 Z-0.125000 F2000.000000
G01 X78.792625 Y12.056840 Z-0.125000
G00 Z5.000000
M5
(Change tool to Default tool)

G00 Z5.000000
G00 X90.915646 Y12.056840
M3S030
G01 Z-0.125000 F100.0(Penetrate)
G01 X91.420772 Y11.551714 Z-0.125000 F2000.000000
G01 X90.915646 Y12.056840 Z-0.125000
G00 Z5.000000
M5
(End cutting path id: path34935)


(Start cutting path id: path34933)
(Change tool to Default tool)

G00 Z5.000000
G00 X61.618344 Y12.056840
M3S030
G01 Z-0.125000 F100.0(Penetrate)
G01 X62.011231 Y11.692139 Z-0.125000 F2000.000000
G01 X62.277837 Y11.677995 Z-0.125000
G01 X62.684715 Y11.580001 Z-0.125000
G01 X63.147764 Y11.565857 Z-0.125000
G01 X63.610763 Y11.551714 Z-0.125000
G01 X64.115889 Y11.551714 Z-0.125000
G01 X65.154225 Y11.551714 Z-0.125000
G01 X64.761339 Y11.916415 Z-0.125000
G01 X64.494733 Y11.930558 Z-0.125000
G01 X64.087854 Y12.028553 Z-0.125000
G01 X63.624805 Y12.042696 Z-0.125000
G01 X63.161807 Y12.056840 Z-0.125000
G01 X62.656681 Y12.056840 Z-0.125000
G01 X61.618344 Y12.056840 Z-0.125000
G00 Z5.000000
M5
(End cutting path id: path34933)


(Start cutting path id: path34931)
(Change tool to Default tool)

G00 Z5.000000
G00 X61.113218 Y12.056840
M3S030
G01 Z-0.125000 F100.0(Penetrate)
G01 X61.295619 Y11.481501 Z-0.125000 F2000.000000
G01 X61.786703 Y11.187013 Z-0.125000
G01 X62.642639 Y11.060732 Z-0.125000
G01 X63.105637 Y11.046588 Z-0.125000
G01 X63.610763 Y11.046588 Z-0.125000
G01 X64.649100 Y11.046588 Z-0.125000
G01 X64.256213 Y11.411289 Z-0.125000
G01 X63.989607 Y11.425432 Z-0.125000
G01 X63.119679 Y11.580001 Z-0.125000
G01 X62.151555 Y11.762351 Z-0.125000
G01 X61.113218 Y12.056840 Z-0.125000
G00 Z5.000000
M5
(End cutting path id: path34931)


(Start cutting path id: path34929)
(Change tool to Default tool)

G00 Z5.000000
G00 X100.513038 Y12.561966
M3S030
G01 Z-0.125000 F100.0(Penetrate)
G01 X100.905925 Y12.197265 Z-0.125000 F2000.000000
G01 X101.172531 Y12.183121 Z-0.125000
G01 X101.551375 Y12.085127 Z-0.125000
G01 X102.014374 Y12.070983 Z-0.125000
G01 X103.038668 Y12.056840 Z-0.125000
G01 X102.645781 Y12.421541 Z-0.125000
G01 X102.379176 Y12.435684 Z-0.125000
G01 X102.000331 Y12.533679 Z-0.125000
G01 X101.537333 Y12.547822 Z-0.125000
G01 X100.513038 Y12.561966 Z-0.125000
G00 Z5.000000
M5
(End cutting path id: path34929)


(Start cutting path id: path34927)
(Change tool to Default tool)

G00 Z5.000000
G00 X99.839554 Y12.393759
M3S030
G01 Z-0.125000 F100.0(Penetrate)
G01 X99.839554 Y12.225047 Z-0.125000 F2000.000000
G01 X100.176271 Y12.225047 Z-0.125000
G01 X100.176271 Y12.393759 Z-0.125000
G01 X99.839554 Y12.393759 Z-0.125000
G00 Z5.000000
M5
(End cutting path id: path34927)


(Start cutting path id: path34925)
(Change tool to Default tool)

G00 Z5.000000
G00 X96.472031 Y12.561966
M3S030
G01 Z-0.125000 F100.0(Penetrate)
G01 X96.977157 Y12.056840 Z-0.125000 F2000.000000
G01 X96.472031 Y12.561966 Z-0.125000
G00 Z5.000000
M5
(End cutting path id: path34925)


(Start cutting path id: path34923)
(Change tool to Default tool)

G00 Z5.000000
G00 X92.936150 Y12.056840
M3S030
G01 Z-0.125000 F100.0(Penetrate)
G01 X93.329037 Y11.692139 Z-0.125000 F2000.000000
G01 X93.595642 Y11.677995 Z-0.125000
G01 X94.002521 Y11.580001 Z-0.125000
G01 X94.465570 Y11.565857 Z-0.125000
G01 X94.928569 Y11.551714 Z-0.125000
G01 X95.433694 Y11.551714 Z-0.125000
G01 X96.472031 Y11.551714 Z-0.125000
G01 X96.472031 Y12.056840 Z-0.125000
G01 X95.461780 Y12.561966 Z-0.125000
G01 X94.451528 Y12.267477 Z-0.125000
G01 X93.946402 Y12.168978 Z-0.125000
G01 X93.693839 Y12.098765 Z-0.125000
G01 X92.936150 Y12.056840 Z-0.125000
G00 Z5.000000
M5
(End cutting path id: path34923)


(Start cutting path id: path34921)
(Change tool to Default tool)

G00 Z5.000000
G00 X92.936150 Y12.561966
M3S030
G01 Z-0.125000 F100.0(Penetrate)
G01 X93.329037 Y12.197265 Z-0.125000 F2000.000000
G01 X93.567557 Y12.183121 Z-0.125000
G01 X93.974487 Y12.085127 Z-0.125000
G01 X94.956654 Y12.056840 Z-0.125000
G01 X94.563767 Y12.421541 Z-0.125000
G01 X94.325246 Y12.435684 Z-0.125000
G01 X93.918317 Y12.533679 Z-0.125000
G01 X92.936150 Y12.561966 Z-0.125000
G00 Z5.000000
M5
(End cutting path id: path34921)


(Start cutting path id: path34919)
(Change tool to Default tool)

G00 Z5.000000
G00 X89.400269 Y12.561966
M3S030
G01 Z-0.125000 F100.0(Penetrate)
G01 X89.765071 Y12.197265 Z-0.125000 F2000.000000
G01 X90.031676 Y12.183121 Z-0.125000
G01 X90.915646 Y12.056840 Z-0.125000
G01 X90.550844 Y12.421541 Z-0.125000
G01 X90.284239 Y12.435684 Z-0.125000
G01 X89.400269 Y12.561966 Z-0.125000
G00 Z5.000000
M5
(End cutting path id: path34919)


(Start cutting path id: path34917)
(Change tool to Default tool)

G00 Z5.000000
G00 X82.833632 Y12.561966
M3S030
G01 Z-0.125000 F100.0(Penetrate)
G01 X82.833632 Y12.056840 Z-0.125000 F2000.000000
G01 X83.843884 Y11.551714 Z-0.125000
G01 X83.843884 Y12.561966 Z-0.125000
G01 X82.833632 Y12.561966 Z-0.125000
G00 Z5.000000
M5
(End cutting path id: path34917)


(Start cutting path id: path34915)
(Change tool to Default tool)

G00 Z5.000000
G00 X80.308003 Y12.561966
M3S030
G01 Z-0.125000 F100.0(Penetrate)
G01 X80.700889 Y12.197265 Z-0.125000 F2000.000000
G01 X80.967495 Y12.183121 Z-0.125000
G01 X81.346339 Y12.085127 Z-0.125000
G01 X81.809338 Y12.070983 Z-0.125000
G01 X82.833632 Y12.056840 Z-0.125000
G01 X82.440745 Y12.421541 Z-0.125000
G01 X82.174140 Y12.435684 Z-0.125000
G01 X81.795295 Y12.533679 Z-0.125000
G01 X81.332297 Y12.547822 Z-0.125000
G01 X80.308003 Y12.561966 Z-0.125000
G00 Z5.000000
M5
(End cutting path id: path34915)


(Start cutting path id: path34913)
(Change tool to Default tool)

G00 Z5.000000
G00 X67.174729 Y12.561966
M3S030
G01 Z-0.125000 F100.0(Penetrate)
G01 X67.679855 Y12.056840 Z-0.125000 F2000.000000
G01 X67.174729 Y12.561966 Z-0.125000
G00 Z5.000000
M5
(End cutting path id: path34913)


(Start cutting path id: path34911)
(Change tool to Default tool)

G00 Z5.000000
G00 X64.480741 Y12.393759
M3S030
G01 Z-0.125000 F100.0(Penetrate)
G01 X64.480741 Y12.225047 Z-0.125000 F2000.000000
G01 X64.817458 Y12.225047 Z-0.125000
G01 X64.817458 Y12.393759 Z-0.125000
G01 X64.480741 Y12.393759 Z-0.125000
G00 Z5.000000
M5
(End cutting path id: path34911)


(Start cutting path id: path34909)
(Change tool to Default tool)

G00 Z5.000000
G00 X60.608092 Y12.561966
M3S030
G01 Z-0.125000 F100.0(Penetrate)
G01 X61.000979 Y12.197265 Z-0.125000 F2000.000000
G01 X61.267585 Y12.183121 Z-0.125000
G01 X61.674464 Y12.085127 Z-0.125000
G01 X62.137513 Y12.070983 Z-0.125000
G01 X62.600511 Y12.056840 Z-0.125000
G01 X63.105637 Y12.056840 Z-0.125000
G01 X64.143974 Y12.056840 Z-0.125000
G01 X63.751087 Y12.421541 Z-0.125000
G01 X63.484481 Y12.435684 Z-0.125000
G01 X63.077602 Y12.533679 Z-0.125000
G01 X62.614553 Y12.547822 Z-0.125000
G01 X62.151555 Y12.561966 Z-0.125000
G01 X61.646429 Y12.561966 Z-0.125000
G01 X60.608092 Y12.561966 Z-0.125000
G00 Z5.000000
M5
(End cutting path id: path34909)


(Start cutting path id: path34907)
(Change tool to Default tool)

G00 Z5.000000
G00 X59.092715 Y12.056840
M3S030
G01 Z-0.125000 F100.0(Penetrate)
G01 X59.485602 Y11.649708 Z-0.125000 F2000.000000
G01 X59.724122 Y11.565857 Z-0.125000
G01 X60.369572 Y11.270864 Z-0.125000
G01 X61.113218 Y11.046588 Z-0.125000
G01 X61.113218 Y12.056840 Z-0.125000
G01 X60.608092 Y12.561966 Z-0.125000
G01 X60.102967 Y12.561966 Z-0.125000
G01 X59.092715 Y12.056840 Z-0.125000
G00 Z5.000000
M5
(End cutting path id: path34907)


(Start cutting path id: path34905)
(Change tool to Default tool)

G00 Z5.000000
G00 X59.429482 Y12.393759
M3S030
G01 Z-0.125000 F100.0(Penetrate)
G01 X59.429482 Y12.225047 Z-0.125000 F2000.000000
G01 X59.766199 Y12.225047 Z-0.125000
G01 X59.766199 Y12.393759 Z-0.125000
G01 X59.429482 Y12.393759 Z-0.125000
G00 Z5.000000
M5
(End cutting path id: path34905)


(Start cutting path id: path34903)
(Change tool to Default tool)

G00 Z5.000000
G00 X104.048920 Y13.067092
M3S030
G01 Z-0.125000 F100.0(Penetrate)
G01 X104.554046 Y12.561966 Z-0.125000 F2000.000000
G01 X104.048920 Y13.067092 Z-0.125000
G00 Z5.000000
M5
(End cutting path id: path34903)


(Start cutting path id: path34901)
(Change tool to Default tool)

G00 Z5.000000
G00 X103.543794 Y13.067092
M3S030
G01 Z-0.125000 F100.0(Penetrate)
G01 X103.038668 Y12.561966 Z-0.125000 F2000.000000
G01 X103.038668 Y11.551714 Z-0.125000
G01 X103.599863 Y11.930558 Z-0.125000
G01 X103.782213 Y12.463971 Z-0.125000
G01 X103.852426 Y12.688247 Z-0.125000
G01 X103.543794 Y13.067092 Z-0.125000
G00 Z5.000000
M5
(End cutting path id: path34901)


(Start cutting path id: path34899)
(Change tool to Default tool)

G00 Z5.000000
G00 X96.977157 Y12.056840
M3S030
G01 Z-0.125000 F100.0(Penetrate)
G01 X97.987409 Y12.561966 Z-0.125000 F2000.000000
G01 X98.492535 Y12.561966 Z-0.125000
G01 X98.113690 Y12.912523 Z-0.125000
G01 X97.594522 Y12.898885 Z-0.125000
G01 X97.327917 Y12.716534 Z-0.125000
G01 X97.159558 Y12.632178 Z-0.125000
G01 X96.977157 Y12.056840 Z-0.125000
G00 Z5.000000
M5
(End cutting path id: path34899)


(Start cutting path id: path34897)
(Change tool to Default tool)

G00 Z5.000000
G00 X94.956654 Y13.067092
M3S030
G01 Z-0.125000 F100.0(Penetrate)
G01 X95.321456 Y12.491753 Z-0.125000 F2000.000000
G01 X95.588061 Y12.393759 Z-0.125000
G01 X96.472031 Y12.056840 Z-0.125000
G01 X95.966905 Y13.067092 Z-0.125000
G01 X94.956654 Y13.067092 Z-0.125000
G00 Z5.000000
M5
(End cutting path id: path34897)


(Start cutting path id: path34895)
(Change tool to Default tool)

G00 Z5.000000
G00 X83.843884 Y13.067092
M3S030
G01 Z-0.125000 F100.0(Penetrate)
G01 X83.843884 Y12.056840 Z-0.125000 F2000.000000
G01 X84.349010 Y12.056840 Z-0.125000
G01 X84.854136 Y13.067092 Z-0.125000
G01 X83.843884 Y13.067092 Z-0.125000
G00 Z5.000000
M5
(Change tool to Default tool)

G00 Z5.000000
G00 X91.589131 Y12.730173
M3S030
G01 Z-0.125000 F100.0(Penetrate)
G01 X91.589131 Y12.393759 Z-0.125000 F2000.000000
G01 X91.757540 Y12.393759 Z-0.125000
G01 X91.757540 Y12.730173 Z-0.125000
G01 X91.589131 Y12.730173 Z-0.125000
G00 Z5.000000
M5
(End cutting path id: path34895)


(Start cutting path id: path34893)
(Change tool to Default tool)

G00 Z5.000000
G00 X73.909724 Y12.730173
M3S030
G01 Z-0.125000 F100.0(Penetrate)
G01 X73.909724 Y12.393759 Z-0.125000 F2000.000000
G01 X74.078133 Y12.393759 Z-0.125000
G01 X74.078133 Y12.561966 Z-0.125000
G01 X73.909724 Y12.730173 Z-0.125000
G00 Z5.000000
M5
(Change tool to Default tool)

G00 Z5.000000
G00 X74.751618 Y13.067092
M3S030
G01 Z-0.125000 F100.0(Penetrate)
G01 X75.256743 Y12.561966 Z-0.125000 F2000.000000
G01 X74.751618 Y13.067092 Z-0.125000
G00 Z5.000000
M5
(End cutting path id: path34893)


(Start cutting path id: path34891)
(Change tool to Default tool)

G00 Z5.000000
G00 X65.154225 Y11.551714
M3S030
G01 Z-0.125000 F100.0(Penetrate)
G01 X65.911914 Y11.692139 Z-0.125000 F2000.000000
G01 X66.669603 Y11.986627 Z-0.125000
G01 X66.922166 Y12.070983 Z-0.125000
G01 X67.679855 Y12.561966 Z-0.125000
G01 X67.286968 Y12.884741 Z-0.125000
G01 X67.020363 Y12.828672 Z-0.125000
G01 X66.627526 Y12.828672 Z-0.125000
G01 X65.827710 Y12.533679 Z-0.125000
G01 X65.519027 Y12.267477 Z-0.125000
G01 X65.336626 Y12.141196 Z-0.125000
G01 X65.154225 Y11.551714 Z-0.125000
G00 Z5.000000
M5
(End cutting path id: path34891)


(Start cutting path id: path34889)
(Change tool to Default tool)

G00 Z5.000000
G00 X66.164477 Y13.067092
M3S030
G01 Z-0.125000 F100.0(Penetrate)
G01 X66.669603 Y12.561966 Z-0.125000 F2000.000000
G01 X66.164477 Y13.067092 Z-0.125000
G00 Z5.000000
M5
(End cutting path id: path34889)


(Start cutting path id: path34887)
(Change tool to Default tool)

G00 Z5.000000
G00 X58.924356 Y12.898885
M3S030
G01 Z-0.125000 F100.0(Penetrate)
G01 X58.924356 Y12.730173 Z-0.125000 F2000.000000
G01 X59.261073 Y12.730173 Z-0.125000
G01 X59.261073 Y12.898885 Z-0.125000
G01 X58.924356 Y12.898885 Z-0.125000
G00 Z5.000000
M5
(End cutting path id: path34887)


(Start cutting path id: path34885)
(Change tool to Default tool)

G00 Z5.000000
G00 X98.997661 Y13.572217
M3S030
G01 Z-0.125000 F100.0(Penetrate)
G01 X99.502787 Y13.067092 Z-0.125000 F2000.000000
G01 X98.997661 Y13.572217 Z-0.125000
G00 Z5.000000
M5
(End cutting path id: path34885)


(Start cutting path id: path34883)
(Change tool to Default tool)

G00 Z5.000000
G00 X98.492535 Y13.572217
M3S030
G01 Z-0.125000 F100.0(Penetrate)
G01 X97.987409 Y12.561966 Z-0.125000 F2000.000000
G01 X97.987409 Y12.056840 Z-0.125000
G01 X99.502787 Y12.056840 Z-0.125000
G01 X99.081865 Y12.940810 Z-0.125000
G01 X98.983618 Y13.207517 Z-0.125000
G01 X98.492535 Y13.572217 Z-0.125000
G00 Z5.000000
M5
(End cutting path id: path34883)


(Start cutting path id: path34881)
(Change tool to Default tool)

G00 Z5.000000
G00 X67.174729 Y13.572217
M3S030
G01 Z-0.125000 F100.0(Penetrate)
G01 X67.679855 Y13.067092 Z-0.125000 F2000.000000
G01 X67.174729 Y13.572217 Z-0.125000
G00 Z5.000000
M5
(Change tool to Default tool)

G00 Z5.000000
G00 X83.843884 Y13.572217
M3S030
G01 Z-0.125000 F100.0(Penetrate)
G01 X84.349010 Y13.067092 Z-0.125000 F2000.000000
G01 X83.843884 Y13.572217 Z-0.125000
G00 Z5.000000
M5
(Change tool to Default tool)

G00 Z5.000000
G00 X87.884891 Y13.572217
M3S030
G01 Z-0.125000 F100.0(Penetrate)
G01 X87.884891 Y12.056840 Z-0.125000 F2000.000000
G01 X88.235650 Y12.435684 Z-0.125000
G01 X88.235650 Y12.969097 Z-0.125000
G01 X88.235650 Y13.193373 Z-0.125000
G01 X87.884891 Y13.572217 Z-0.125000
G00 Z5.000000
M5
(End cutting path id: path34881)


(Start cutting path id: path34879)
(Change tool to Default tool)

G00 Z5.000000
G00 X98.997661 Y14.077343
M3S030
G01 Z-0.125000 F100.0(Penetrate)
G01 X99.502787 Y13.572217 Z-0.125000 F2000.000000
G01 X98.997661 Y14.077343 Z-0.125000
G00 Z5.000000
M5
(End cutting path id: path34879)


(Start cutting path id: path34877)
(Change tool to Default tool)

G00 Z5.000000
G00 X88.895143 Y14.077343
M3S030
G01 Z-0.125000 F100.0(Penetrate)
G01 X88.895143 Y12.056840 Z-0.125000 F2000.000000
G01 X89.259945 Y12.449828 Z-0.125000
G01 X89.259945 Y12.702391 Z-0.125000
G01 X89.344149 Y13.067092 Z-0.125000
G01 X89.259945 Y13.684355 Z-0.125000
G01 X88.895143 Y14.077343 Z-0.125000
G00 Z5.000000
M5
(End cutting path id: path34877)


(Start cutting path id: path34875)
(Change tool to Default tool)

G00 Z5.000000
G00 X88.390017 Y14.077343
M3S030
G01 Z-0.125000 F100.0(Penetrate)
G01 X88.390017 Y11.551714 Z-0.125000 F2000.000000
G01 X89.428354 Y11.565857 Z-0.125000
G01 X89.905395 Y11.580001 Z-0.125000
G01 X90.382435 Y11.677995 Z-0.125000
G01 X90.663083 Y11.692139 Z-0.125000
G01 X91.420772 Y12.056840 Z-0.125000
G01 X91.027885 Y12.295259 Z-0.125000
G01 X90.761280 Y12.239190 Z-0.125000
G01 X90.382435 Y12.225047 Z-0.125000
G01 X89.652832 Y12.098765 Z-0.125000
G01 X88.895143 Y12.056840 Z-0.125000
G01 X88.867058 Y13.038805 Z-0.125000
G01 X88.768861 Y13.445936 Z-0.125000
G01 X88.754819 Y13.684355 Z-0.125000
G01 X88.390017 Y14.077343 Z-0.125000
G00 Z5.000000
M5
(End cutting path id: path34875)


(Start cutting path id: path34873)
(Change tool to Default tool)

G00 Z5.000000
G00 X84.854136 Y14.077343
M3S030
G01 Z-0.125000 F100.0(Penetrate)
G01 X85.359262 Y13.572217 Z-0.125000 F2000.000000
G01 X84.854136 Y14.077343 Z-0.125000
G00 Z5.000000
M5
(End cutting path id: path34873)


(Start cutting path id: path34871)
(Change tool to Default tool)

G00 Z5.000000
G00 X84.517368 Y13.740424
M3S030
G01 Z-0.125000 F100.0(Penetrate)
G01 X84.517368 Y13.404011 Z-0.125000 F2000.000000
G01 X84.685777 Y13.404011 Z-0.125000
G01 X84.685777 Y13.572217 Z-0.125000
G01 X84.517368 Y13.740424 Z-0.125000
G00 Z5.000000
M5
(End cutting path id: path34871)


(Start cutting path id: path34869)
(Change tool to Default tool)

G00 Z5.000000
G00 X79.466109 Y13.740424
M3S030
G01 Z-0.125000 F100.0(Penetrate)
G01 X79.466109 Y13.572217 Z-0.125000 F2000.000000
G01 X79.634518 Y13.404011 Z-0.125000
G01 X79.634518 Y13.572217 Z-0.125000
G01 X79.466109 Y13.740424 Z-0.125000
G00 Z5.000000
M5
(End cutting path id: path34869)


(Start cutting path id: path34867)
(Change tool to Default tool)

G00 Z5.000000
G00 X78.455857 Y13.740424
M3S030
G01 Z-0.125000 F100.0(Penetrate)
G01 X78.455857 Y13.404011 Z-0.125000 F2000.000000
G01 X78.624266 Y13.404011 Z-0.125000
G01 X78.624266 Y13.572217 Z-0.125000
G01 X78.455857 Y13.740424 Z-0.125000
G00 Z5.000000
M5
(End cutting path id: path34867)


(Start cutting path id: path34865)
(Change tool to Default tool)

G00 Z5.000000
G00 X67.679855 Y12.561966
M3S030
G01 Z-0.125000 F100.0(Penetrate)
G01 X68.563825 Y13.193373 Z-0.125000 F2000.000000
G01 X68.830431 Y13.375724 Z-0.125000
G01 X69.195233 Y14.077343 Z-0.125000
G01 X68.493663 Y13.894993 Z-0.125000
G01 X68.016622 Y13.431792 Z-0.125000
G01 X67.862256 Y13.263586 Z-0.125000
G01 X67.679855 Y12.561966 Z-0.125000
G00 Z5.000000
M5
(End cutting path id: path34865)


(Start cutting path id: path34863)
(Change tool to Default tool)

G00 Z5.000000
G00 X59.092715 Y14.077343
M3S030
G01 Z-0.125000 F100.0(Penetrate)
G01 X59.597841 Y13.572217 Z-0.125000 F2000.000000
G01 X59.092715 Y14.077343 Z-0.125000
G00 Z5.000000
M5
(End cutting path id: path34863)


(Start cutting path id: path34861)
(Change tool to Default tool)

G00 Z5.000000
G00 X58.755947 Y13.740424
M3S030
G01 Z-0.125000 F100.0(Penetrate)
G01 X58.755947 Y13.404011 Z-0.125000 F2000.000000
G01 X58.924356 Y13.404011 Z-0.125000
G01 X58.924356 Y13.740424 Z-0.125000
G01 X58.755947 Y13.740424 Z-0.125000
G00 Z5.000000
M5
(End cutting path id: path34861)


(Start cutting path id: path34859)
(Change tool to Default tool)

G00 Z5.000000
G00 X100.513038 Y14.582469
M3S030
G01 Z-0.125000 F100.0(Penetrate)
G01 X100.877840 Y14.217768 Z-0.125000 F2000.000000
G01 X101.144446 Y14.203625 Z-0.125000
G01 X102.028416 Y14.077343 Z-0.125000
G01 X101.663614 Y14.442044 Z-0.125000
G01 X101.397009 Y14.456188 Z-0.125000
G01 X100.513038 Y14.582469 Z-0.125000
G00 Z5.000000
M5
(End cutting path id: path34859)


(Start cutting path id: path34857)
(Change tool to Default tool)

G00 Z5.000000
G00 X99.671145 Y14.245550
M3S030
G01 Z-0.125000 F100.0(Penetrate)
G01 X99.671145 Y13.909136 Z-0.125000 F2000.000000
G01 X99.839554 Y13.909136 Z-0.125000
G01 X99.839554 Y14.245550 Z-0.125000
G01 X99.671145 Y14.245550 Z-0.125000
G00 Z5.000000
M5
(End cutting path id: path34857)


(Start cutting path id: path34855)
(Change tool to Default tool)

G00 Z5.000000
G00 X94.956654 Y14.582469
M3S030
G01 Z-0.125000 F100.0(Penetrate)
G01 X95.461780 Y14.077343 Z-0.125000 F2000.000000
G01 X94.956654 Y14.582469 Z-0.125000
G00 Z5.000000
M5
(End cutting path id: path34855)


(Start cutting path id: path34853)
(Change tool to Default tool)

G00 Z5.000000
G00 X88.390017 Y14.582469
M3S030
G01 Z-0.125000 F100.0(Penetrate)
G01 X88.895143 Y14.077343 Z-0.125000 F2000.000000
G01 X88.390017 Y14.582469 Z-0.125000
G00 Z5.000000
M5
(Change tool to Default tool)

G00 Z5.000000
G00 X92.936150 Y14.582469
M3S030
G01 Z-0.125000 F100.0(Penetrate)
G01 X93.441276 Y14.077343 Z-0.125000 F2000.000000
G01 X92.936150 Y14.582469 Z-0.125000
G00 Z5.000000
M5
(End cutting path id: path34853)


(Start cutting path id: path34851)
(Change tool to Default tool)

G00 Z5.000000
G00 X74.246492 Y14.582469
M3S030
G01 Z-0.125000 F100.0(Penetrate)
G01 X74.751618 Y14.077343 Z-0.125000 F2000.000000
G01 X74.246492 Y14.582469 Z-0.125000
G00 Z5.000000
M5
(End cutting path id: path34851)


(Start cutting path id: path34849)
(Change tool to Default tool)

G00 Z5.000000
G00 X61.449986 Y14.414262
M3S030
G01 Z-0.125000 F100.0(Penetrate)
G01 X61.449986 Y14.245550 Z-0.125000 F2000.000000
G01 X61.786703 Y14.245550 Z-0.125000
G01 X61.786703 Y14.414262 Z-0.125000
G01 X61.449986 Y14.414262 Z-0.125000
G00 Z5.000000
M5
(End cutting path id: path34849)


(Start cutting path id: path34847)
(Change tool to Default tool)

G00 Z5.000000
G00 X59.092715 Y14.582469
M3S030
G01 Z-0.125000 F100.0(Penetrate)
G01 X59.597841 Y14.077343 Z-0.125000 F2000.000000
G01 X59.092715 Y14.582469 Z-0.125000
G00 Z5.000000
M5
(End cutting path id: path34847)


(Start cutting path id: path34845)
(Change tool to Default tool)

G00 Z5.000000
G00 X102.028416 Y15.087595
M3S030
G01 Z-0.125000 F100.0(Penetrate)
G01 X102.533542 Y14.582469 Z-0.125000 F2000.000000
G01 X102.028416 Y15.087595 Z-0.125000
G00 Z5.000000
M5
(End cutting path id: path34845)


(Start cutting path id: path34843)
(Change tool to Default tool)

G00 Z5.000000
G00 X100.007913 Y14.077343
M3S030
G01 Z-0.125000 F100.0(Penetrate)
G01 X100.737516 Y14.287981 Z-0.125000 F2000.000000
G01 X101.298812 Y14.456188 Z-0.125000
G01 X102.028416 Y14.582469 Z-0.125000
G01 X101.635529 Y14.947170 Z-0.125000
G01 X101.382966 Y14.947170 Z-0.125000
G01 X101.018164 Y15.003239 Z-0.125000
G01 X100.372715 Y14.750676 Z-0.125000
G01 X100.190314 Y14.652682 Z-0.125000
G01 X100.007913 Y14.077343 Z-0.125000
G00 Z5.000000
M5
(End cutting path id: path34843)


(Start cutting path id: path34841)
(Change tool to Default tool)

G00 Z5.000000
G00 X95.966905 Y15.087595
M3S030
G01 Z-0.125000 F100.0(Penetrate)
G01 X95.756419 Y14.358193 Z-0.125000 F2000.000000
G01 X95.588061 Y13.796493 Z-0.125000
G01 X95.461780 Y13.067092 Z-0.125000
G01 X96.037067 Y13.249442 Z-0.125000
G01 X96.135264 Y13.431792 Z-0.125000
G01 X96.387827 Y14.077343 Z-0.125000
G01 X96.331707 Y14.442044 Z-0.125000
G01 X96.331707 Y14.694607 Z-0.125000
G01 X95.966905 Y15.087595 Z-0.125000
G00 Z5.000000
M5
(End cutting path id: path34841)


(Start cutting path id: path34839)
(Change tool to Default tool)

G00 Z5.000000
G00 X93.441276 Y15.087595
M3S030
G01 Z-0.125000 F100.0(Penetrate)
G01 X93.946402 Y14.582469 Z-0.125000 F2000.000000
G01 X93.441276 Y15.087595 Z-0.125000
G00 Z5.000000
M5
(End cutting path id: path34839)


(Start cutting path id: path34837)
(Change tool to Default tool)

G00 Z5.000000
G00 X92.936150 Y15.087595
M3S030
G01 Z-0.125000 F100.0(Penetrate)
G01 X93.441276 Y14.582469 Z-0.125000 F2000.000000
G01 X92.936150 Y15.087595 Z-0.125000
G00 Z5.000000
M5
(End cutting path id: path34837)


(Start cutting path id: path34835)
(Change tool to Default tool)

G00 Z5.000000
G00 X89.400269 Y15.087595
M3S030
G01 Z-0.125000 F100.0(Penetrate)
G01 X89.905395 Y14.582469 Z-0.125000 F2000.000000
G01 X89.400269 Y15.087595 Z-0.125000
G00 Z5.000000
M5
(End cutting path id: path34835)


(Start cutting path id: path34833)
(Change tool to Default tool)

G00 Z5.000000
G00 X89.063501 Y14.750676
M3S030
G01 Z-0.125000 F100.0(Penetrate)
G01 X89.063501 Y14.414262 Z-0.125000 F2000.000000
G01 X89.231910 Y14.414262 Z-0.125000
G01 X89.231910 Y14.750676 Z-0.125000
G01 X89.063501 Y14.750676 Z-0.125000
G00 Z5.000000
M5
(End cutting path id: path34833)


(Start cutting path id: path34831)
(Change tool to Default tool)

G00 Z5.000000
G00 X84.517368 Y14.750676
M3S030
G01 Z-0.125000 F100.0(Penetrate)
G01 X84.517368 Y14.414262 Z-0.125000 F2000.000000
G01 X84.685777 Y14.414262 Z-0.125000
G01 X84.685777 Y14.582469 Z-0.125000
G01 X84.517368 Y14.750676 Z-0.125000
G00 Z5.000000
M5
(End cutting path id: path34831)


(Start cutting path id: path34829)
(Change tool to Default tool)

G00 Z5.000000
G00 X79.802877 Y15.087595
M3S030
G01 Z-0.125000 F100.0(Penetrate)
G01 X80.308003 Y14.582469 Z-0.125000 F2000.000000
G01 X79.802877 Y15.087595 Z-0.125000
G00 Z5.000000
M5
(End cutting path id: path34829)


(Start cutting path id: path34827)
(Change tool to Default tool)

G00 Z5.000000
G00 X78.792625 Y15.087595
M3S030
G01 Z-0.125000 F100.0(Penetrate)
G01 X79.297751 Y14.582469 Z-0.125000 F2000.000000
G01 X78.792625 Y15.087595 Z-0.125000
G00 Z5.000000
M5
(End cutting path id: path34827)


(Start cutting path id: path34825)
(Change tool to Default tool)

G00 Z5.000000
G00 X68.690107 Y14.077343
M3S030
G01 Z-0.125000 F100.0(Penetrate)
G01 X69.574077 Y14.414262 Z-0.125000 F2000.000000
G01 X69.840683 Y14.512257 Z-0.125000
G01 X70.205484 Y15.087595 Z-0.125000
G01 X69.321514 Y14.750676 Z-0.125000
G01 X69.054909 Y14.652682 Z-0.125000
G01 X68.690107 Y14.077343 Z-0.125000
G00 Z5.000000
M5
(End cutting path id: path34825)


(Start cutting path id: path34823)
(Change tool to Default tool)

G00 Z5.000000
G00 X59.597841 Y15.087595
M3S030
G01 Z-0.125000 F100.0(Penetrate)
G01 X60.102967 Y14.582469 Z-0.125000 F2000.000000
G01 X59.597841 Y15.087595 Z-0.125000
G00 Z5.000000
M5
(End cutting path id: path34823)


(Start cutting path id: path34821)
(Change tool to Default tool)

G00 Z5.000000
G00 X59.092715 Y15.087595
M3S030
G01 Z-0.125000 F100.0(Penetrate)
G01 X59.597841 Y14.582469 Z-0.125000 F2000.000000
G01 X59.092715 Y15.087595 Z-0.125000
G00 Z5.000000
M5
(End cutting path id: path34821)


(Start cutting path id: path34819)
(Change tool to Default tool)

G00 Z5.000000
G00 X89.400269 Y15.592721
M3S030
G01 Z-0.125000 F100.0(Penetrate)
G01 X89.905395 Y15.087595 Z-0.125000 F2000.000000
G01 X89.400269 Y15.592721 Z-0.125000
G00 Z5.000000
M5
(Change tool to Default tool)

G00 Z5.000000
G00 X93.441276 Y15.592721
M3S030
G01 Z-0.125000 F100.0(Penetrate)
G01 X93.946402 Y15.087595 Z-0.125000 F2000.000000
G01 X93.441276 Y15.592721 Z-0.125000
G00 Z5.000000
M5
(End cutting path id: path34819)


(Start cutting path id: path34817)
(Change tool to Default tool)

G00 Z5.000000
G00 X86.874639 Y15.592721
M3S030
G01 Z-0.125000 F100.0(Penetrate)
G01 X86.874639 Y14.582469 Z-0.125000 F2000.000000
G01 X87.379765 Y14.582469 Z-0.125000
G01 X87.884891 Y15.592721 Z-0.125000
G01 X86.874639 Y15.592721 Z-0.125000
G00 Z5.000000
M5
(End cutting path id: path34817)


(Start cutting path id: path34815)
(Change tool to Default tool)

G00 Z5.000000
G00 X75.425102 Y15.255802
M3S030
G01 Z-0.125000 F100.0(Penetrate)
G01 X75.425102 Y14.919388 Z-0.125000 F2000.000000
G01 X75.593511 Y14.919388 Z-0.125000
G01 X75.593511 Y15.087595 Z-0.125000
G01 X75.425102 Y15.255802 Z-0.125000
G00 Z5.000000
M5
(End cutting path id: path34815)


(Start cutting path id: path34813)
(Change tool to Default tool)

G00 Z5.000000
G00 X60.102967 Y15.592721
M3S030
G01 Z-0.125000 F100.0(Penetrate)
G01 X60.608092 Y15.087595 Z-0.125000 F2000.000000
G01 X60.102967 Y15.592721 Z-0.125000
G00 Z5.000000
M5
(Change tool to Default tool)

G00 Z5.000000
G00 X69.700359 Y15.592721
M3S030
G01 Z-0.125000 F100.0(Penetrate)
G01 X70.205484 Y15.087595 Z-0.125000 F2000.000000
G01 X69.700359 Y15.592721 Z-0.125000
G00 Z5.000000
M5
(End cutting path id: path34813)


(Start cutting path id: path34811)
(Change tool to Default tool)

G00 Z5.000000
G00 X59.597841 Y15.592721
M3S030
G01 Z-0.125000 F100.0(Penetrate)
G01 X60.102967 Y15.087595 Z-0.125000 F2000.000000
G01 X59.597841 Y15.592721 Z-0.125000
G00 Z5.000000
M5
(End cutting path id: path34811)


(Start cutting path id: path34809)
(Change tool to Default tool)

G00 Z5.000000
G00 X99.166019 Y15.760928
M3S030
G01 Z-0.125000 F100.0(Penetrate)
G01 X99.166019 Y15.424514 Z-0.125000 F2000.000000
G01 X99.334428 Y15.424514 Z-0.125000
G01 X99.334428 Y15.760928 Z-0.125000
G01 X99.166019 Y15.760928 Z-0.125000
G00 Z5.000000
M5
(End cutting path id: path34809)


(Start cutting path id: path34807)
(Change tool to Default tool)

G00 Z5.000000
G00 X95.461780 Y16.097847
M3S030
G01 Z-0.125000 F100.0(Penetrate)
G01 X95.966905 Y15.592721 Z-0.125000 F2000.000000
G01 X95.461780 Y16.097847 Z-0.125000
G00 Z5.000000
M5
(End cutting path id: path34807)


(Start cutting path id: path34805)
(Change tool to Default tool)

G00 Z5.000000
G00 X94.956654 Y16.097847
M3S030
G01 Z-0.125000 F100.0(Penetrate)
G01 X95.082935 Y15.087595 Z-0.125000 F2000.000000
G01 X95.096978 Y14.806745 Z-0.125000
G01 X95.461780 Y14.077343 Z-0.125000
G01 X95.812539 Y14.470331 Z-0.125000
G01 X95.798547 Y15.087595 Z-0.125000
G01 X95.616146 Y15.452296 Z-0.125000
G01 X95.531941 Y15.704859 Z-0.125000
G01 X94.956654 Y16.097847 Z-0.125000
G00 Z5.000000
M5
(End cutting path id: path34805)


(Start cutting path id: path34803)
(Change tool to Default tool)

G00 Z5.000000
G00 X93.946402 Y16.097847
M3S030
G01 Z-0.125000 F100.0(Penetrate)
G01 X93.946402 Y15.592721 Z-0.125000 F2000.000000
G01 X94.956654 Y15.087595 Z-0.125000
G01 X94.956654 Y16.097847 Z-0.125000
G01 X93.946402 Y16.097847 Z-0.125000
G00 Z5.000000
M5
(End cutting path id: path34803)


(Start cutting path id: path34801)
(Change tool to Default tool)

G00 Z5.000000
G00 X93.441276 Y16.097847
M3S030
G01 Z-0.125000 F100.0(Penetrate)
G01 X93.946402 Y15.592721 Z-0.125000 F2000.000000
G01 X93.441276 Y16.097847 Z-0.125000
G00 Z5.000000
M5
(End cutting path id: path34801)


(Start cutting path id: path34799)
(Change tool to Default tool)

G00 Z5.000000
G00 X89.905395 Y16.097847
M3S030
G01 Z-0.125000 F100.0(Penetrate)
G01 X90.410520 Y15.592721 Z-0.125000 F2000.000000
G01 X89.905395 Y16.097847 Z-0.125000
G00 Z5.000000
M5
(End cutting path id: path34799)


(Start cutting path id: path34797)
(Change tool to Default tool)

G00 Z5.000000
G00 X85.359262 Y16.097847
M3S030
G01 Z-0.125000 F100.0(Penetrate)
G01 X85.359262 Y14.582469 Z-0.125000 F2000.000000
G01 X85.710021 Y14.961314 Z-0.125000
G01 X85.710021 Y15.494727 Z-0.125000
G01 X85.710021 Y15.719003 Z-0.125000
G01 X85.359262 Y16.097847 Z-0.125000
G00 Z5.000000
M5
(End cutting path id: path34797)


(Start cutting path id: path34795)
(Change tool to Default tool)

G00 Z5.000000
G00 X83.843884 Y16.097847
M3S030
G01 Z-0.125000 F100.0(Penetrate)
G01 X84.349010 Y15.592721 Z-0.125000 F2000.000000
G01 X83.843884 Y16.097847 Z-0.125000
G00 Z5.000000
M5
(End cutting path id: path34795)


(Start cutting path id: path34793)
(Change tool to Default tool)

G00 Z5.000000
G00 X73.236240 Y16.097847
M3S030
G01 Z-0.125000 F100.0(Penetrate)
G01 X73.573007 Y15.578578 Z-0.125000 F2000.000000
G01 X73.909724 Y15.185590 Z-0.125000
G01 X74.246492 Y14.582469 Z-0.125000
G01 X74.597251 Y14.961314 Z-0.125000
G01 X74.555174 Y15.480583 Z-0.125000
G01 X74.400858 Y15.747290 Z-0.125000
G01 X73.937809 Y16.041778 Z-0.125000
G01 X73.236240 Y16.097847 Z-0.125000
G00 Z5.000000
M5
(End cutting path id: path34793)


(Start cutting path id: path34791)
(Change tool to Default tool)

G00 Z5.000000
G00 X52.526078 Y16.097847
M3S030
G01 Z-0.125000 F100.0(Penetrate)
G01 X52.526078 Y3.974825 Z-0.125000 F2000.000000
G01 X66.669603 Y3.974825 Z-0.125000
G01 X66.669603 Y5.013364 Z-0.125000
G01 X66.669603 Y5.518490 Z-0.125000
G01 X66.683646 Y5.995329 Z-0.125000
G01 X66.725723 Y6.486311 Z-0.125000
G01 X66.809927 Y6.949512 Z-0.125000
G01 X67.006371 Y7.356138 Z-0.125000
G01 X67.104567 Y7.622845 Z-0.125000
G01 X67.679855 Y8.015833 Z-0.125000
G01 X67.286968 Y8.380533 Z-0.125000
G01 X67.020363 Y8.394677 Z-0.125000
G01 X66.613484 Y8.506815 Z-0.125000
G01 X65.659351 Y8.633096 Z-0.125000
G01 X65.154225 Y8.717452 Z-0.125000
G01 X64.649100 Y8.829590 Z-0.125000
G01 X63.638848 Y8.984159 Z-0.125000
G01 X62.656681 Y9.026084 Z-0.125000
G01 X62.151555 Y9.026084 Z-0.125000
G01 X61.113218 Y9.026084 Z-0.125000
G01 X61.618344 Y10.036336 Z-0.125000
G01 X61.113218 Y10.541462 Z-0.125000
G01 X59.092715 Y10.541462 Z-0.125000
G01 X58.826109 Y11.285007 Z-0.125000
G01 X58.363111 Y11.930558 Z-0.125000
G01 X58.194702 Y12.168978 Z-0.125000
G01 X57.577337 Y12.561966 Z-0.125000
G01 X57.900062 Y13.319655 Z-0.125000
G01 X57.801815 Y14.105630 Z-0.125000
G01 X57.591380 Y14.568326 Z-0.125000
G01 X56.945930 Y15.424514 Z-0.125000
G01 X56.047927 Y15.929640 Z-0.125000
G01 X55.556833 Y16.041778 Z-0.125000
G01 X55.051707 Y16.083703 Z-0.125000
G01 X54.546582 Y16.097847 Z-0.125000
G01 X54.069520 Y16.097847 Z-0.125000
G01 X52.526078 Y16.097847 Z-0.125000
G00 Z5.000000
M5
(End cutting path id: path34791)


(Start cutting path id: path34789)
(Change tool to Default tool)

G00 Z5.000000
G00 X103.038668 Y16.602973
M3S030
G01 Z-0.125000 F100.0(Penetrate)
G01 X103.543794 Y16.097847 Z-0.125000 F2000.000000
G01 X103.038668 Y16.602973 Z-0.125000
G00 Z5.000000
M5
(End cutting path id: path34789)


(Start cutting path id: path34787)
(Change tool to Default tool)

G00 Z5.000000
G00 X102.365184 Y16.434766
M3S030
G01 Z-0.125000 F100.0(Penetrate)
G01 X102.533542 Y16.266054 Z-0.125000 F2000.000000
G01 X102.701901 Y16.266054 Z-0.125000
G01 X102.533542 Y16.434766 Z-0.125000
G01 X102.365184 Y16.434766 Z-0.125000
G00 Z5.000000
M5
(End cutting path id: path34787)


(Start cutting path id: path34785)
(Change tool to Default tool)

G00 Z5.000000
G00 X101.523290 Y16.602973
M3S030
G01 Z-0.125000 F100.0(Penetrate)
G01 X102.028416 Y16.097847 Z-0.125000 F2000.000000
G01 X101.523290 Y16.602973 Z-0.125000
G00 Z5.000000
M5
(End cutting path id: path34785)


(Start cutting path id: path34783)
(Change tool to Default tool)

G00 Z5.000000
G00 X100.007913 Y16.602973
M3S030
G01 Z-0.125000 F100.0(Penetrate)
G01 X100.513038 Y16.097847 Z-0.125000 F2000.000000
G01 X100.007913 Y16.602973 Z-0.125000
G00 Z5.000000
M5
(End cutting path id: path34783)


(Start cutting path id: path34781)
(Change tool to Default tool)

G00 Z5.000000
G00 X99.502787 Y16.602973
M3S030
G01 Z-0.125000 F100.0(Penetrate)
G01 X99.502787 Y14.582469 Z-0.125000 F2000.000000
G01 X100.035998 Y14.975457 Z-0.125000
G01 X100.148237 Y15.592721 Z-0.125000
G01 X100.021955 Y15.957422 Z-0.125000
G01 X99.979828 Y16.209985 Z-0.125000
G01 X99.502787 Y16.602973 Z-0.125000
G00 Z5.000000
M5
(End cutting path id: path34781)


(Start cutting path id: path34779)
(Change tool to Default tool)

G00 Z5.000000
G00 X94.956654 Y16.602973
M3S030
G01 Z-0.125000 F100.0(Penetrate)
G01 X95.461780 Y16.097847 Z-0.125000 F2000.000000
G01 X94.956654 Y16.602973 Z-0.125000
G00 Z5.000000
M5
(End cutting path id: path34779)


(Start cutting path id: path34777)
(Change tool to Default tool)

G00 Z5.000000
G00 X90.410520 Y16.602973
M3S030
G01 Z-0.125000 F100.0(Penetrate)
G01 X90.915646 Y16.097847 Z-0.125000 F2000.000000
G01 X90.410520 Y16.602973 Z-0.125000
G00 Z5.000000
M5
(Change tool to Default tool)

G00 Z5.000000
G00 X93.946402 Y16.602973
M3S030
G01 Z-0.125000 F100.0(Penetrate)
G01 X94.451528 Y16.097847 Z-0.125000 F2000.000000
G01 X93.946402 Y16.602973 Z-0.125000
G00 Z5.000000
M5
(End cutting path id: path34777)


(Start cutting path id: path34775)
(Change tool to Default tool)

G00 Z5.000000
G00 X84.854136 Y16.602973
M3S030
G01 Z-0.125000 F100.0(Penetrate)
G01 X85.359262 Y16.097847 Z-0.125000 F2000.000000
G01 X84.854136 Y16.602973 Z-0.125000
G00 Z5.000000
M5
(End cutting path id: path34775)


(Start cutting path id: path34773)
(Change tool to Default tool)

G00 Z5.000000
G00 X83.338758 Y16.602973
M3S030
G01 Z-0.125000 F100.0(Penetrate)
G01 X83.843884 Y16.097847 Z-0.125000 F2000.000000
G01 X83.338758 Y16.602973 Z-0.125000
G00 Z5.000000
M5
(End cutting path id: path34773)


(Start cutting path id: path34771)
(Change tool to Default tool)

G00 Z5.000000
G00 X79.802877 Y12.561966
M3S030
G01 Z-0.125000 F100.0(Penetrate)
G01 X83.843884 Y12.561966 Z-0.125000 F2000.000000
G01 X84.138524 Y13.600505 Z-0.125000
G01 X84.222728 Y14.105630 Z-0.125000
G01 X84.166609 Y15.073452 Z-0.125000
G01 X83.675525 Y15.929640 Z-0.125000
G01 X82.819589 Y16.420622 Z-0.125000
G01 X82.328506 Y16.490835 Z-0.125000
G01 X81.837423 Y16.420622 Z-0.125000
G01 X81.360331 Y16.238272 Z-0.125000
G01 X80.560565 Y15.536652 Z-0.125000
G01 X80.279917 Y15.073452 Z-0.125000
G01 X80.055440 Y14.582469 Z-0.125000
G01 X79.929158 Y14.105630 Z-0.125000
G01 X79.816919 Y13.319655 Z-0.125000
G01 X79.802877 Y12.561966 Z-0.125000
G00 Z5.000000
M5
(End cutting path id: path34771)


(Start cutting path id: path34769)
(Change tool to Default tool)

G00 Z5.000000
G00 X80.308003 Y16.602973
M3S030
G01 Z-0.125000 F100.0(Penetrate)
G01 X79.690638 Y15.845284 Z-0.125000 F2000.000000
G01 X79.241631 Y15.059308 Z-0.125000
G01 X79.045188 Y14.582469 Z-0.125000
G01 X78.834702 Y13.600505 Z-0.125000
G01 X78.806667 Y13.095379 Z-0.125000
G01 X78.792625 Y12.056840 Z-0.125000
G01 X79.297751 Y11.551714 Z-0.125000
G01 X83.338758 Y11.551714 Z-0.125000
G01 X82.945871 Y11.916415 Z-0.125000
G01 X82.679266 Y11.930558 Z-0.125000
G01 X82.272387 Y12.042696 Z-0.125000
G01 X81.318254 Y12.211408 Z-0.125000
G01 X80.336088 Y12.576109 Z-0.125000
G01 X80.055440 Y12.730173 Z-0.125000
G01 X79.297751 Y13.067092 Z-0.125000
G01 X79.564356 Y13.824780 Z-0.125000
G01 X79.760800 Y14.105630 Z-0.125000
G01 X80.041397 Y14.610756 Z-0.125000
G01 X80.700889 Y15.564434 Z-0.125000
G01 X80.939410 Y15.845284 Z-0.125000
G01 X81.318254 Y16.602973 Z-0.125000
G01 X80.308003 Y16.602973 Z-0.125000
G00 Z5.000000
M5
(End cutting path id: path34769)


(Start cutting path id: path34767)
(Change tool to Default tool)

G00 Z5.000000
G00 X78.455857 Y16.266054
M3S030
G01 Z-0.125000 F100.0(Penetrate)
G01 X78.455857 Y15.929640 Z-0.125000 F2000.000000
G01 X78.624266 Y15.929640 Z-0.125000
G01 X78.624266 Y16.097847 Z-0.125000
G01 X78.455857 Y16.266054 Z-0.125000
G00 Z5.000000
M5
(End cutting path id: path34767)


(Start cutting path id: path34765)
(Change tool to Default tool)

G00 Z5.000000
G00 X77.950731 Y16.266054
M3S030
G01 Z-0.125000 F100.0(Penetrate)
G01 X77.950731 Y15.929640 Z-0.125000 F2000.000000
G01 X78.119140 Y15.929640 Z-0.125000
G01 X78.119140 Y16.266054 Z-0.125000
G01 X77.950731 Y16.266054 Z-0.125000
G00 Z5.000000
M5
(End cutting path id: path34765)


(Start cutting path id: path34763)
(Change tool to Default tool)

G00 Z5.000000
G00 X76.266995 Y16.602973
M3S030
G01 Z-0.125000 F100.0(Penetrate)
G01 X76.631797 Y16.238272 Z-0.125000 F2000.000000
G01 X76.898403 Y16.224128 Z-0.125000
G01 X77.782373 Y16.097847 Z-0.125000
G01 X77.417571 Y16.462548 Z-0.125000
G01 X77.150966 Y16.476691 Z-0.125000
G01 X76.266995 Y16.602973 Z-0.125000
G00 Z5.000000
M5
(End cutting path id: path34763)


(Start cutting path id: path34761)
(Change tool to Default tool)

G00 Z5.000000
G00 X72.731114 Y16.602973
M3S030
G01 Z-0.125000 F100.0(Penetrate)
G01 X73.124001 Y16.238272 Z-0.125000 F2000.000000
G01 X73.362521 Y16.224128 Z-0.125000
G01 X73.769451 Y16.126134 Z-0.125000
G01 X74.751618 Y16.097847 Z-0.125000
G01 X74.358731 Y16.462548 Z-0.125000
G01 X74.120210 Y16.476691 Z-0.125000
G01 X73.713281 Y16.574686 Z-0.125000
G01 X72.731114 Y16.602973 Z-0.125000
G00 Z5.000000
M5
(End cutting path id: path34761)


(Start cutting path id: path34759)
(Change tool to Default tool)

G00 Z5.000000
G00 X70.710610 Y16.602973
M3S030
G01 Z-0.125000 F100.0(Penetrate)
G01 X71.215736 Y16.097847 Z-0.125000 F2000.000000
G01 X70.710610 Y16.602973 Z-0.125000
G00 Z5.000000
M5
(End cutting path id: path34759)


(Start cutting path id: path34757)
(Change tool to Default tool)

G00 Z5.000000
G00 X69.700359 Y16.602973
M3S030
G01 Z-0.125000 F100.0(Penetrate)
G01 X69.700359 Y15.592721 Z-0.125000 F2000.000000
G01 X70.710610 Y15.592721 Z-0.125000
G01 X70.205484 Y16.602973 Z-0.125000
G01 X69.700359 Y16.602973 Z-0.125000
G00 Z5.000000
M5
(End cutting path id: path34757)


(Start cutting path id: path34755)
(Change tool to Default tool)

G00 Z5.000000
G00 X59.092715 Y13.067092
M3S030
G01 Z-0.125000 F100.0(Penetrate)
G01 X59.850404 Y12.702391 Z-0.125000 F2000.000000
G01 X60.131052 Y12.688247 Z-0.125000
G01 X60.636177 Y12.590253 Z-0.125000
G01 X61.113218 Y12.576109 Z-0.125000
G01 X61.618344 Y12.561966 Z-0.125000
G01 X62.123470 Y12.561966 Z-0.125000
G01 X63.133722 Y12.561966 Z-0.125000
G01 X64.143974 Y12.561966 Z-0.125000
G01 X64.649100 Y12.576109 Z-0.125000
G01 X65.154225 Y12.603891 Z-0.125000
G01 X66.164477 Y12.800385 Z-0.125000
G01 X67.174729 Y13.207517 Z-0.125000
G01 X68.170938 Y13.810637 Z-0.125000
G01 X68.633987 Y14.203625 Z-0.125000
G01 X69.335557 Y15.073452 Z-0.125000
G01 X69.644239 Y15.845284 Z-0.125000
G01 X69.700359 Y16.602973 Z-0.125000
G01 X67.679855 Y16.602973 Z-0.125000
G01 X66.669603 Y16.602973 Z-0.125000
G01 X65.659351 Y16.561047 Z-0.125000
G01 X65.154225 Y16.490835 Z-0.125000
G01 X64.649100 Y16.406479 Z-0.125000
G01 X63.638848 Y16.195841 Z-0.125000
G01 X63.133722 Y16.097847 Z-0.125000
G01 X62.123470 Y15.859428 Z-0.125000
G01 X61.127261 Y15.452296 Z-0.125000
G01 X60.650169 Y15.157808 Z-0.125000
G01 X59.850404 Y14.484475 Z-0.125000
G01 X59.359320 Y13.810637 Z-0.125000
G01 X59.092715 Y13.067092 Z-0.125000
G00 Z5.000000
M5
(End cutting path id: path34755)


(Start cutting path id: path34753)
(Change tool to Default tool)

G00 Z5.000000
G00 X63.975615 Y16.434766
M3S030
G01 Z-0.125000 F100.0(Penetrate)
G01 X63.975615 Y16.266054 Z-0.125000 F2000.000000
G01 X64.312332 Y16.266054 Z-0.125000
G01 X64.312332 Y16.434766 Z-0.125000
G01 X63.975615 Y16.434766 Z-0.125000
G00 Z5.000000
M5
(End cutting path id: path34753)


(Start cutting path id: path34751)
(Change tool to Default tool)

G00 Z5.000000
G00 X62.123470 Y16.602973
M3S030
G01 Z-0.125000 F100.0(Penetrate)
G01 X62.488272 Y16.238272 Z-0.125000 F2000.000000
G01 X62.754877 Y16.224128 Z-0.125000
G01 X63.638848 Y16.097847 Z-0.125000
G01 X63.274046 Y16.462548 Z-0.125000
G01 X63.007440 Y16.476691 Z-0.125000
G01 X62.123470 Y16.602973 Z-0.125000
G00 Z5.000000
M5
(End cutting path id: path34751)


(Start cutting path id: path34749)
(Change tool to Default tool)

G00 Z5.000000
G00 X61.618344 Y16.602973
M3S030
G01 Z-0.125000 F100.0(Penetrate)
G01 X60.944860 Y15.887209 Z-0.125000 F2000.000000
G01 X60.762459 Y15.690716 Z-0.125000
G01 X60.608092 Y15.087595 Z-0.125000
G01 X61.309662 Y15.354302 Z-0.125000
G01 X61.463978 Y15.536652 Z-0.125000
G01 X61.758668 Y15.789215 Z-0.125000
G01 X61.927027 Y16.252416 Z-0.125000
G01 X61.618344 Y16.602973 Z-0.125000
G00 Z5.000000
M5
(End cutting path id: path34749)


(Start cutting path id: path34747)
(Change tool to Default tool)

G00 Z5.000000
G00 X103.543794 Y17.108099
M3S030
G01 Z-0.125000 F100.0(Penetrate)
G01 X104.048920 Y16.602973 Z-0.125000 F2000.000000
G01 X103.543794 Y17.108099 Z-0.125000
G00 Z5.000000
M5
(End cutting path id: path34747)


(Start cutting path id: path34745)
(Change tool to Default tool)

G00 Z5.000000
G00 X101.523290 Y17.108099
M3S030
G01 Z-0.125000 F100.0(Penetrate)
G01 X101.916177 Y16.743398 Z-0.125000 F2000.000000
G01 X102.154698 Y16.729254 Z-0.125000
G01 X102.561627 Y16.631260 Z-0.125000
G01 X103.543794 Y16.602973 Z-0.125000
G01 X103.150806 Y16.967674 Z-0.125000
G01 X102.912387 Y16.981817 Z-0.125000
G01 X102.505457 Y17.079812 Z-0.125000
G01 X101.523290 Y17.108099 Z-0.125000
G00 Z5.000000
M5
(End cutting path id: path34745)


(Start cutting path id: path34743)
(Change tool to Default tool)

G00 Z5.000000
G00 X100.849806 Y16.939892
M3S030
G01 Z-0.125000 F100.0(Penetrate)
G01 X101.018164 Y16.771180 Z-0.125000 F2000.000000
G01 X101.186523 Y16.771180 Z-0.125000
G01 X101.186523 Y16.939892 Z-0.125000
G01 X100.849806 Y16.939892 Z-0.125000
G00 Z5.000000
M5
(End cutting path id: path34743)


(Start cutting path id: path34741)
(Change tool to Default tool)

G00 Z5.000000
G00 X100.007913 Y17.108099
M3S030
G01 Z-0.125000 F100.0(Penetrate)
G01 X100.513038 Y16.602973 Z-0.125000 F2000.000000
G01 X100.007913 Y17.108099 Z-0.125000
G00 Z5.000000
M5
(End cutting path id: path34741)


(Start cutting path id: path34739)
(Change tool to Default tool)

G00 Z5.000000
G00 X99.502787 Y17.108099
M3S030
G01 Z-0.125000 F100.0(Penetrate)
G01 X100.007913 Y16.602973 Z-0.125000 F2000.000000
G01 X99.502787 Y17.108099 Z-0.125000
G00 Z5.000000
M5
(End cutting path id: path34739)


(Start cutting path id: path34737)
(Change tool to Default tool)

G00 Z5.000000
G00 X95.461780 Y17.108099
M3S030
G01 Z-0.125000 F100.0(Penetrate)
G01 X95.966905 Y16.602973 Z-0.125000 F2000.000000
G01 X95.461780 Y17.108099 Z-0.125000
G00 Z5.000000
M5
(End cutting path id: path34737)


(Start cutting path id: path34735)
(Change tool to Default tool)

G00 Z5.000000
G00 X94.451528 Y17.108099
M3S030
G01 Z-0.125000 F100.0(Penetrate)
G01 X94.451528 Y16.097847 Z-0.125000 F2000.000000
G01 X94.956654 Y16.097847 Z-0.125000
G01 X95.461780 Y17.108099 Z-0.125000
G01 X94.451528 Y17.108099 Z-0.125000
G00 Z5.000000
M5
(End cutting path id: path34735)


(Start cutting path id: path34733)
(Change tool to Default tool)

G00 Z5.000000
G00 X90.915646 Y17.108099
M3S030
G01 Z-0.125000 F100.0(Penetrate)
G01 X91.420772 Y16.602973 Z-0.125000 F2000.000000
G01 X90.915646 Y17.108099 Z-0.125000
G00 Z5.000000
M5
(End cutting path id: path34733)


(Start cutting path id: path34731)
(Change tool to Default tool)

G00 Z5.000000
G00 X87.884891 Y17.108099
M3S030
G01 Z-0.125000 F100.0(Penetrate)
G01 X87.884891 Y16.097847 Z-0.125000 F2000.000000
G01 X88.923228 Y16.111991 Z-0.125000
G01 X89.400269 Y16.126134 Z-0.125000
G01 X89.877310 Y16.224128 Z-0.125000
G01 X90.157958 Y16.238272 Z-0.125000
G01 X90.915646 Y16.602973 Z-0.125000
G01 X90.522759 Y16.967674 Z-0.125000
G01 X90.256154 Y16.981817 Z-0.125000
G01 X89.849275 Y17.079812 Z-0.125000
G01 X89.414311 Y17.093955 Z-0.125000
G01 X88.923228 Y17.108099 Z-0.125000
G01 X87.884891 Y17.108099 Z-0.125000
G00 Z5.000000
M5
(End cutting path id: path34731)


(Start cutting path id: path34729)
(Change tool to Default tool)

G00 Z5.000000
G00 X86.537872 Y16.771180
M3S030
G01 Z-0.125000 F100.0(Penetrate)
G01 X86.537872 Y16.434766 Z-0.125000 F2000.000000
G01 X86.706281 Y16.434766 Z-0.125000
G01 X86.706281 Y16.771180 Z-0.125000
G01 X86.537872 Y16.771180 Z-0.125000
G00 Z5.000000
M5
(End cutting path id: path34729)


(Start cutting path id: path34727)
(Change tool to Default tool)

G00 Z5.000000
G00 X84.349010 Y17.108099
M3S030
G01 Z-0.125000 F100.0(Penetrate)
G01 X84.854136 Y16.602973 Z-0.125000 F2000.000000
G01 X84.349010 Y17.108099 Z-0.125000
G00 Z5.000000
M5
(End cutting path id: path34727)


(Start cutting path id: path34725)
(Change tool to Default tool)

G00 Z5.000000
G00 X83.338758 Y17.108099
M3S030
G01 Z-0.125000 F100.0(Penetrate)
G01 X83.689517 Y16.350410 Z-0.125000 F2000.000000
G01 X84.152566 Y15.592721 Z-0.125000
G01 X84.405129 Y15.115882 Z-0.125000
G01 X84.587530 Y14.835032 Z-0.125000
G01 X84.854136 Y14.077343 Z-0.125000
G01 X85.218938 Y14.470331 Z-0.125000
G01 X85.275057 Y15.143664 Z-0.125000
G01 X84.994460 Y16.041778 Z-0.125000
G01 X84.713812 Y16.434766 Z-0.125000
G01 X84.082404 Y16.925748 Z-0.125000
G01 X83.338758 Y17.108099 Z-0.125000
G00 Z5.000000
M5
(End cutting path id: path34725)


(Start cutting path id: path34723)
(Change tool to Default tool)

G00 Z5.000000
G00 X81.823380 Y17.108099
M3S030
G01 Z-0.125000 F100.0(Penetrate)
G01 X82.188182 Y16.743398 Z-0.125000 F2000.000000
G01 X82.454788 Y16.729254 Z-0.125000
G01 X83.338758 Y16.602973 Z-0.125000
G01 X82.973956 Y16.967674 Z-0.125000
G01 X82.707351 Y16.981817 Z-0.125000
G01 X81.823380 Y17.108099 Z-0.125000
G00 Z5.000000
M5
(End cutting path id: path34723)


(Start cutting path id: path34721)
(Change tool to Default tool)

G00 Z5.000000
G00 X81.318254 Y17.108099
M3S030
G01 Z-0.125000 F100.0(Penetrate)
G01 X81.823380 Y16.602973 Z-0.125000 F2000.000000
G01 X81.318254 Y17.108099 Z-0.125000
G00 Z5.000000
M5
(End cutting path id: path34721)


(Start cutting path id: path34719)
(Change tool to Default tool)

G00 Z5.000000
G00 X80.813128 Y17.108099
M3S030
G01 Z-0.125000 F100.0(Penetrate)
G01 X81.318254 Y16.602973 Z-0.125000 F2000.000000
G01 X80.813128 Y17.108099 Z-0.125000
G00 Z5.000000
M5
(End cutting path id: path34719)


(Start cutting path id: path34717)
(Change tool to Default tool)

G00 Z5.000000
G00 X72.225988 Y17.108099
M3S030
G01 Z-0.125000 F100.0(Penetrate)
G01 X72.590790 Y16.743398 Z-0.125000 F2000.000000
G01 X72.857395 Y16.729254 Z-0.125000
G01 X73.741366 Y16.602973 Z-0.125000
G01 X73.376564 Y16.967674 Z-0.125000
G01 X73.109958 Y16.981817 Z-0.125000
G01 X72.225988 Y17.108099 Z-0.125000
G00 Z5.000000
M5
(End cutting path id: path34717)


(Start cutting path id: path34715)
(Change tool to Default tool)

G00 Z5.000000
G00 X63.638848 Y17.108099
M3S030
G01 Z-0.125000 F100.0(Penetrate)
G01 X64.003650 Y16.743398 Z-0.125000 F2000.000000
G01 X64.270255 Y16.729254 Z-0.125000
G01 X65.154225 Y16.602973 Z-0.125000
G01 X64.789424 Y16.967674 Z-0.125000
G01 X64.522818 Y16.981817 Z-0.125000
G01 X63.638848 Y17.108099 Z-0.125000
G00 Z5.000000
M5
(Change tool to Default tool)

G00 Z5.000000
G00 X66.164477 Y17.108099
M3S030
G01 Z-0.125000 F100.0(Penetrate)
G01 X66.557364 Y16.743398 Z-0.125000 F2000.000000
G01 X66.795885 Y16.729254 Z-0.125000
G01 X67.202814 Y16.631260 Z-0.125000
G01 X68.184981 Y16.602973 Z-0.125000
G01 X67.792094 Y16.967674 Z-0.125000
G01 X67.553574 Y16.981817 Z-0.125000
G01 X67.146644 Y17.079812 Z-0.125000
G01 X66.164477 Y17.108099 Z-0.125000
G00 Z5.000000
M5
(Change tool to Default tool)

G00 Z5.000000
G00 X71.215736 Y17.108099
M3S030
G01 Z-0.125000 F100.0(Penetrate)
G01 X71.398137 Y16.532760 Z-0.125000 F2000.000000
G01 X71.552504 Y16.434766 Z-0.125000
G01 X72.029545 Y16.153916 Z-0.125000
G01 X72.731114 Y16.097847 Z-0.125000
G01 X72.225988 Y17.108099 Z-0.125000
G01 X71.215736 Y17.108099 Z-0.125000
G00 Z5.000000
M5
(End cutting path id: path34715)


(Start cutting path id: path34713)
(Change tool to Default tool)

G00 Z5.000000
G00 X63.133722 Y17.108099
M3S030
G01 Z-0.125000 F100.0(Penetrate)
G01 X63.638848 Y16.602973 Z-0.125000 F2000.000000
G01 X63.133722 Y17.108099 Z-0.125000
G00 Z5.000000
M5
(End cutting path id: path34713)


(Start cutting path id: path34711)
(Change tool to Default tool)

G00 Z5.000000
G00 X95.966905 Y17.613225
M3S030
G01 Z-0.125000 F100.0(Penetrate)
G01 X96.472031 Y17.108099 Z-0.125000 F2000.000000
G01 X95.966905 Y17.613225 Z-0.125000
G00 Z5.000000
M5
(End cutting path id: path34711)


(Start cutting path id: path34709)
(Change tool to Default tool)

G00 Z5.000000
G00 X95.461780 Y17.613225
M3S030
G01 Z-0.125000 F100.0(Penetrate)
G01 X95.966905 Y17.108099 Z-0.125000 F2000.000000
G01 X95.461780 Y17.613225 Z-0.125000
G00 Z5.000000
M5
(End cutting path id: path34709)


(Start cutting path id: path34707)
(Change tool to Default tool)

G00 Z5.000000
G00 X94.956654 Y17.613225
M3S030
G01 Z-0.125000 F100.0(Penetrate)
G01 X95.461780 Y17.108099 Z-0.125000 F2000.000000
G01 X94.956654 Y17.613225 Z-0.125000
G00 Z5.000000
M5
(End cutting path id: path34707)


(Start cutting path id: path34705)
(Change tool to Default tool)

G00 Z5.000000
G00 X87.884891 Y17.613225
M3S030
G01 Z-0.125000 F100.0(Penetrate)
G01 X88.390017 Y17.108099 Z-0.125000 F2000.000000
G01 X87.884891 Y17.613225 Z-0.125000
G00 Z5.000000
M5
(End cutting path id: path34705)


(Start cutting path id: path34703)
(Change tool to Default tool)

G00 Z5.000000
G00 X86.874639 Y17.613225
M3S030
G01 Z-0.125000 F100.0(Penetrate)
G01 X87.000921 Y16.602973 Z-0.125000 F2000.000000
G01 X87.014963 Y16.322123 Z-0.125000
G01 X87.379765 Y15.592721 Z-0.125000
G01 X87.744567 Y15.985709 Z-0.125000
G01 X87.758610 Y16.224128 Z-0.125000
G01 X87.856806 Y16.631260 Z-0.125000
G01 X87.884891 Y17.613225 Z-0.125000
G01 X86.874639 Y17.613225 Z-0.125000
G00 Z5.000000
M5
(End cutting path id: path34703)


(Start cutting path id: path34701)
(Change tool to Default tool)

G00 Z5.000000
G00 X82.665274 Y17.445018
M3S030
G01 Z-0.125000 F100.0(Penetrate)
G01 X82.665274 Y17.276306 Z-0.125000 F2000.000000
G01 X83.001990 Y17.276306 Z-0.125000
G01 X82.833632 Y17.445018 Z-0.125000
G01 X82.665274 Y17.445018 Z-0.125000
G00 Z5.000000
M5
(End cutting path id: path34701)


(Start cutting path id: path34699)
(Change tool to Default tool)

G00 Z5.000000
G00 X74.751618 Y17.613225
M3S030
G01 Z-0.125000 F100.0(Penetrate)
G01 X73.741366 Y17.108099 Z-0.125000 F2000.000000
G01 X74.120210 Y16.757541 Z-0.125000
G01 X74.625336 Y16.785323 Z-0.125000
G01 X74.877899 Y16.925748 Z-0.125000
G01 X74.962104 Y17.122242 Z-0.125000
G01 X75.060300 Y17.276306 Z-0.125000
G01 X74.751618 Y17.613225 Z-0.125000
G00 Z5.000000
M5
(End cutting path id: path34699)


(Start cutting path id: path34697)
(Change tool to Default tool)

G00 Z5.000000
G00 X65.154225 Y17.108099
M3S030
G01 Z-0.125000 F100.0(Penetrate)
G01 X65.547112 Y16.785323 Z-0.125000 F2000.000000
G01 X65.813718 Y16.841392 Z-0.125000
G01 X66.220597 Y16.827249 Z-0.125000
G01 X66.683646 Y16.925748 Z-0.125000
G01 X67.679855 Y17.066173 Z-0.125000
G01 X68.184981 Y17.093955 Z-0.125000
G01 X69.167148 Y17.108099 Z-0.125000
G01 X69.672274 Y17.108099 Z-0.125000
G01 X70.710610 Y17.108099 Z-0.125000
G01 X70.317723 Y17.472800 Z-0.125000
G01 X70.051118 Y17.486943 Z-0.125000
G01 X69.644239 Y17.584938 Z-0.125000
G01 X68.690107 Y17.613225 Z-0.125000
G01 X67.679855 Y17.599081 Z-0.125000
G01 X67.174729 Y17.571299 Z-0.125000
G01 X66.192562 Y17.402587 Z-0.125000
G01 X65.154225 Y17.108099 Z-0.125000
G00 Z5.000000
M5
(End cutting path id: path34697)


(Start cutting path id: path34695)
(Change tool to Default tool)

G00 Z5.000000
G00 X95.798547 Y17.950144
M3S030
G01 Z-0.125000 F100.0(Penetrate)
G01 X95.798547 Y17.781432 Z-0.125000 F2000.000000
G01 X96.135264 Y17.781432 Z-0.125000
G01 X96.135264 Y17.950144 Z-0.125000
G01 X95.798547 Y17.950144 Z-0.125000
G00 Z5.000000
M5
(End cutting path id: path34695)


(Start cutting path id: path34693)
(Change tool to Default tool)

G00 Z5.000000
G00 X70.710610 Y18.118351
M3S030
G01 Z-0.125000 F100.0(Penetrate)
G01 X70.317723 Y17.543012 Z-0.125000 F2000.000000
G01 X70.051118 Y17.445018 Z-0.125000
G01 X69.672274 Y17.248524 Z-0.125000
G01 X68.942670 Y17.122242 Z-0.125000
G01 X68.184981 Y17.108099 Z-0.125000
G01 X68.577868 Y16.729254 Z-0.125000
G01 X68.844473 Y16.687329 Z-0.125000
G01 X69.223318 Y16.518617 Z-0.125000
G01 X69.686316 Y16.406479 Z-0.125000
G01 X70.710610 Y16.097847 Z-0.125000
G01 X71.061370 Y16.841392 Z-0.125000
G01 X71.061370 Y17.486943 Z-0.125000
G01 X71.061370 Y17.725363 Z-0.125000
G01 X70.710610 Y18.118351 Z-0.125000
G00 Z5.000000
M5
(End cutting path id: path34693)


(Start cutting path id: path34691)
(Change tool to Default tool)

G00 Z5.000000
G00 X71.215736 Y18.623476
M3S030
G01 Z-0.125000 F100.0(Penetrate)
G01 X71.720862 Y18.118351 Z-0.125000 F2000.000000
G01 X71.215736 Y18.623476 Z-0.125000
G00 Z5.000000
M5
(End cutting path id: path34691)


(Start cutting path id: path34689)
(Change tool to Default tool)

G00 Z5.000000
G00 X221.743254 Y19.128602
M3S030
G01 Z-0.125000 F100.0(Penetrate)
G01 X221.701329 Y18.244632 Z-0.125000 F2000.000000
G01 X221.701329 Y17.977926 Z-0.125000
G01 X222.248380 Y17.613225 Z-0.125000
G01 X222.122099 Y18.497195 Z-0.125000
G01 X222.107955 Y18.763902 Z-0.125000
G01 X221.743254 Y19.128602 Z-0.125000
G00 Z5.000000
M5
(End cutting path id: path34689)


(Start cutting path id: path34687)
(Change tool to Default tool)

G00 Z5.000000
G00 X221.238129 Y19.128602
M3S030
G01 Z-0.125000 F100.0(Penetrate)
G01 X221.743254 Y18.623476 Z-0.125000 F2000.000000
G01 X221.238129 Y19.128602 Z-0.125000
G00 Z5.000000
M5
(End cutting path id: path34687)


(Start cutting path id: path34685)
(Change tool to Default tool)

G00 Z5.000000
G00 X75.256743 Y19.128602
M3S030
G01 Z-0.125000 F100.0(Penetrate)
G01 X75.761869 Y18.623476 Z-0.125000 F2000.000000
G01 X75.256743 Y19.128602 Z-0.125000
G00 Z5.000000
M5
(Change tool to Default tool)

G00 Z5.000000
G00 X76.435354 Y18.791683
M3S030
G01 Z-0.125000 F100.0(Penetrate)
G01 X76.435354 Y18.623476 Z-0.125000 F2000.000000
G01 X76.603763 Y18.455270 Z-0.125000
G01 X76.603763 Y18.623476 Z-0.125000
G01 X76.435354 Y18.791683 Z-0.125000
G00 Z5.000000
M5
(End cutting path id: path34685)


(Start cutting path id: path34683)
(Change tool to Default tool)

G00 Z5.000000
G00 X70.710610 Y19.633728
M3S030
G01 Z-0.125000 F100.0(Penetrate)
G01 X70.710610 Y18.118351 Z-0.125000 F2000.000000
G01 X71.285898 Y18.483051 Z-0.125000
G01 X71.384095 Y18.749758 Z-0.125000
G01 X71.720862 Y19.633728 Z-0.125000
G01 X70.710610 Y19.633728 Z-0.125000
G00 Z5.000000
M5
(End cutting path id: path34683)


(Start cutting path id: path34681)
(Change tool to Default tool)

G00 Z5.000000
G00 X221.406336 Y19.801935
M3S030
G01 Z-0.125000 F100.0(Penetrate)
G01 X221.406336 Y19.465521 Z-0.125000 F2000.000000
G01 X221.575048 Y19.465521 Z-0.125000
G01 X221.575048 Y19.633728 Z-0.125000
G01 X221.406336 Y19.801935 Z-0.125000
G00 Z5.000000
M5
(End cutting path id: path34681)


(Start cutting path id: path34679)
(Change tool to Default tool)

G00 Z5.000000
G00 X220.901210 Y19.801935
M3S030
G01 Z-0.125000 F100.0(Penetrate)
G01 X220.901210 Y19.465521 Z-0.125000 F2000.000000
G01 X221.069922 Y19.465521 Z-0.125000
G01 X221.069922 Y19.801935 Z-0.125000
G01 X220.901210 Y19.801935 Z-0.125000
G00 Z5.000000
M5
(End cutting path id: path34679)


(Start cutting path id: path34677)
(Change tool to Default tool)

G00 Z5.000000
G00 X221.238129 Y20.643980
M3S030
G01 Z-0.125000 F100.0(Penetrate)
G01 X221.743254 Y20.138854 Z-0.125000 F2000.000000
G01 X221.238129 Y20.643980 Z-0.125000
G00 Z5.000000
M5
(End cutting path id: path34677)


(Start cutting path id: path34675)
(Change tool to Default tool)

G00 Z5.000000
G00 X220.733003 Y20.643980
M3S030
G01 Z-0.125000 F100.0(Penetrate)
G01 X221.238129 Y20.138854 Z-0.125000 F2000.000000
G01 X220.733003 Y20.643980 Z-0.125000
G00 Z5.000000
M5
(End cutting path id: path34675)


(Start cutting path id: path34673)
(Change tool to Default tool)

G00 Z5.000000
G00 X76.266995 Y20.643980
M3S030
G01 Z-0.125000 F100.0(Penetrate)
G01 X75.860066 Y19.886291 Z-0.125000 F2000.000000
G01 X75.775912 Y19.605441 Z-0.125000
G01 X75.593511 Y19.100315 Z-0.125000
G01 X75.326905 Y18.118351 Z-0.125000
G01 X75.186582 Y17.613225 Z-0.125000
G01 X75.074343 Y17.108099 Z-0.125000
G01 X74.948061 Y16.602973 Z-0.125000
G01 X74.849814 Y16.097847 Z-0.125000
G01 X74.653421 Y15.087595 Z-0.125000
G01 X74.555174 Y14.582469 Z-0.125000
G01 X74.428893 Y14.077343 Z-0.125000
G01 X74.316654 Y13.572217 Z-0.125000
G01 X74.176330 Y13.067092 Z-0.125000
G01 X73.937809 Y12.085127 Z-0.125000
G01 X73.853605 Y11.580001 Z-0.125000
G01 X73.783443 Y11.299151 Z-0.125000
G01 X73.741366 Y10.541462 Z-0.125000
G01 X74.232449 Y10.934450 Z-0.125000
G01 X74.330696 Y11.201157 Z-0.125000
G01 X74.569217 Y11.607783 Z-0.125000
G01 X74.737575 Y12.070983 Z-0.125000
G01 X75.046258 Y13.067092 Z-0.125000
G01 X75.214667 Y14.049056 Z-0.125000
G01 X75.256743 Y14.835032 Z-0.125000
G01 X75.256743 Y15.592721 Z-0.125000
G01 X77.782373 Y15.592721 Z-0.125000
G01 X77.417571 Y15.957422 Z-0.125000
G01 X77.150966 Y15.971566 Z-0.125000
G01 X76.266995 Y16.097847 Z-0.125000
G01 X76.266995 Y16.855536 Z-0.125000
G01 X76.309072 Y17.641512 Z-0.125000
G01 X76.379234 Y18.118351 Z-0.125000
G01 X76.463439 Y18.623476 Z-0.125000
G01 X76.631797 Y19.577659 Z-0.125000
G01 X76.603763 Y19.984286 Z-0.125000
G01 X76.617755 Y20.250992 Z-0.125000
G01 X76.266995 Y20.643980 Z-0.125000
G00 Z5.000000
M5
(End cutting path id: path34673)


(Start cutting path id: path34671)
(Change tool to Default tool)

G00 Z5.000000
G00 X221.238129 Y21.149106
M3S030
G01 Z-0.125000 F100.0(Penetrate)
G01 X221.743254 Y20.643980 Z-0.125000 F2000.000000
G01 X221.238129 Y21.149106 Z-0.125000
G00 Z5.000000
M5
(End cutting path id: path34671)


(Start cutting path id: path34669)
(Change tool to Default tool)

G00 Z5.000000
G00 X76.266995 Y21.149106
M3S030
G01 Z-0.125000 F100.0(Penetrate)
G01 X76.266995 Y20.643980 Z-0.125000 F2000.000000
G01 X77.277247 Y20.138854 Z-0.125000
G01 X77.277247 Y21.149106 Z-0.125000
G01 X76.266995 Y21.149106 Z-0.125000
G00 Z5.000000
M5
(End cutting path id: path34669)


(Start cutting path id: path34667)
(Change tool to Default tool)

G00 Z5.000000
G00 X220.227877 Y21.654232
M3S030
G01 Z-0.125000 F100.0(Penetrate)
G01 X220.733003 Y21.149106 Z-0.125000 F2000.000000
G01 X220.227877 Y21.654232 Z-0.125000
G00 Z5.000000
M5
(Change tool to Default tool)

G00 Z5.000000
G00 X75.930228 Y20.812187
M3S030
G01 Z-0.125000 F100.0(Penetrate)
G01 X75.930228 Y20.643980 Z-0.125000 F2000.000000
G01 X76.098637 Y20.475773 Z-0.125000
G01 X76.098637 Y20.643980 Z-0.125000
G01 X75.930228 Y20.812187 Z-0.125000
G00 Z5.000000
M5
(End cutting path id: path34667)


(Start cutting path id: path34665)
(Change tool to Default tool)

G00 Z5.000000
G00 X76.266995 Y21.654232
M3S030
G01 Z-0.125000 F100.0(Penetrate)
G01 X76.772121 Y21.149106 Z-0.125000 F2000.000000
G01 X76.266995 Y21.654232 Z-0.125000
G00 Z5.000000
M5
(End cutting path id: path34665)


(Start cutting path id: path34663)
(Change tool to Default tool)

G00 Z5.000000
G00 X70.710610 Y21.654232
M3S030
G01 Z-0.125000 F100.0(Penetrate)
G01 X70.710610 Y19.633728 Z-0.125000 F2000.000000
G01 X71.075412 Y20.026716 Z-0.125000
G01 X71.159617 Y20.643980 Z-0.125000
G01 X71.075412 Y21.008681 Z-0.125000
G01 X71.075412 Y21.261244 Z-0.125000
G01 X70.710610 Y21.654232 Z-0.125000
G00 Z5.000000
M5
(End cutting path id: path34663)


(Start cutting path id: path34661)
(Change tool to Default tool)

G00 Z5.000000
G00 X220.227877 Y22.159358
M3S030
G01 Z-0.125000 F100.0(Penetrate)
G01 X220.733003 Y21.654232 Z-0.125000 F2000.000000
G01 X220.227877 Y22.159358 Z-0.125000
G00 Z5.000000
M5
(End cutting path id: path34661)


(Start cutting path id: path34659)
(Change tool to Default tool)

G00 Z5.000000
G00 X77.277247 Y22.159358
M3S030
G01 Z-0.125000 F100.0(Penetrate)
G01 X77.782373 Y21.654232 Z-0.125000 F2000.000000
G01 X77.277247 Y22.159358 Z-0.125000
G00 Z5.000000
M5
(End cutting path id: path34659)


(Start cutting path id: path34657)
(Change tool to Default tool)

G00 Z5.000000
G00 X76.940480 Y21.822439
M3S030
G01 Z-0.125000 F100.0(Penetrate)
G01 X76.940480 Y21.654232 Z-0.125000 F2000.000000
G01 X77.108889 Y21.486025 Z-0.125000
G01 X77.108889 Y21.654232 Z-0.125000
G01 X76.940480 Y21.822439 Z-0.125000
G00 Z5.000000
M5
(End cutting path id: path34657)


(Start cutting path id: path34655)
(Change tool to Default tool)

G00 Z5.000000
G00 X71.720862 Y22.159358
M3S030
G01 Z-0.125000 F100.0(Penetrate)
G01 X71.720862 Y20.643980 Z-0.125000 F2000.000000
G01 X72.071622 Y21.022825 Z-0.125000
G01 X72.071622 Y21.247100 Z-0.125000
G01 X72.071622 Y21.780513 Z-0.125000
G01 X71.720862 Y22.159358 Z-0.125000
G00 Z5.000000
M5
(End cutting path id: path34655)


(Start cutting path id: path34653)
(Change tool to Default tool)

G00 Z5.000000
G00 X220.733003 Y22.664484
M3S030
G01 Z-0.125000 F100.0(Penetrate)
G01 X221.238129 Y22.159358 Z-0.125000 F2000.000000
G01 X220.733003 Y22.664484 Z-0.125000
G00 Z5.000000
M5
(End cutting path id: path34653)


(Start cutting path id: path34651)
(Change tool to Default tool)

G00 Z5.000000
G00 X76.772121 Y22.664484
M3S030
G01 Z-0.125000 F100.0(Penetrate)
G01 X77.277247 Y22.159358 Z-0.125000 F2000.000000
G01 X76.772121 Y22.664484 Z-0.125000
G00 Z5.000000
M5
(End cutting path id: path34651)


(Start cutting path id: path34649)
(Change tool to Default tool)

G00 Z5.000000
G00 X71.215736 Y22.664484
M3S030
G01 Z-0.125000 F100.0(Penetrate)
G01 X71.215736 Y19.633728 Z-0.125000 F2000.000000
G01 X71.580538 Y20.026716 Z-0.125000
G01 X71.594581 Y20.293423 Z-0.125000
G01 X71.692777 Y20.700049 Z-0.125000
G01 X71.692777 Y21.598163 Z-0.125000
G01 X71.594581 Y22.004789 Z-0.125000
G01 X71.580538 Y22.271496 Z-0.125000
G01 X71.215736 Y22.664484 Z-0.125000
G00 Z5.000000
M5
(End cutting path id: path34649)


(Start cutting path id: path34647)
(Change tool to Default tool)

G00 Z5.000000
G00 X220.733003 Y23.169610
M3S030
G01 Z-0.125000 F100.0(Penetrate)
G01 X221.238129 Y22.664484 Z-0.125000 F2000.000000
G01 X220.733003 Y23.169610 Z-0.125000
G00 Z5.000000
M5
(End cutting path id: path34647)


(Start cutting path id: path34645)
(Change tool to Default tool)

G00 Z5.000000
G00 X77.782373 Y23.169610
M3S030
G01 Z-0.125000 F100.0(Penetrate)
G01 X78.287499 Y22.664484 Z-0.125000 F2000.000000
G01 X77.782373 Y23.169610 Z-0.125000
G00 Z5.000000
M5
(Change tool to Default tool)

G00 Z5.000000
G00 X219.722751 Y23.169610
M3S030
G01 Z-0.125000 F100.0(Penetrate)
G01 X220.227877 Y22.664484 Z-0.125000 F2000.000000
G01 X219.722751 Y23.169610 Z-0.125000
G00 Z5.000000
M5
(End cutting path id: path34645)


(Start cutting path id: path34643)
(Change tool to Default tool)

G00 Z5.000000
G00 X77.445606 Y22.832691
M3S030
G01 Z-0.125000 F100.0(Penetrate)
G01 X77.445606 Y22.664484 Z-0.125000 F2000.000000
G01 X77.614015 Y22.496277 Z-0.125000
G01 X77.614015 Y22.664484 Z-0.125000
G01 X77.445606 Y22.832691 Z-0.125000
G00 Z5.000000
M5
(End cutting path id: path34643)


(Start cutting path id: path34641)
(Change tool to Default tool)

G00 Z5.000000
G00 X71.889221 Y22.832691
M3S030
G01 Z-0.125000 F100.0(Penetrate)
G01 X71.889221 Y22.664484 Z-0.125000 F2000.000000
G01 X72.057630 Y22.496277 Z-0.125000
G01 X72.057630 Y22.664484 Z-0.125000
G01 X71.889221 Y22.832691 Z-0.125000
G00 Z5.000000
M5
(End cutting path id: path34641)


(Start cutting path id: path34639)
(Change tool to Default tool)

G00 Z5.000000
G00 X220.733003 Y23.674735
M3S030
G01 Z-0.125000 F100.0(Penetrate)
G01 X221.238129 Y23.169610 Z-0.125000 F2000.000000
G01 X220.733003 Y23.674735 Z-0.125000
G00 Z5.000000
M5
(End cutting path id: path34639)


(Start cutting path id: path34637)
(Change tool to Default tool)

G00 Z5.000000
G00 X219.722751 Y23.674735
M3S030
G01 Z-0.125000 F100.0(Penetrate)
G01 X220.227877 Y23.169610 Z-0.125000 F2000.000000
G01 X219.722751 Y23.674735 Z-0.125000
G00 Z5.000000
M5
(End cutting path id: path34637)


(Start cutting path id: path34635)
(Change tool to Default tool)

G00 Z5.000000
G00 X77.614015 Y23.506529
M3S030
G01 Z-0.125000 F100.0(Penetrate)
G01 X77.782373 Y23.337817 Z-0.125000 F2000.000000
G01 X77.950731 Y23.337817 Z-0.125000
G01 X77.782373 Y23.506529 Z-0.125000
G01 X77.614015 Y23.506529 Z-0.125000
G00 Z5.000000
M5
(End cutting path id: path34635)


(Start cutting path id: path34633)
(Change tool to Default tool)

G00 Z5.000000
G00 X71.215736 Y23.674735
M3S030
G01 Z-0.125000 F100.0(Penetrate)
G01 X70.850934 Y22.945334 Z-0.125000 F2000.000000
G01 X70.836892 Y22.664484 Z-0.125000
G01 X70.710610 Y21.654232 Z-0.125000
G01 X71.243821 Y22.047220 Z-0.125000
G01 X71.398137 Y22.285639 Z-0.125000
G01 X71.875229 Y22.931190 Z-0.125000
G01 X72.225988 Y23.674735 Z-0.125000
G01 X71.215736 Y23.674735 Z-0.125000
G00 Z5.000000
M5
(End cutting path id: path34633)


(Start cutting path id: path34631)
(Change tool to Default tool)

G00 Z5.000000
G00 X77.782373 Y24.179861
M3S030
G01 Z-0.125000 F100.0(Penetrate)
G01 X78.287499 Y23.674735 Z-0.125000 F2000.000000
G01 X77.782373 Y24.179861 Z-0.125000
G00 Z5.000000
M5
(End cutting path id: path34631)


(Start cutting path id: path34629)
(Change tool to Default tool)

G00 Z5.000000
G00 X70.710610 Y24.179861
M3S030
G01 Z-0.125000 F100.0(Penetrate)
G01 X70.710610 Y23.169610 Z-0.125000 F2000.000000
G01 X71.215736 Y23.169610 Z-0.125000
G01 X71.720862 Y24.179861 Z-0.125000
G01 X70.710610 Y24.179861 Z-0.125000
G00 Z5.000000
M5
(End cutting path id: path34629)


(Start cutting path id: path34627)
(Change tool to Default tool)

G00 Z5.000000
G00 X70.373843 Y23.842942
M3S030
G01 Z-0.125000 F100.0(Penetrate)
G01 X70.373843 Y23.674735 Z-0.125000 F2000.000000
G01 X70.542252 Y23.506529 Z-0.125000
G01 X70.542252 Y23.674735 Z-0.125000
G01 X70.373843 Y23.842942 Z-0.125000
G00 Z5.000000
M5
(End cutting path id: path34627)


(Start cutting path id: path34625)
(Change tool to Default tool)

G00 Z5.000000
G00 X78.287499 Y24.684987
M3S030
G01 Z-0.125000 F100.0(Penetrate)
G01 X78.792625 Y24.179861 Z-0.125000 F2000.000000
G01 X78.287499 Y24.684987 Z-0.125000
G00 Z5.000000
M5
(End cutting path id: path34625)


(Start cutting path id: path34623)
(Change tool to Default tool)

G00 Z5.000000
G00 X70.710610 Y24.684987
M3S030
G01 Z-0.125000 F100.0(Penetrate)
G01 X71.075412 Y24.320286 Z-0.125000 F2000.000000
G01 X71.342018 Y24.306143 Z-0.125000
G01 X72.225988 Y24.179861 Z-0.125000
G01 X71.861186 Y24.544562 Z-0.125000
G01 X71.594581 Y24.558706 Z-0.125000
G01 X70.710610 Y24.684987 Z-0.125000
G00 Z5.000000
M5
(End cutting path id: path34623)


(Start cutting path id: path34621)
(Change tool to Default tool)

G00 Z5.000000
G00 X220.227877 Y25.190113
M3S030
G01 Z-0.125000 F100.0(Penetrate)
G01 X220.733003 Y24.684987 Z-0.125000 F2000.000000
G01 X220.227877 Y25.190113 Z-0.125000
G00 Z5.000000
M5
(End cutting path id: path34621)


(Start cutting path id: path34619)
(Change tool to Default tool)

G00 Z5.000000
G00 X219.217625 Y25.190113
M3S030
G01 Z-0.125000 F100.0(Penetrate)
G01 X219.722751 Y24.684987 Z-0.125000 F2000.000000
G01 X219.217625 Y25.190113 Z-0.125000
G00 Z5.000000
M5
(End cutting path id: path34619)


(Start cutting path id: path34617)
(Change tool to Default tool)

G00 Z5.000000
G00 X78.624266 Y25.021906
M3S030
G01 Z-0.125000 F100.0(Penetrate)
G01 X78.792625 Y24.853194 Z-0.125000 F2000.000000
G01 X78.960983 Y24.853194 Z-0.125000
G01 X78.792625 Y25.021906 Z-0.125000
G01 X78.624266 Y25.021906 Z-0.125000
G00 Z5.000000
M5
(End cutting path id: path34617)


(Start cutting path id: path34615)
(Change tool to Default tool)

G00 Z5.000000
G00 X220.227877 Y25.695239
M3S030
G01 Z-0.125000 F100.0(Penetrate)
G01 X220.733003 Y25.190113 Z-0.125000 F2000.000000
G01 X220.227877 Y25.695239 Z-0.125000
G00 Z5.000000
M5
(End cutting path id: path34615)


(Start cutting path id: path34613)
(Change tool to Default tool)

G00 Z5.000000
G00 X78.792625 Y25.695239
M3S030
G01 Z-0.125000 F100.0(Penetrate)
G01 X79.297751 Y25.190113 Z-0.125000 F2000.000000
G01 X78.792625 Y25.695239 Z-0.125000
G00 Z5.000000
M5
(End cutting path id: path34613)


(Start cutting path id: path34611)
(Change tool to Default tool)

G00 Z5.000000
G00 X220.227877 Y26.200365
M3S030
G01 Z-0.125000 F100.0(Penetrate)
G01 X220.733003 Y25.695239 Z-0.125000 F2000.000000
G01 X220.227877 Y26.200365 Z-0.125000
G00 Z5.000000
M5
(End cutting path id: path34611)


(Start cutting path id: path34609)
(Change tool to Default tool)

G00 Z5.000000
G00 X218.712499 Y26.705491
M3S030
G01 Z-0.125000 F100.0(Penetrate)
G01 X219.217625 Y26.200365 Z-0.125000 F2000.000000
G01 X218.712499 Y26.705491 Z-0.125000
G00 Z5.000000
M5
(Change tool to Default tool)

G00 Z5.000000
G00 X220.227877 Y26.705491
M3S030
G01 Z-0.125000 F100.0(Penetrate)
G01 X220.733003 Y26.200365 Z-0.125000 F2000.000000
G01 X220.227877 Y26.705491 Z-0.125000
G00 Z5.000000
M5
(End cutting path id: path34609)


(Start cutting path id: path34607)
(Change tool to Default tool)

G00 Z5.000000
G00 X218.712499 Y27.210617
M3S030
G01 Z-0.125000 F100.0(Penetrate)
G01 X219.217625 Y26.705491 Z-0.125000 F2000.000000
G01 X218.712499 Y27.210617 Z-0.125000
G00 Z5.000000
M5
(End cutting path id: path34607)


(Start cutting path id: path34605)
(Change tool to Default tool)

G00 Z5.000000
G00 X218.207373 Y28.725994
M3S030
G01 Z-0.125000 F100.0(Penetrate)
G01 X218.712499 Y28.220869 Z-0.125000 F2000.000000
G01 X218.207373 Y28.725994 Z-0.125000
G00 Z5.000000
M5
(End cutting path id: path34605)


(Start cutting path id: path34603)
(Change tool to Default tool)

G00 Z5.000000
G00 X219.890958 Y28.894201
M3S030
G01 Z-0.125000 F100.0(Penetrate)
G01 X219.890958 Y28.557788 Z-0.125000 F2000.000000
G01 X220.059670 Y28.557788 Z-0.125000
G01 X220.059670 Y28.894201 Z-0.125000
G01 X219.890958 Y28.894201 Z-0.125000
G00 Z5.000000
M5
(End cutting path id: path34603)


(Start cutting path id: path34601)
(Change tool to Default tool)

G00 Z5.000000
G00 X218.207373 Y29.231120
M3S030
G01 Z-0.125000 F100.0(Penetrate)
G01 X218.712499 Y28.725994 Z-0.125000 F2000.000000
G01 X218.207373 Y29.231120 Z-0.125000
G00 Z5.000000
M5
(End cutting path id: path34601)


(Start cutting path id: path34599)
(Change tool to Default tool)

G00 Z5.000000
G00 X217.702247 Y30.746498
M3S030
G01 Z-0.125000 F100.0(Penetrate)
G01 X218.207373 Y30.241372 Z-0.125000 F2000.000000
G01 X217.702247 Y30.746498 Z-0.125000
G00 Z5.000000
M5
(Change tool to Default tool)

G00 Z5.000000
G00 X219.722751 Y29.736246
M3S030
G01 Z-0.125000 F100.0(Penetrate)
G01 X220.227877 Y29.231120 Z-0.125000 F2000.000000
G01 X219.722751 Y29.736246 Z-0.125000
G00 Z5.000000
M5
(End cutting path id: path34599)


(Start cutting path id: path34597)
(Change tool to Default tool)

G00 Z5.000000
G00 X218.207373 Y31.251624
M3S030
G01 Z-0.125000 F100.0(Penetrate)
G01 X218.249299 Y30.213085 Z-0.125000 F2000.000000
G01 X218.403867 Y29.231120 Z-0.125000
G01 X218.642287 Y28.220869 Z-0.125000
G01 X218.782712 Y27.715743 Z-0.125000
G01 X218.894850 Y27.210617 Z-0.125000
G01 X219.035275 Y26.705491 Z-0.125000
G01 X219.147412 Y26.200365 Z-0.125000
G01 X219.414119 Y25.190113 Z-0.125000
G01 X219.568182 Y24.684987 Z-0.125000
G01 X219.722751 Y24.179861 Z-0.125000
G01 X219.890958 Y23.674735 Z-0.125000
G01 X220.227877 Y22.664484 Z-0.125000
G01 X220.382445 Y22.187645 Z-0.125000
G01 X220.522365 Y21.682519 Z-0.125000
G01 X220.606721 Y21.401669 Z-0.125000
G01 X220.733003 Y20.643980 Z-0.125000
G01 X221.083560 Y21.036968 Z-0.125000
G01 X221.069922 Y21.303675 Z-0.125000
G01 X221.097704 Y21.710301 Z-0.125000
G01 X220.929497 Y22.664484 Z-0.125000
G01 X220.830997 Y23.169610 Z-0.125000
G01 X220.635008 Y24.179861 Z-0.125000
G01 X220.424371 Y25.190113 Z-0.125000
G01 X220.269802 Y26.200365 Z-0.125000
G01 X220.185951 Y27.210617 Z-0.125000
G01 X220.031383 Y28.220869 Z-0.125000
G01 X219.778820 Y29.231120 Z-0.125000
G01 X219.399975 Y30.185303 Z-0.125000
G01 X218.908993 Y30.858636 Z-0.125000
G01 X218.207373 Y31.251624 Z-0.125000
G00 Z5.000000
M5
(End cutting path id: path34597)


(Start cutting path id: path34595)
(Change tool to Default tool)

G00 Z5.000000
G00 X218.712499 Y31.756750
M3S030
G01 Z-0.125000 F100.0(Penetrate)
G01 X219.049418 Y30.872780 Z-0.125000 F2000.000000
G01 X219.147412 Y30.606073 Z-0.125000
G01 X219.722751 Y30.241372 Z-0.125000
G01 X219.385832 Y31.125343 Z-0.125000
G01 X219.287838 Y31.392049 Z-0.125000
G01 X218.712499 Y31.756750 Z-0.125000
G00 Z5.000000
M5
(End cutting path id: path34595)


(Start cutting path id: path34593)
(Change tool to Default tool)

G00 Z5.000000
G00 X219.385832 Y31.924957
M3S030
G01 Z-0.125000 F100.0(Penetrate)
G01 X219.385832 Y31.588543 Z-0.125000 F2000.000000
G01 X219.554544 Y31.588543 Z-0.125000
G01 X219.554544 Y31.924957 Z-0.125000
G01 X219.385832 Y31.924957 Z-0.125000
G00 Z5.000000
M5
(End cutting path id: path34593)


(Start cutting path id: path34591)
(Change tool to Default tool)

G00 Z5.000000
G00 X218.207373 Y32.261876
M3S030
G01 Z-0.125000 F100.0(Penetrate)
G01 X218.712499 Y31.756750 Z-0.125000 F2000.000000
G01 X218.207373 Y32.261876 Z-0.125000
G00 Z5.000000
M5
(End cutting path id: path34591)


(Start cutting path id: path34589)
(Change tool to Default tool)

G00 Z5.000000
G00 X217.702247 Y32.261876
M3S030
G01 Z-0.125000 F100.0(Penetrate)
G01 X217.702247 Y30.746498 Z-0.125000 F2000.000000
G01 X218.712499 Y31.251624 Z-0.125000
G01 X218.207373 Y32.261876 Z-0.125000
G01 X217.702247 Y32.261876 Z-0.125000
G00 Z5.000000
M5
(End cutting path id: path34589)


(Start cutting path id: path34587)
(Change tool to Default tool)

G00 Z5.000000
G00 X218.207373 Y32.767002
M3S030
G01 Z-0.125000 F100.0(Penetrate)
G01 X218.712499 Y32.261876 Z-0.125000 F2000.000000
G01 X218.207373 Y32.767002 Z-0.125000
G00 Z5.000000
M5
(End cutting path id: path34587)


(Start cutting path id: path34585)
(Change tool to Default tool)

G00 Z5.000000
G00 X217.702247 Y32.767002
M3S030
G01 Z-0.125000 F100.0(Penetrate)
G01 X218.207373 Y32.261876 Z-0.125000 F2000.000000
G01 X217.702247 Y32.767002 Z-0.125000
G00 Z5.000000
M5
(End cutting path id: path34585)


(Start cutting path id: path34583)
(Change tool to Default tool)

G00 Z5.000000
G00 X219.385832 Y32.935209
M3S030
G01 Z-0.125000 F100.0(Penetrate)
G01 X219.385832 Y32.598795 Z-0.125000 F2000.000000
G01 X219.554544 Y32.598795 Z-0.125000
G01 X219.554544 Y32.935209 Z-0.125000
G01 X219.385832 Y32.935209 Z-0.125000
G00 Z5.000000
M5
(End cutting path id: path34583)


(Start cutting path id: path34581)
(Change tool to Default tool)

G00 Z5.000000
G00 X217.702247 Y33.272128
M3S030
G01 Z-0.125000 F100.0(Penetrate)
G01 X218.207373 Y32.767002 Z-0.125000 F2000.000000
G01 X217.702247 Y33.272128 Z-0.125000
G00 Z5.000000
M5
(End cutting path id: path34581)


(Start cutting path id: path34579)
(Change tool to Default tool)

G00 Z5.000000
G00 X217.365328 Y32.935209
M3S030
G01 Z-0.125000 F100.0(Penetrate)
G01 X217.365328 Y32.598795 Z-0.125000 F2000.000000
G01 X217.534040 Y32.598795 Z-0.125000
G01 X217.534040 Y32.935209 Z-0.125000
G01 X217.365328 Y32.935209 Z-0.125000
G00 Z5.000000
M5
(End cutting path id: path34579)


(Start cutting path id: path34577)
(Change tool to Default tool)

G00 Z5.000000
G00 X217.197121 Y33.777254
M3S030
G01 Z-0.125000 F100.0(Penetrate)
G01 X217.702247 Y33.272128 Z-0.125000 F2000.000000
G01 X217.197121 Y33.777254 Z-0.125000
G00 Z5.000000
M5
(End cutting path id: path34577)


(Start cutting path id: path34575)
(Change tool to Default tool)

G00 Z5.000000
G00 X120.212949 Y33.777254
M3S030
G01 Z-0.125000 F100.0(Penetrate)
G01 X120.718075 Y33.272128 Z-0.125000 F2000.000000
G01 X120.212949 Y33.777254 Z-0.125000
G00 Z5.000000
M5
(End cutting path id: path34575)


(Start cutting path id: path34573)
(Change tool to Default tool)

G00 Z5.000000
G00 X120.212949 Y34.282379
M3S030
G01 Z-0.125000 F100.0(Penetrate)
G01 X120.718075 Y33.777254 Z-0.125000 F2000.000000
G01 X120.212949 Y34.282379 Z-0.125000
G00 Z5.000000
M5
(End cutting path id: path34573)


(Start cutting path id: path34571)
(Change tool to Default tool)

G00 Z5.000000
G00 X119.202697 Y34.282379
M3S030
G01 Z-0.125000 F100.0(Penetrate)
G01 X119.707823 Y33.777254 Z-0.125000 F2000.000000
G01 X119.202697 Y34.282379 Z-0.125000
G00 Z5.000000
M5
(End cutting path id: path34571)


(Start cutting path id: path34569)
(Change tool to Default tool)

G00 Z5.000000
G00 X119.707823 Y34.787505
M3S030
G01 Z-0.125000 F100.0(Penetrate)
G01 X120.212949 Y34.282379 Z-0.125000 F2000.000000
G01 X119.707823 Y34.787505 Z-0.125000
G00 Z5.000000
M5
(End cutting path id: path34569)


(Start cutting path id: path34567)
(Change tool to Default tool)

G00 Z5.000000
G00 X118.697571 Y34.787505
M3S030
G01 Z-0.125000 F100.0(Penetrate)
G01 X119.202697 Y34.282379 Z-0.125000 F2000.000000
G01 X118.697571 Y34.787505 Z-0.125000
G00 Z5.000000
M5
(End cutting path id: path34567)


(Start cutting path id: path34565)
(Change tool to Default tool)

G00 Z5.000000
G00 X119.202697 Y35.292631
M3S030
G01 Z-0.125000 F100.0(Penetrate)
G01 X119.707823 Y34.787505 Z-0.125000 F2000.000000
G01 X119.202697 Y35.292631 Z-0.125000
G00 Z5.000000
M5
(End cutting path id: path34565)


(Start cutting path id: path34563)
(Change tool to Default tool)

G00 Z5.000000
G00 X117.687319 Y35.292631
M3S030
G01 Z-0.125000 F100.0(Penetrate)
G01 X118.192445 Y34.787505 Z-0.125000 F2000.000000
G01 X117.687319 Y35.292631 Z-0.125000
G00 Z5.000000
M5
(End cutting path id: path34563)


(Start cutting path id: path34561)
(Change tool to Default tool)

G00 Z5.000000
G00 X216.691996 Y35.797757
M3S030
G01 Z-0.125000 F100.0(Penetrate)
G01 X217.197121 Y35.292631 Z-0.125000 F2000.000000
G01 X216.691996 Y35.797757 Z-0.125000
G00 Z5.000000
M5
(End cutting path id: path34561)


(Start cutting path id: path34559)
(Change tool to Default tool)

G00 Z5.000000
G00 X118.697571 Y35.797757
M3S030
G01 Z-0.125000 F100.0(Penetrate)
G01 X119.202697 Y35.292631 Z-0.125000 F2000.000000
G01 X118.697571 Y35.797757 Z-0.125000
G00 Z5.000000
M5
(End cutting path id: path34559)


(Start cutting path id: path34557)
(Change tool to Default tool)

G00 Z5.000000
G00 X117.182193 Y35.797757
M3S030
G01 Z-0.125000 F100.0(Penetrate)
G01 X117.687319 Y35.292631 Z-0.125000 F2000.000000
G01 X117.182193 Y35.797757 Z-0.125000
G00 Z5.000000
M5
(End cutting path id: path34557)


(Start cutting path id: path34555)
(Change tool to Default tool)

G00 Z5.000000
G00 X218.880706 Y35.965964
M3S030
G01 Z-0.125000 F100.0(Penetrate)
G01 X218.880706 Y35.629550 Z-0.125000 F2000.000000
G01 X219.049418 Y35.629550 Z-0.125000
G01 X219.049418 Y35.965964 Z-0.125000
G01 X218.880706 Y35.965964 Z-0.125000
G00 Z5.000000
M5
(End cutting path id: path34555)


(Start cutting path id: path34553)
(Change tool to Default tool)

G00 Z5.000000
G00 X216.691996 Y36.302883
M3S030
G01 Z-0.125000 F100.0(Penetrate)
G01 X217.197121 Y35.797757 Z-0.125000 F2000.000000
G01 X216.691996 Y36.302883 Z-0.125000
G00 Z5.000000
M5
(End cutting path id: path34553)


(Start cutting path id: path34551)
(Change tool to Default tool)

G00 Z5.000000
G00 X118.192445 Y36.808009
M3S030
G01 Z-0.125000 F100.0(Penetrate)
G01 X118.697571 Y36.302883 Z-0.125000 F2000.000000
G01 X118.192445 Y36.808009 Z-0.125000
G00 Z5.000000
M5
(Change tool to Default tool)

G00 Z5.000000
G00 X116.171941 Y36.302883
M3S030
G01 Z-0.125000 F100.0(Penetrate)
G01 X116.677067 Y35.797757 Z-0.125000 F2000.000000
G01 X116.171941 Y36.302883 Z-0.125000
G00 Z5.000000
M5
(End cutting path id: path34551)


(Start cutting path id: path34549)
(Change tool to Default tool)

G00 Z5.000000
G00 X115.666815 Y36.808009
M3S030
G01 Z-0.125000 F100.0(Penetrate)
G01 X116.171941 Y36.302883 Z-0.125000 F2000.000000
G01 X115.666815 Y36.808009 Z-0.125000
G00 Z5.000000
M5
(End cutting path id: path34549)


(Start cutting path id: path34547)
(Change tool to Default tool)

G00 Z5.000000
G00 X181.501389 Y36.976216
M3S030
G01 Z-0.125000 F100.0(Penetrate)
G01 X181.501389 Y36.639802 Z-0.125000 F2000.000000
G01 X181.670101 Y36.639802 Z-0.125000
G01 X181.670101 Y36.808009 Z-0.125000
G01 X181.501389 Y36.976216 Z-0.125000
G00 Z5.000000
M5
(End cutting path id: path34547)


(Start cutting path id: path34545)
(Change tool to Default tool)

G00 Z5.000000
G00 X117.687319 Y37.313135
M3S030
G01 Z-0.125000 F100.0(Penetrate)
G01 X118.192445 Y36.808009 Z-0.125000 F2000.000000
G01 X117.687319 Y37.313135 Z-0.125000
G00 Z5.000000
M5
(End cutting path id: path34545)


(Start cutting path id: path34543)
(Change tool to Default tool)

G00 Z5.000000
G00 X115.161690 Y37.313135
M3S030
G01 Z-0.125000 F100.0(Penetrate)
G01 X115.666815 Y36.808009 Z-0.125000 F2000.000000
G01 X115.161690 Y37.313135 Z-0.125000
G00 Z5.000000
M5
(End cutting path id: path34543)


(Start cutting path id: path34541)
(Change tool to Default tool)

G00 Z5.000000
G00 X218.712499 Y37.818261
M3S030
G01 Z-0.125000 F100.0(Penetrate)
G01 X218.712499 Y36.302883 Z-0.125000 F2000.000000
G01 X219.063056 Y36.681727 Z-0.125000
G01 X219.063056 Y37.215140 Z-0.125000
G01 X219.063056 Y37.439416 Z-0.125000
G01 X218.712499 Y37.818261 Z-0.125000
G00 Z5.000000
M5
(End cutting path id: path34541)


(Start cutting path id: path34539)
(Change tool to Default tool)

G00 Z5.000000
G00 X181.333183 Y37.818261
M3S030
G01 Z-0.125000 F100.0(Penetrate)
G01 X181.838308 Y37.313135 Z-0.125000 F2000.000000
G01 X181.333183 Y37.818261 Z-0.125000
G00 Z5.000000
M5
(End cutting path id: path34539)


(Start cutting path id: path34537)
(Change tool to Default tool)

G00 Z5.000000
G00 X180.828057 Y37.818261
M3S030
G01 Z-0.125000 F100.0(Penetrate)
G01 X180.828057 Y36.302883 Z-0.125000 F2000.000000
G01 X181.178614 Y36.681727 Z-0.125000
G01 X181.178614 Y37.215140 Z-0.125000
G01 X181.178614 Y37.439416 Z-0.125000
G01 X180.828057 Y37.818261 Z-0.125000
G00 Z5.000000
M5
(End cutting path id: path34537)


(Start cutting path id: path34535)
(Change tool to Default tool)

G00 Z5.000000
G00 X117.182193 Y37.818261
M3S030
G01 Z-0.125000 F100.0(Penetrate)
G01 X117.687319 Y37.313135 Z-0.125000 F2000.000000
G01 X117.182193 Y37.818261 Z-0.125000
G00 Z5.000000
M5
(End cutting path id: path34535)


(Start cutting path id: path34533)
(Change tool to Default tool)

G00 Z5.000000
G00 X114.151438 Y37.818261
M3S030
G01 Z-0.125000 F100.0(Penetrate)
G01 X114.656564 Y37.313135 Z-0.125000 F2000.000000
G01 X114.151438 Y37.818261 Z-0.125000
G00 Z5.000000
M5
(End cutting path id: path34533)


(Start cutting path id: path34531)
(Change tool to Default tool)

G00 Z5.000000
G00 X193.456204 Y38.323387
M3S030
G01 Z-0.125000 F100.0(Penetrate)
G01 X193.456204 Y36.302883 Z-0.125000 F2000.000000
G01 X193.820905 Y36.695871 Z-0.125000
G01 X193.820905 Y36.948434 Z-0.125000
G01 X193.905261 Y37.313135 Z-0.125000
G01 X193.820905 Y37.930399 Z-0.125000
G01 X193.456204 Y38.323387 Z-0.125000
G00 Z5.000000
M5
(Change tool to Default tool)

G00 Z5.000000
G00 X216.355077 Y37.986468
M3S030
G01 Z-0.125000 F100.0(Penetrate)
G01 X216.355077 Y37.650054 Z-0.125000 F2000.000000
G01 X216.523789 Y37.650054 Z-0.125000
G01 X216.523789 Y37.986468 Z-0.125000
G01 X216.355077 Y37.986468 Z-0.125000
G00 Z5.000000
M5
(End cutting path id: path34531)


(Start cutting path id: path34529)
(Change tool to Default tool)

G00 Z5.000000
G00 X113.646312 Y38.323387
M3S030
G01 Z-0.125000 F100.0(Penetrate)
G01 X114.151438 Y37.818261 Z-0.125000 F2000.000000
G01 X113.646312 Y38.323387 Z-0.125000
G00 Z5.000000
M5
(End cutting path id: path34529)


(Start cutting path id: path34527)
(Change tool to Default tool)

G00 Z5.000000
G00 X216.186870 Y38.828512
M3S030
G01 Z-0.125000 F100.0(Penetrate)
G01 X216.691996 Y38.323387 Z-0.125000 F2000.000000
G01 X216.186870 Y38.828512 Z-0.125000
G00 Z5.000000
M5
(End cutting path id: path34527)


(Start cutting path id: path34525)
(Change tool to Default tool)

G00 Z5.000000
G00 X113.141186 Y38.828512
M3S030
G01 Z-0.125000 F100.0(Penetrate)
G01 X113.646312 Y38.323387 Z-0.125000 F2000.000000
G01 X113.141186 Y38.828512 Z-0.125000
G00 Z5.000000
M5
(Change tool to Default tool)

G00 Z5.000000
G00 X116.677067 Y38.828512
M3S030
G01 Z-0.125000 F100.0(Penetrate)
G01 X117.182193 Y38.323387 Z-0.125000 F2000.000000
G01 X116.677067 Y38.828512 Z-0.125000
G00 Z5.000000
M5
(End cutting path id: path34525)


(Start cutting path id: path34523)
(Change tool to Default tool)

G00 Z5.000000
G00 X216.186870 Y39.333638
M3S030
G01 Z-0.125000 F100.0(Penetrate)
G01 X216.691996 Y38.828512 Z-0.125000 F2000.000000
G01 X216.186870 Y39.333638 Z-0.125000
G00 Z5.000000
M5
(End cutting path id: path34523)


(Start cutting path id: path34521)
(Change tool to Default tool)

G00 Z5.000000
G00 X193.624411 Y38.996719
M3S030
G01 Z-0.125000 F100.0(Penetrate)
G01 X193.624411 Y38.660306 Z-0.125000 F2000.000000
G01 X193.793123 Y38.660306 Z-0.125000
G01 X193.793123 Y38.996719 Z-0.125000
G01 X193.624411 Y38.996719 Z-0.125000
G00 Z5.000000
M5
(End cutting path id: path34521)


(Start cutting path id: path34519)
(Change tool to Default tool)

G00 Z5.000000
G00 X112.636060 Y39.333638
M3S030
G01 Z-0.125000 F100.0(Penetrate)
G01 X113.141186 Y38.828512 Z-0.125000 F2000.000000
G01 X112.636060 Y39.333638 Z-0.125000
G00 Z5.000000
M5
(End cutting path id: path34519)


(Start cutting path id: path34517)
(Change tool to Default tool)

G00 Z5.000000
G00 X116.171941 Y39.838764
M3S030
G01 Z-0.125000 F100.0(Penetrate)
G01 X116.677067 Y39.333638 Z-0.125000 F2000.000000
G01 X116.171941 Y39.838764 Z-0.125000
G00 Z5.000000
M5
(End cutting path id: path34517)


(Start cutting path id: path34515)
(Change tool to Default tool)

G00 Z5.000000
G00 X112.130934 Y39.838764
M3S030
G01 Z-0.125000 F100.0(Penetrate)
G01 X112.636060 Y39.333638 Z-0.125000 F2000.000000
G01 X112.130934 Y39.838764 Z-0.125000
G00 Z5.000000
M5
(End cutting path id: path34515)


(Start cutting path id: path34513)
(Change tool to Default tool)

G00 Z5.000000
G00 X218.375580 Y40.006971
M3S030
G01 Z-0.125000 F100.0(Penetrate)
G01 X218.375580 Y39.838764 Z-0.125000 F2000.000000
G01 X218.544292 Y39.670557 Z-0.125000
G01 X218.544292 Y40.006971 Z-0.125000
G01 X218.375580 Y40.006971 Z-0.125000
G00 Z5.000000
M5
(End cutting path id: path34513)


(Start cutting path id: path34511)
(Change tool to Default tool)

G00 Z5.000000
G00 X182.006515 Y40.006971
M3S030
G01 Z-0.125000 F100.0(Penetrate)
G01 X182.006515 Y39.670557 Z-0.125000 F2000.000000
G01 X182.175227 Y39.670557 Z-0.125000
G01 X182.175227 Y40.006971 Z-0.125000
G01 X182.006515 Y40.006971 Z-0.125000
G00 Z5.000000
M5
(End cutting path id: path34511)


(Start cutting path id: path34509)
(Change tool to Default tool)

G00 Z5.000000
G00 X181.333183 Y40.343890
M3S030
G01 Z-0.125000 F100.0(Penetrate)
G01 X181.333183 Y37.818261 Z-0.125000 F2000.000000
G01 X181.697883 Y38.211249 Z-0.125000
G01 X181.712027 Y38.477955 Z-0.125000
G01 X181.796383 Y39.291713 Z-0.125000
G01 X181.712027 Y39.684196 Z-0.125000
G01 X181.697883 Y39.950902 Z-0.125000
G01 X181.333183 Y40.343890 Z-0.125000
G00 Z5.000000
M5
(End cutting path id: path34509)


(Start cutting path id: path34507)
(Change tool to Default tool)

G00 Z5.000000
G00 X111.625808 Y40.343890
M3S030
G01 Z-0.125000 F100.0(Penetrate)
G01 X112.130934 Y39.838764 Z-0.125000 F2000.000000
G01 X111.625808 Y40.343890 Z-0.125000
G00 Z5.000000
M5
(End cutting path id: path34507)


(Start cutting path id: path34505)
(Change tool to Default tool)

G00 Z5.000000
G00 X115.666815 Y40.849016
M3S030
G01 Z-0.125000 F100.0(Penetrate)
G01 X116.171941 Y40.343890 Z-0.125000 F2000.000000
G01 X115.666815 Y40.849016 Z-0.125000
G00 Z5.000000
M5
(End cutting path id: path34505)


(Start cutting path id: path34503)
(Change tool to Default tool)

G00 Z5.000000
G00 X111.120682 Y40.849016
M3S030
G01 Z-0.125000 F100.0(Penetrate)
G01 X111.625808 Y40.343890 Z-0.125000 F2000.000000
G01 X111.120682 Y40.849016 Z-0.125000
G00 Z5.000000
M5
(End cutting path id: path34503)


(Start cutting path id: path34501)
(Change tool to Default tool)

G00 Z5.000000
G00 X218.375580 Y41.017223
M3S030
G01 Z-0.125000 F100.0(Penetrate)
G01 X218.375580 Y40.849016 Z-0.125000 F2000.000000
G01 X218.544292 Y40.680809 Z-0.125000
G01 X218.544292 Y41.017223 Z-0.125000
G01 X218.375580 Y41.017223 Z-0.125000
G00 Z5.000000
M5
(End cutting path id: path34501)


(Start cutting path id: path34499)
(Change tool to Default tool)

G00 Z5.000000
G00 X193.456204 Y41.354142
M3S030
G01 Z-0.125000 F100.0(Penetrate)
G01 X193.456204 Y39.333638 Z-0.125000 F2000.000000
G01 X193.820905 Y39.726626 Z-0.125000
G01 X193.820905 Y39.979189 Z-0.125000
G01 X193.905261 Y40.343890 Z-0.125000
G01 X193.820905 Y40.961154 Z-0.125000
G01 X193.456204 Y41.354142 Z-0.125000
G00 Z5.000000
M5
(End cutting path id: path34499)


(Start cutting path id: path34497)
(Change tool to Default tool)

G00 Z5.000000
G00 X193.119285 Y41.017223
M3S030
G01 Z-0.125000 F100.0(Penetrate)
G01 X193.119285 Y40.680809 Z-0.125000 F2000.000000
G01 X193.287997 Y40.680809 Z-0.125000
G01 X193.287997 Y41.017223 Z-0.125000
G01 X193.119285 Y41.017223 Z-0.125000
G00 Z5.000000
M5
(End cutting path id: path34497)


(Start cutting path id: path34495)
(Change tool to Default tool)

G00 Z5.000000
G00 X110.615556 Y41.354142
M3S030
G01 Z-0.125000 F100.0(Penetrate)
G01 X111.120682 Y40.849016 Z-0.125000 F2000.000000
G01 X110.615556 Y41.354142 Z-0.125000
G00 Z5.000000
M5
(Change tool to Default tool)

G00 Z5.000000
G00 X181.838308 Y41.354142
M3S030
G01 Z-0.125000 F100.0(Penetrate)
G01 X181.333183 Y40.343890 Z-0.125000 F2000.000000
G01 X182.343434 Y40.343890 Z-0.125000
G01 X182.343434 Y41.354142 Z-0.125000
G01 X181.838308 Y41.354142 Z-0.125000
G00 Z5.000000
M5
(End cutting path id: path34495)


(Start cutting path id: path34493)
(Change tool to Default tool)

G00 Z5.000000
G00 X215.849951 Y41.522349
M3S030
G01 Z-0.125000 F100.0(Penetrate)
G01 X215.849951 Y41.185935 Z-0.125000 F2000.000000
G01 X216.018663 Y41.185935 Z-0.125000
G01 X216.018663 Y41.522349 Z-0.125000
G01 X215.849951 Y41.522349 Z-0.125000
G00 Z5.000000
M5
(End cutting path id: path34493)


(Start cutting path id: path34491)
(Change tool to Default tool)

G00 Z5.000000
G00 X193.287997 Y41.691061
M3S030
