%
(Header)
(Generated by gcodetools from Inkscape.)
(Using default header. To add your own header create file "header" in the output dir.)
M3
(Header end.)
G21 (All units in mm)
M05

(Start cutting path id: path3725)
(Change tool to Default tool)

G00 Z5.000000
G00 X95.816494 Y166.272541
M3S030
G01 Z-1.000000 F50.0(Penetrate)
G01 X96.563666 Y102.749381 Z-1.000000 F2000.000000
G01 X96.779790 Y84.374914 Z-1.000000
G02 X96.618591 Y79.916965 Z-1.000000 I-46.573312 J-0.547804
G03 X97.252272 Y75.551105 Z-1.000000 I9.716586 J-0.818606
G03 X99.184981 Y72.817627 Z-1.000000 I6.478187 J2.530407
G02 X101.648905 Y70.581695 Z-1.000000 I-44.142697 J-51.119387
G02 X106.102207 Y66.274779 Z-1.000000 I-300.864781 J-315.546523
G03 X110.548024 Y61.946263 Z-1.000000 I577.225093 J588.420146
G02 X115.034200 Y57.589469 Z-1.000000 I-874.666705 J-905.129541
G02 X119.500960 Y53.212752 Z-1.000000 I-1111.749932 J-1139.089734
G02 X121.784778 Y50.781401 Z-1.000000 I-29.553951 J-30.048931
G03 X124.498897 Y48.997046 Z-1.000000 I4.523060 J3.923515
G01 X123.751725 Y112.520206 Z-1.000000
G02 X128.399383 Y108.800579 Z-1.000000 I-11.618553 J-19.280757
G03 X132.591140 Y104.568221 Z-1.000000 I124.193994 J118.810639
G03 X137.226005 Y100.205327 Z-1.000000 I124.554460 J127.675529
G02 X141.845376 Y95.810426 Z-1.000000 I-92.533943 J-101.885232
G03 X157.908322 Y79.927934 Z-1.000000 I1997.680270 J2004.313491
G03 X174.337624 Y64.418756 Z-1.000000 I412.865330 J420.903103
G02 X179.420523 Y59.547782 Z-1.000000 I-88.522478 J-97.461383
G03 X184.436478 Y54.606605 Z-1.000000 I193.115331 J191.021370
G02 X187.094665 Y51.952644 Z-1.000000 I-65.834084 J-68.597079
G03 X190.121996 Y49.768918 Z-1.000000 I7.532547 J7.252200
G01 X189.819422 Y75.493172 Z-1.000000
G02 X190.109684 Y81.516006 Z-1.000000 I50.343926 J0.592155
G03 X189.411669 Y87.393528 Z-1.000000 I-13.113809 J1.422811
G03 X187.878635 Y89.608341 Z-1.000000 I-4.913451 J-1.762990
G02 X185.882639 Y91.421214 Z-1.000000 I26.486938 J31.167698
G01 X178.446402 Y98.684552 Z-1.000000
G02 X172.686621 Y104.360772 Z-1.000000 I365.688526 J376.832237
G03 X166.808500 Y109.889430 Z-1.000000 I-92.023274 J-91.950862
G02 X164.529461 Y112.125918 Z-1.000000 I20.341579 J23.008029
G03 X161.906072 Y113.993372 Z-1.000000 I-5.706419 J-5.239960
G03 X156.022401 Y114.826036 Z-1.000000 I-4.455706 J-10.280795
G02 X149.982440 Y114.403909 Z-1.000000 I-6.654050 J51.786631
G01 X123.733201 Y114.095160 Z-1.000000
G01 X123.523252 Y131.944643 Z-1.000000
G02 X123.696006 Y136.097460 Z-1.000000 I38.979420 J0.458483
G03 X123.157231 Y140.163000 Z-1.000000 I-9.083363 J0.864722
G03 X120.795508 Y143.299482 Z-1.000000 I-6.493536 J-2.432122
G02 X117.733698 Y145.872791 Z-1.000000 I19.683834 J26.528663
G01 X106.579343 Y156.767797 Z-1.000000
G02 X101.688579 Y162.284502 Z-1.000000 I29.560614 J31.132863
G03 X95.816494 Y166.272541 Z-1.000000 I-8.666898 J-6.444231
G00 Z5.000000
M5
(End cutting path id: path3725)


(Start cutting path id: path3725)
(Change tool to Default tool)

G00 Z5.000000
G00 X161.439593 Y167.044412
M3S030
G01 Z-1.000000 F50.0(Penetrate)
G01 X161.847141 Y132.395416 Z-1.000000 F2000.000000
G02 X161.457922 Y124.694678 Z-1.000000 I-61.956271 J-0.728741
G03 X162.548001 Y117.225825 Z-1.000000 I14.714843 J-1.666343
G03 X164.672151 Y114.299678 Z-1.000000 I7.444648 J3.170166
G02 X167.326417 Y111.835609 Z-1.000000 I-38.783257 J-44.438484
G01 X177.737544 Y101.677967 Z-1.000000
G02 X183.173716 Y95.713345 Z-1.000000 I-51.662638 J-52.545042
G03 X189.634173 Y91.242716 Z-1.000000 I10.969728 J8.948952
G01 X189.214275 Y126.941682 Z-1.000000
G01 X189.103126 Y136.391408 Z-1.000000
G02 X189.145678 Y138.905906 Z-1.000000 I43.841958 J0.515677
G03 X188.594728 Y141.358510 Z-1.000000 I-4.766199 J0.217509
G03 X185.773244 Y144.622592 Z-1.000000 I-8.531741 J-4.523375
G02 X182.445602 Y147.489211 Z-1.000000 I16.579683 J22.610814
G03 X176.031750 Y153.913350 Z-1.000000 I-993.244519 J-985.240237
G03 X169.573812 Y160.301373 Z-1.000000 I-1068.122971 J-1073.354862
G03 X166.043309 Y163.490291 Z-1.000000 I-39.342968 J-40.008453
G02 X163.014548 Y167.062937 Z-1.000000 I8.565185 J10.331416
G01 X161.439593 Y167.044412 Z-1.000000
G00 Z5.000000
M5
(End cutting path id: path3725)


(Start cutting path id: path3723)
(Change tool to Default tool)

G00 Z5.000000
G00 X68.869371 Y180.657192
M3S030
G01 Z-1.000000 F50.0(Penetrate)
G01 X70.598362 Y33.661450 Z-1.000000 F2000.000000
G01 X217.594104 Y35.390442 Z-1.000000
G01 X215.865112 Y182.386183 Z-1.000000
G01 X68.869371 Y180.657192 Z-1.000000
G00 Z5.000000
M5
(End cutting path id: path3723)


(Footer)
M5
G00 X0.0000 Y0.0000
M2
(Using default footer. To add your own footer create file "footer" in the output dir.)
(end)
%