%
(Header)
(Generated by gcodetools from Inkscape.)
(Using default header. To add your own header create file "header" in the output dir.)
M3
(Header end.)
G21 (All units in mm)

(Start cutting path id: path19395)
(Change tool to Default tool)

G00 Z5.000000
G00 X199.144269 Y72.033451
M3S030
G01 Z-0.125000 F50.0(Penetrate)
G01 X199.622045 Y71.555675 Z-0.125000 F2000.000000
G01 X199.144269 Y72.033451 Z-0.125000
G00 Z5.000000
M5
(End cutting path id: path19395)


(Start cutting path id: path19393)
(Change tool to Default tool)

G00 Z5.000000
G00 X198.666493 Y72.033451
M3S030
G01 Z-0.125000 F50.0(Penetrate)
G01 X199.144269 Y71.555675 Z-0.125000 F2000.000000
G01 X198.666493 Y72.033451 Z-0.125000
G00 Z5.000000
M5
(End cutting path id: path19393)


(Start cutting path id: path19391)
(Change tool to Default tool)

G00 Z5.000000
G00 X198.029617 Y71.874352
M3S030
G01 Z-0.125000 F50.0(Penetrate)
G01 X198.029617 Y71.714775 Z-0.125000 F2000.000000
G01 X198.347816 Y71.714775 Z-0.125000
G01 X198.347816 Y71.874352 Z-0.125000
G01 X198.029617 Y71.874352 Z-0.125000
G00 Z5.000000
M5
(End cutting path id: path19391)


(Start cutting path id: path19389)
(Change tool to Default tool)

G00 Z5.000000
G00 X197.233164 Y72.033451
M3S030
G01 Z-0.125000 F50.0(Penetrate)
G01 X197.710940 Y71.555675 Z-0.125000 F2000.000000
G01 X197.233164 Y72.033451 Z-0.125000
G00 Z5.000000
M5
(End cutting path id: path19389)


(Start cutting path id: path19387)
(Change tool to Default tool)

G00 Z5.000000
G00 X196.755388 Y72.033451
M3S030
G01 Z-0.125000 F50.0(Penetrate)
G01 X197.233164 Y71.555675 Z-0.125000 F2000.000000
G01 X196.755388 Y72.033451 Z-0.125000
G00 Z5.000000
M5
(End cutting path id: path19387)


(Start cutting path id: path19385)
(Change tool to Default tool)

G00 Z5.000000
G00 X146.111120 Y72.033451
M3S030
G01 Z-0.125000 F50.0(Penetrate)
G01 X146.588896 Y71.555675 Z-0.125000 F2000.000000
G01 X146.111120 Y72.033451 Z-0.125000
G00 Z5.000000
M5
(End cutting path id: path19385)


(Start cutting path id: path19383)
(Change tool to Default tool)

G00 Z5.000000
G00 X145.633343 Y72.033451
M3S030
G01 Z-0.125000 F50.0(Penetrate)
G01 X146.111120 Y71.555675 Z-0.125000 F2000.000000
G01 X145.633343 Y72.033451 Z-0.125000
G00 Z5.000000
M5
(End cutting path id: path19383)


(Start cutting path id: path19381)
(Change tool to Default tool)

G00 Z5.000000
G00 X145.155567 Y72.033451
M3S030
G01 Z-0.125000 F50.0(Penetrate)
G01 X145.633343 Y71.555675 Z-0.125000 F2000.000000
G01 X145.155567 Y72.033451 Z-0.125000
G00 Z5.000000
M5
(End cutting path id: path19381)


(Start cutting path id: path19379)
(Change tool to Default tool)

G00 Z5.000000
G00 X144.677791 Y72.033451
M3S030
G01 Z-0.125000 F50.0(Penetrate)
G01 X145.155567 Y71.555675 Z-0.125000 F2000.000000
G01 X144.677791 Y72.033451 Z-0.125000
G00 Z5.000000
M5
(End cutting path id: path19379)


(Start cutting path id: path19377)
(Change tool to Default tool)

G00 Z5.000000
G00 X144.200015 Y72.033451
M3S030
G01 Z-0.125000 F50.0(Penetrate)
G01 X144.677791 Y71.555675 Z-0.125000 F2000.000000
G01 X144.200015 Y72.033451 Z-0.125000
G00 Z5.000000
M5
(End cutting path id: path19377)


(Start cutting path id: path19375)
(Change tool to Default tool)

G00 Z5.000000
G00 X135.122269 Y72.033451
M3S030
G01 Z-0.125000 F50.0(Penetrate)
G01 X135.600045 Y71.555675 Z-0.125000 F2000.000000
G01 X135.122269 Y72.033451 Z-0.125000
G00 Z5.000000
M5
(End cutting path id: path19375)


(Start cutting path id: path19373)
(Change tool to Default tool)

G00 Z5.000000
G00 X134.644493 Y72.033451
M3S030
G01 Z-0.125000 F50.0(Penetrate)
G01 X135.122269 Y71.555675 Z-0.125000 F2000.000000
G01 X134.644493 Y72.033451 Z-0.125000
G00 Z5.000000
M5
(End cutting path id: path19373)


(Start cutting path id: path19371)
(Change tool to Default tool)

G00 Z5.000000
G00 X134.166717 Y72.033451
M3S030
G01 Z-0.125000 F50.0(Penetrate)
G01 X134.644493 Y71.555675 Z-0.125000 F2000.000000
G01 X134.166717 Y72.033451 Z-0.125000
G00 Z5.000000
M5
(End cutting path id: path19371)


(Start cutting path id: path19369)
(Change tool to Default tool)

G00 Z5.000000
G00 X133.688940 Y72.033451
M3S030
G01 Z-0.125000 F50.0(Penetrate)
G01 X134.166717 Y71.555675 Z-0.125000 F2000.000000
G01 X133.688940 Y72.033451 Z-0.125000
G00 Z5.000000
M5
(End cutting path id: path19369)


(Start cutting path id: path19367)
(Change tool to Default tool)

G00 Z5.000000
G00 X133.211164 Y72.033451
M3S030
G01 Z-0.125000 F50.0(Penetrate)
G01 X133.688940 Y71.555675 Z-0.125000 F2000.000000
G01 X133.211164 Y72.033451 Z-0.125000
G00 Z5.000000
M5
(End cutting path id: path19367)


(Start cutting path id: path19365)
(Change tool to Default tool)

G00 Z5.000000
G00 X132.733388 Y72.033451
M3S030
G01 Z-0.125000 F50.0(Penetrate)
G01 X133.211164 Y71.555675 Z-0.125000 F2000.000000
G01 X132.733388 Y72.033451 Z-0.125000
G00 Z5.000000
M5
(End cutting path id: path19365)


(Start cutting path id: path19363)
(Change tool to Default tool)

G00 Z5.000000
G00 X132.255612 Y72.033451
M3S030
G01 Z-0.125000 F50.0(Penetrate)
G01 X132.733388 Y71.555675 Z-0.125000 F2000.000000
G01 X132.255612 Y72.033451 Z-0.125000
G00 Z5.000000
M5
(End cutting path id: path19363)


(Start cutting path id: path19361)
(Change tool to Default tool)

G00 Z5.000000
G00 X95.944627 Y72.033451
M3S030
G01 Z-0.125000 F50.0(Penetrate)
G01 X96.422403 Y71.555675 Z-0.125000 F2000.000000
G01 X95.944627 Y72.033451 Z-0.125000
G00 Z5.000000
M5
(End cutting path id: path19361)


(Start cutting path id: path19359)
(Change tool to Default tool)

G00 Z5.000000
G00 X95.466851 Y72.033451
M3S030
G01 Z-0.125000 F50.0(Penetrate)
G01 X95.944627 Y71.555675 Z-0.125000 F2000.000000
G01 X95.466851 Y72.033451 Z-0.125000
G00 Z5.000000
M5
(End cutting path id: path19359)


(Start cutting path id: path19357)
(Change tool to Default tool)

G00 Z5.000000
G00 X94.989075 Y72.033451
M3S030
G01 Z-0.125000 F50.0(Penetrate)
G01 X95.466851 Y71.555675 Z-0.125000 F2000.000000
G01 X94.989075 Y72.033451 Z-0.125000
G00 Z5.000000
M5
(End cutting path id: path19357)


(Start cutting path id: path19355)
(Change tool to Default tool)

G00 Z5.000000
G00 X94.511299 Y72.033451
M3S030
G01 Z-0.125000 F50.0(Penetrate)
G01 X94.989075 Y71.555675 Z-0.125000 F2000.000000
G01 X94.511299 Y72.033451 Z-0.125000
G00 Z5.000000
M5
(End cutting path id: path19355)


(Start cutting path id: path19353)
(Change tool to Default tool)

G00 Z5.000000
G00 X94.033522 Y72.033451
M3S030
G01 Z-0.125000 F50.0(Penetrate)
G01 X94.511299 Y71.555675 Z-0.125000 F2000.000000
G01 X94.033522 Y72.033451 Z-0.125000
G00 Z5.000000
M5
(End cutting path id: path19353)


(Start cutting path id: path19351)
(Change tool to Default tool)

G00 Z5.000000
G00 X84.955776 Y72.033451
M3S030
G01 Z-0.125000 F50.0(Penetrate)
G01 X85.433552 Y71.555675 Z-0.125000 F2000.000000
G01 X84.955776 Y72.033451 Z-0.125000
G00 Z5.000000
M5
(End cutting path id: path19351)


(Start cutting path id: path19349)
(Change tool to Default tool)

G00 Z5.000000
G00 X84.478000 Y72.033451
M3S030
G01 Z-0.125000 F50.0(Penetrate)
G01 X84.955776 Y71.555675 Z-0.125000 F2000.000000
G01 X84.478000 Y72.033451 Z-0.125000
G00 Z5.000000
M5
(End cutting path id: path19349)


(Start cutting path id: path19347)
(Change tool to Default tool)

G00 Z5.000000
G00 X84.000224 Y72.033451
M3S030
G01 Z-0.125000 F50.0(Penetrate)
G01 X84.478000 Y71.555675 Z-0.125000 F2000.000000
G01 X84.000224 Y72.033451 Z-0.125000
G00 Z5.000000
M5
(End cutting path id: path19347)


(Start cutting path id: path19345)
(Change tool to Default tool)

G00 Z5.000000
G00 X83.522448 Y72.033451
M3S030
G01 Z-0.125000 F50.0(Penetrate)
G01 X84.000224 Y71.555675 Z-0.125000 F2000.000000
G01 X83.522448 Y72.033451 Z-0.125000
G00 Z5.000000
M5
(End cutting path id: path19345)


(Start cutting path id: path19343)
(Change tool to Default tool)

G00 Z5.000000
G00 X83.044672 Y72.033451
M3S030
G01 Z-0.125000 F50.0(Penetrate)
G01 X83.522448 Y71.555675 Z-0.125000 F2000.000000
G01 X83.044672 Y72.033451 Z-0.125000
G00 Z5.000000
M5
(End cutting path id: path19343)


(Start cutting path id: path19341)
(Change tool to Default tool)

G00 Z5.000000
G00 X82.566896 Y72.033451
M3S030
G01 Z-0.125000 F50.0(Penetrate)
G01 X83.044672 Y71.555675 Z-0.125000 F2000.000000
G01 X82.566896 Y72.033451 Z-0.125000
G00 Z5.000000
M5
(End cutting path id: path19341)


(Start cutting path id: path19339)
(Change tool to Default tool)

G00 Z5.000000
G00 X82.089119 Y72.033451
M3S030
G01 Z-0.125000 F50.0(Penetrate)
G01 X82.566896 Y71.555675 Z-0.125000 F2000.000000
G01 X82.089119 Y72.033451 Z-0.125000
G00 Z5.000000
M5
(End cutting path id: path19339)


(Start cutting path id: path19337)
(Change tool to Default tool)

G00 Z5.000000
G00 X235.455254 Y72.511227
M3S030
G01 Z-0.125000 F50.0(Penetrate)
G01 X235.933030 Y72.033451 Z-0.125000 F2000.000000
G01 X235.455254 Y72.511227 Z-0.125000
G00 Z5.000000
M5
(End cutting path id: path19337)


(Start cutting path id: path19335)
(Change tool to Default tool)

G00 Z5.000000
G00 X234.977478 Y72.511227
M3S030
G01 Z-0.125000 F50.0(Penetrate)
G01 X235.455254 Y72.033451 Z-0.125000 F2000.000000
G01 X234.977478 Y72.511227 Z-0.125000
G00 Z5.000000
M5
(End cutting path id: path19335)


(Start cutting path id: path19333)
(Change tool to Default tool)

G00 Z5.000000
G00 X234.021926 Y72.511227
M3S030
G01 Z-0.125000 F50.0(Penetrate)
G01 X234.499702 Y72.033451 Z-0.125000 F2000.000000
G01 X234.021926 Y72.511227 Z-0.125000
G00 Z5.000000
M5
(End cutting path id: path19333)


(Start cutting path id: path19331)
(Change tool to Default tool)

G00 Z5.000000
G00 X233.544149 Y72.511227
M3S030
G01 Z-0.125000 F50.0(Penetrate)
G01 X234.021926 Y72.033451 Z-0.125000 F2000.000000
G01 X233.544149 Y72.511227 Z-0.125000
G00 Z5.000000
M5
(End cutting path id: path19331)


(Start cutting path id: path19329)
(Change tool to Default tool)

G00 Z5.000000
G00 X228.766388 Y72.511227
M3S030
G01 Z-0.125000 F50.0(Penetrate)
G01 X229.244164 Y72.033451 Z-0.125000 F2000.000000
G01 X228.766388 Y72.511227 Z-0.125000
G00 Z5.000000
M5
(End cutting path id: path19329)


(Start cutting path id: path19327)
(Change tool to Default tool)

G00 Z5.000000
G00 X228.288612 Y72.511227
M3S030
G01 Z-0.125000 F50.0(Penetrate)
G01 X228.766388 Y72.033451 Z-0.125000 F2000.000000
G01 X228.288612 Y72.511227 Z-0.125000
G00 Z5.000000
M5
(End cutting path id: path19327)


(Start cutting path id: path19325)
(Change tool to Default tool)

G00 Z5.000000
G00 X224.466403 Y72.511227
M3S030
G01 Z-0.125000 F50.0(Penetrate)
G01 X224.944179 Y72.033451 Z-0.125000 F2000.000000
G01 X224.466403 Y72.511227 Z-0.125000
G00 Z5.000000
M5
(End cutting path id: path19325)


(Start cutting path id: path19325)
(Change tool to Default tool)

G00 Z5.000000
G00 X226.377508 Y72.511227
M3S030
G01 Z-0.125000 F50.0(Penetrate)
G01 X226.855284 Y72.033451 Z-0.125000 F2000.000000
G01 X226.377508 Y72.511227 Z-0.125000
G00 Z5.000000
M5
(End cutting path id: path19325)


(Start cutting path id: path19323)
(Change tool to Default tool)

G00 Z5.000000
G00 X223.988627 Y72.511227
M3S030
G01 Z-0.125000 F50.0(Penetrate)
G01 X224.466403 Y72.033451 Z-0.125000 F2000.000000
G01 X223.988627 Y72.511227 Z-0.125000
G00 Z5.000000
M5
(End cutting path id: path19323)


(Start cutting path id: path19321)
(Change tool to Default tool)

G00 Z5.000000
G00 X223.510851 Y72.511227
M3S030
G01 Z-0.125000 F50.0(Penetrate)
G01 X223.988627 Y72.033451 Z-0.125000 F2000.000000
G01 X223.510851 Y72.511227 Z-0.125000
G00 Z5.000000
M5
(End cutting path id: path19321)


(Start cutting path id: path19319)
(Change tool to Default tool)

G00 Z5.000000
G00 X223.033075 Y72.511227
M3S030
G01 Z-0.125000 F50.0(Penetrate)
G01 X223.510851 Y72.033451 Z-0.125000 F2000.000000
G01 X223.033075 Y72.511227 Z-0.125000
G00 Z5.000000
M5
(End cutting path id: path19319)


(Start cutting path id: path19317)
(Change tool to Default tool)

G00 Z5.000000
G00 X217.299761 Y72.511227
M3S030
G01 Z-0.125000 F50.0(Penetrate)
G01 X217.777538 Y72.033451 Z-0.125000 F2000.000000
G01 X217.299761 Y72.511227 Z-0.125000
G00 Z5.000000
M5
(End cutting path id: path19317)


(Start cutting path id: path19315)
(Change tool to Default tool)

G00 Z5.000000
G00 X216.662886 Y72.352128
M3S030
G01 Z-0.125000 F50.0(Penetrate)
G01 X216.662886 Y72.192551 Z-0.125000 F2000.000000
G01 X216.981085 Y72.192551 Z-0.125000
G01 X216.821985 Y72.352128 Z-0.125000
G01 X216.662886 Y72.352128 Z-0.125000
G00 Z5.000000
M5
(End cutting path id: path19315)


(Start cutting path id: path19313)
(Change tool to Default tool)

G00 Z5.000000
G00 X215.866433 Y72.511227
M3S030
G01 Z-0.125000 F50.0(Penetrate)
G01 X216.344209 Y72.033451 Z-0.125000 F2000.000000
G01 X215.866433 Y72.511227 Z-0.125000
G00 Z5.000000
M5
(End cutting path id: path19313)


(Start cutting path id: path19311)
(Change tool to Default tool)

G00 Z5.000000
G00 X215.388657 Y72.511227
M3S030
G01 Z-0.125000 F50.0(Penetrate)
G01 X215.866433 Y72.033451 Z-0.125000 F2000.000000
G01 X215.388657 Y72.511227 Z-0.125000
G00 Z5.000000
M5
(End cutting path id: path19311)


(Start cutting path id: path19309)
(Change tool to Default tool)

G00 Z5.000000
G00 X208.699791 Y72.511227
M3S030
G01 Z-0.125000 F50.0(Penetrate)
G01 X209.177567 Y72.033451 Z-0.125000 F2000.000000
G01 X208.699791 Y72.511227 Z-0.125000
G00 Z5.000000
M5
(End cutting path id: path19309)


(Start cutting path id: path19309)
(Change tool to Default tool)

G00 Z5.000000
G00 X214.910881 Y72.511227
M3S030
G01 Z-0.125000 F50.0(Penetrate)
G01 X215.388657 Y72.033451 Z-0.125000 F2000.000000
G01 X214.910881 Y72.511227 Z-0.125000
G00 Z5.000000
M5
(End cutting path id: path19309)


(Start cutting path id: path19307)
(Change tool to Default tool)

G00 Z5.000000
G00 X208.222015 Y72.511227
M3S030
G01 Z-0.125000 F50.0(Penetrate)
G01 X208.699791 Y72.033451 Z-0.125000 F2000.000000
G01 X208.222015 Y72.511227 Z-0.125000
G00 Z5.000000
M5
(End cutting path id: path19307)


(Start cutting path id: path19305)
(Change tool to Default tool)

G00 Z5.000000
G00 X207.266463 Y72.511227
M3S030
G01 Z-0.125000 F50.0(Penetrate)
G01 X207.744239 Y72.033451 Z-0.125000 F2000.000000
G01 X207.266463 Y72.511227 Z-0.125000
G00 Z5.000000
M5
(End cutting path id: path19305)


(Start cutting path id: path19303)
(Change tool to Default tool)

G00 Z5.000000
G00 X206.788687 Y72.511227
M3S030
G01 Z-0.125000 F50.0(Penetrate)
G01 X207.266463 Y72.033451 Z-0.125000 F2000.000000
G01 X206.788687 Y72.511227 Z-0.125000
G00 Z5.000000
M5
(End cutting path id: path19303)


(Start cutting path id: path19301)
(Change tool to Default tool)

G00 Z5.000000
G00 X200.099821 Y72.511227
M3S030
G01 Z-0.125000 F50.0(Penetrate)
G01 X200.577597 Y72.033451 Z-0.125000 F2000.000000
G01 X200.099821 Y72.511227 Z-0.125000
G00 Z5.000000
M5
(End cutting path id: path19301)


(Start cutting path id: path19299)
(Change tool to Default tool)

G00 Z5.000000
G00 X199.622045 Y72.511227
M3S030
G01 Z-0.125000 F50.0(Penetrate)
G01 X200.099821 Y72.033451 Z-0.125000 F2000.000000
G01 X199.622045 Y72.511227 Z-0.125000
G00 Z5.000000
M5
(End cutting path id: path19299)


(Start cutting path id: path19297)
(Change tool to Default tool)

G00 Z5.000000
G00 X196.755388 Y72.511227
M3S030
G01 Z-0.125000 F50.0(Penetrate)
G01 X197.233164 Y72.033451 Z-0.125000 F2000.000000
G01 X196.755388 Y72.511227 Z-0.125000
G00 Z5.000000
M5
(End cutting path id: path19297)


(Start cutting path id: path19295)
(Change tool to Default tool)

G00 Z5.000000
G00 X196.277612 Y72.511227
M3S030
G01 Z-0.125000 F50.0(Penetrate)
G01 X196.755388 Y72.033451 Z-0.125000 F2000.000000
G01 X196.277612 Y72.511227 Z-0.125000
G00 Z5.000000
M5
(End cutting path id: path19295)


(Start cutting path id: path19293)
(Change tool to Default tool)

G00 Z5.000000
G00 X195.799836 Y72.511227
M3S030
G01 Z-0.125000 F50.0(Penetrate)
G01 X196.277612 Y72.033451 Z-0.125000 F2000.000000
G01 X195.799836 Y72.511227 Z-0.125000
G00 Z5.000000
M5
(End cutting path id: path19293)


(Start cutting path id: path19291)
(Change tool to Default tool)

G00 Z5.000000
G00 X187.677642 Y72.511227
M3S030
G01 Z-0.125000 F50.0(Penetrate)
G01 X188.155418 Y72.033451 Z-0.125000 F2000.000000
G01 X187.677642 Y72.511227 Z-0.125000
G00 Z5.000000
M5
(End cutting path id: path19291)


(Start cutting path id: path19289)
(Change tool to Default tool)

G00 Z5.000000
G00 X187.199866 Y72.511227
M3S030
G01 Z-0.125000 F50.0(Penetrate)
G01 X187.677642 Y72.033451 Z-0.125000 F2000.000000
G01 X187.199866 Y72.511227 Z-0.125000
G00 Z5.000000
M5
(End cutting path id: path19289)


(Start cutting path id: path19287)
(Change tool to Default tool)

G00 Z5.000000
G00 X186.722090 Y72.511227
M3S030
G01 Z-0.125000 F50.0(Penetrate)
G01 X187.199866 Y72.033451 Z-0.125000 F2000.000000
G01 X186.722090 Y72.511227 Z-0.125000
G00 Z5.000000
M5
(End cutting path id: path19287)


(Start cutting path id: path19285)
(Change tool to Default tool)

G00 Z5.000000
G00 X186.244314 Y72.511227
M3S030
G01 Z-0.125000 F50.0(Penetrate)
G01 X186.722090 Y72.033451 Z-0.125000 F2000.000000
G01 X186.244314 Y72.511227 Z-0.125000
G00 Z5.000000
M5
(End cutting path id: path19285)


(Start cutting path id: path19283)
(Change tool to Default tool)

G00 Z5.000000
G00 X182.422105 Y72.511227
M3S030
G01 Z-0.125000 F50.0(Penetrate)
G01 X182.899881 Y72.033451 Z-0.125000 F2000.000000
G01 X182.422105 Y72.511227 Z-0.125000
G00 Z5.000000
M5
(End cutting path id: path19283)


(Start cutting path id: path19281)
(Change tool to Default tool)

G00 Z5.000000
G00 X181.944329 Y72.511227
M3S030
G01 Z-0.125000 F50.0(Penetrate)
G01 X182.422105 Y72.033451 Z-0.125000 F2000.000000
G01 X181.944329 Y72.511227 Z-0.125000
G00 Z5.000000
M5
(End cutting path id: path19281)


(Start cutting path id: path19279)
(Change tool to Default tool)

G00 Z5.000000
G00 X177.166567 Y72.511227
M3S030
G01 Z-0.125000 F50.0(Penetrate)
G01 X177.644343 Y72.033451 Z-0.125000 F2000.000000
G01 X177.166567 Y72.511227 Z-0.125000
G00 Z5.000000
M5
(End cutting path id: path19279)


(Start cutting path id: path19277)
(Change tool to Default tool)

G00 Z5.000000
G00 X176.688791 Y72.511227
M3S030
G01 Z-0.125000 F50.0(Penetrate)
G01 X177.166567 Y72.033451 Z-0.125000 F2000.000000
G01 X176.688791 Y72.511227 Z-0.125000
G00 Z5.000000
M5
(End cutting path id: path19277)


(Start cutting path id: path19275)
(Change tool to Default tool)

G00 Z5.000000
G00 X175.733239 Y72.511227
M3S030
G01 Z-0.125000 F50.0(Penetrate)
G01 X176.211015 Y72.033451 Z-0.125000 F2000.000000
G01 X175.733239 Y72.511227 Z-0.125000
G00 Z5.000000
M5
(End cutting path id: path19275)


(Start cutting path id: path19273)
(Change tool to Default tool)

G00 Z5.000000
G00 X175.255463 Y72.511227
M3S030
G01 Z-0.125000 F50.0(Penetrate)
G01 X175.733239 Y72.033451 Z-0.125000 F2000.000000
G01 X175.255463 Y72.511227 Z-0.125000
G00 Z5.000000
M5
(End cutting path id: path19273)


(Start cutting path id: path19271)
(Change tool to Default tool)

G00 Z5.000000
G00 X170.477702 Y72.511227
M3S030
G01 Z-0.125000 F50.0(Penetrate)
G01 X170.955478 Y72.033451 Z-0.125000 F2000.000000
G01 X170.477702 Y72.511227 Z-0.125000
G00 Z5.000000
M5
(End cutting path id: path19271)


(Start cutting path id: path19269)
(Change tool to Default tool)

G00 Z5.000000
G00 X169.999926 Y72.511227
M3S030
G01 Z-0.125000 F50.0(Penetrate)
G01 X170.477702 Y72.033451 Z-0.125000 F2000.000000
G01 X169.999926 Y72.511227 Z-0.125000
G00 Z5.000000
M5
(End cutting path id: path19269)


(Start cutting path id: path19267)
(Change tool to Default tool)

G00 Z5.000000
G00 X169.044373 Y72.511227
M3S030
G01 Z-0.125000 F50.0(Penetrate)
G01 X169.522149 Y72.033451 Z-0.125000 F2000.000000
G01 X169.044373 Y72.511227 Z-0.125000
G00 Z5.000000
M5
(End cutting path id: path19267)


(Start cutting path id: path19265)
(Change tool to Default tool)

G00 Z5.000000
G00 X168.566597 Y72.511227
M3S030
G01 Z-0.125000 F50.0(Penetrate)
G01 X169.044373 Y72.033451 Z-0.125000 F2000.000000
G01 X168.566597 Y72.511227 Z-0.125000
G00 Z5.000000
M5
(End cutting path id: path19265)


(Start cutting path id: path19263)
(Change tool to Default tool)

G00 Z5.000000
G00 X164.744388 Y72.511227
M3S030
G01 Z-0.125000 F50.0(Penetrate)
G01 X165.222164 Y72.033451 Z-0.125000 F2000.000000
G01 X164.744388 Y72.511227 Z-0.125000
G00 Z5.000000
M5
(End cutting path id: path19263)


(Start cutting path id: path19261)
(Change tool to Default tool)

G00 Z5.000000
G00 X164.266612 Y72.511227
M3S030
G01 Z-0.125000 F50.0(Penetrate)
G01 X164.744388 Y72.033451 Z-0.125000 F2000.000000
G01 X164.266612 Y72.511227 Z-0.125000
G00 Z5.000000
M5
(End cutting path id: path19261)


(Start cutting path id: path19259)
(Change tool to Default tool)

G00 Z5.000000
G00 X163.311060 Y72.511227
M3S030
G01 Z-0.125000 F50.0(Penetrate)
G01 X163.788836 Y72.033451 Z-0.125000 F2000.000000
G01 X163.311060 Y72.511227 Z-0.125000
G00 Z5.000000
M5
(End cutting path id: path19259)


(Start cutting path id: path19257)
(Change tool to Default tool)

G00 Z5.000000
G00 X162.833284 Y72.511227
M3S030
G01 Z-0.125000 F50.0(Penetrate)
G01 X163.311060 Y72.033451 Z-0.125000 F2000.000000
G01 X162.833284 Y72.511227 Z-0.125000
G00 Z5.000000
M5
(End cutting path id: path19257)


(Start cutting path id: path19255)
(Change tool to Default tool)

G00 Z5.000000
G00 X156.144418 Y72.511227
M3S030
G01 Z-0.125000 F50.0(Penetrate)
G01 X156.622194 Y72.033451 Z-0.125000 F2000.000000
G01 X156.144418 Y72.511227 Z-0.125000
G00 Z5.000000
M5
(End cutting path id: path19255)


(Start cutting path id: path19253)
(Change tool to Default tool)

G00 Z5.000000
G00 X155.666642 Y72.511227
M3S030
G01 Z-0.125000 F50.0(Penetrate)
G01 X156.144418 Y72.033451 Z-0.125000 F2000.000000
G01 X155.666642 Y72.511227 Z-0.125000
G00 Z5.000000
M5
(End cutting path id: path19253)


(Start cutting path id: path19251)
(Change tool to Default tool)

G00 Z5.000000
G00 X154.711090 Y72.511227
M3S030
G01 Z-0.125000 F50.0(Penetrate)
G01 X155.188866 Y72.033451 Z-0.125000 F2000.000000
G01 X154.711090 Y72.511227 Z-0.125000
G00 Z5.000000
M5
(End cutting path id: path19251)


(Start cutting path id: path19249)
(Change tool to Default tool)

G00 Z5.000000
G00 X154.233314 Y72.511227
M3S030
G01 Z-0.125000 F50.0(Penetrate)
G01 X154.711090 Y72.033451 Z-0.125000 F2000.000000
G01 X154.233314 Y72.511227 Z-0.125000
G00 Z5.000000
M5
(End cutting path id: path19249)


(Start cutting path id: path19247)
(Change tool to Default tool)

G00 Z5.000000
G00 X149.455552 Y72.511227
M3S030
G01 Z-0.125000 F50.0(Penetrate)
G01 X149.933328 Y72.033451 Z-0.125000 F2000.000000
G01 X149.455552 Y72.511227 Z-0.125000
G00 Z5.000000
M5
(End cutting path id: path19247)


(Start cutting path id: path19245)
(Change tool to Default tool)

G00 Z5.000000
G00 X148.977776 Y72.511227
M3S030
G01 Z-0.125000 F50.0(Penetrate)
G01 X149.455552 Y72.033451 Z-0.125000 F2000.000000
G01 X148.977776 Y72.511227 Z-0.125000
G00 Z5.000000
M5
(End cutting path id: path19245)


(Start cutting path id: path19243)
(Change tool to Default tool)

G00 Z5.000000
G00 X148.022224 Y72.511227
M3S030
G01 Z-0.125000 F50.0(Penetrate)
G01 X148.500000 Y72.033451 Z-0.125000 F2000.000000
G01 X148.022224 Y72.511227 Z-0.125000
G00 Z5.000000
M5
(End cutting path id: path19243)


(Start cutting path id: path19241)
(Change tool to Default tool)

G00 Z5.000000
G00 X147.544448 Y72.511227
M3S030
G01 Z-0.125000 F50.0(Penetrate)
G01 X148.022224 Y72.033451 Z-0.125000 F2000.000000
G01 X147.544448 Y72.511227 Z-0.125000
G00 Z5.000000
M5
(End cutting path id: path19241)


(Start cutting path id: path19239)
(Change tool to Default tool)

G00 Z5.000000
G00 X147.066672 Y72.511227
M3S030
G01 Z-0.125000 F50.0(Penetrate)
G01 X147.544448 Y72.033451 Z-0.125000 F2000.000000
G01 X147.066672 Y72.511227 Z-0.125000
G00 Z5.000000
M5
(End cutting path id: path19239)


(Start cutting path id: path19237)
(Change tool to Default tool)

G00 Z5.000000
G00 X146.588896 Y72.511227
M3S030
G01 Z-0.125000 F50.0(Penetrate)
G01 X147.066672 Y72.033451 Z-0.125000 F2000.000000
G01 X146.588896 Y72.511227 Z-0.125000
G00 Z5.000000
M5
(End cutting path id: path19237)


(Start cutting path id: path19235)
(Change tool to Default tool)

G00 Z5.000000
G00 X143.722239 Y72.511227
M3S030
G01 Z-0.125000 F50.0(Penetrate)
G01 X144.200015 Y72.033451 Z-0.125000 F2000.000000
G01 X143.722239 Y72.511227 Z-0.125000
G00 Z5.000000
M5
(End cutting path id: path19235)


(Start cutting path id: path19233)
(Change tool to Default tool)

G00 Z5.000000
G00 X143.244463 Y72.511227
M3S030
G01 Z-0.125000 F50.0(Penetrate)
G01 X143.722239 Y72.033451 Z-0.125000 F2000.000000
G01 X143.244463 Y72.511227 Z-0.125000
G00 Z5.000000
M5
(End cutting path id: path19233)


(Start cutting path id: path19231)
(Change tool to Default tool)

G00 Z5.000000
G00 X136.077821 Y72.511227
M3S030
G01 Z-0.125000 F50.0(Penetrate)
G01 X136.555597 Y72.033451 Z-0.125000 F2000.000000
G01 X136.077821 Y72.511227 Z-0.125000
G00 Z5.000000
M5
(End cutting path id: path19231)


(Start cutting path id: path19229)
(Change tool to Default tool)

G00 Z5.000000
G00 X135.600045 Y72.511227
M3S030
G01 Z-0.125000 F50.0(Penetrate)
G01 X136.077821 Y72.033451 Z-0.125000 F2000.000000
G01 X135.600045 Y72.511227 Z-0.125000
G00 Z5.000000
M5
(End cutting path id: path19229)


(Start cutting path id: path19227)
(Change tool to Default tool)

G00 Z5.000000
G00 X135.122269 Y72.511227
M3S030
G01 Z-0.125000 F50.0(Penetrate)
G01 X135.600045 Y72.033451 Z-0.125000 F2000.000000
G01 X135.122269 Y72.511227 Z-0.125000
G00 Z5.000000
M5
(End cutting path id: path19227)


(Start cutting path id: path19225)
(Change tool to Default tool)

G00 Z5.000000
G00 X132.255612 Y72.511227
M3S030
G01 Z-0.125000 F50.0(Penetrate)
G01 X132.733388 Y72.033451 Z-0.125000 F2000.000000
G01 X132.255612 Y72.511227 Z-0.125000
G00 Z5.000000
M5
(End cutting path id: path19225)


(Start cutting path id: path19223)
(Change tool to Default tool)

G00 Z5.000000
G00 X131.777836 Y72.511227
M3S030
G01 Z-0.125000 F50.0(Penetrate)
G01 X132.255612 Y72.033451 Z-0.125000 F2000.000000
G01 X131.777836 Y72.511227 Z-0.125000
G00 Z5.000000
M5
(End cutting path id: path19223)


(Start cutting path id: path19221)
(Change tool to Default tool)

G00 Z5.000000
G00 X131.300060 Y72.511227
M3S030
G01 Z-0.125000 F50.0(Penetrate)
G01 X131.777836 Y72.033451 Z-0.125000 F2000.000000
G01 X131.300060 Y72.511227 Z-0.125000
G00 Z5.000000
M5
(End cutting path id: path19221)


(Start cutting path id: path19219)
(Change tool to Default tool)

G00 Z5.000000
G00 X126.044522 Y72.511227
M3S030
G01 Z-0.125000 F50.0(Penetrate)
G01 X126.522299 Y72.033451 Z-0.125000 F2000.000000
G01 X126.044522 Y72.511227 Z-0.125000
G00 Z5.000000
M5
(End cutting path id: path19219)


(Start cutting path id: path19217)
(Change tool to Default tool)

G00 Z5.000000
G00 X125.566746 Y72.511227
M3S030
G01 Z-0.125000 F50.0(Penetrate)
G01 X126.044522 Y72.033451 Z-0.125000 F2000.000000
G01 X125.566746 Y72.511227 Z-0.125000
G00 Z5.000000
M5
(End cutting path id: path19217)


(Start cutting path id: path19215)
(Change tool to Default tool)

G00 Z5.000000
G00 X125.088970 Y72.511227
M3S030
G01 Z-0.125000 F50.0(Penetrate)
G01 X125.566746 Y72.033451 Z-0.125000 F2000.000000
G01 X125.088970 Y72.511227 Z-0.125000
G00 Z5.000000
M5
(End cutting path id: path19215)


(Start cutting path id: path19213)
(Change tool to Default tool)

G00 Z5.000000
G00 X124.611194 Y72.511227
M3S030
G01 Z-0.125000 F50.0(Penetrate)
G01 X125.088970 Y72.033451 Z-0.125000 F2000.000000
G01 X124.611194 Y72.511227 Z-0.125000
G00 Z5.000000
M5
(End cutting path id: path19213)


(Start cutting path id: path19211)
(Change tool to Default tool)

G00 Z5.000000
G00 X124.133418 Y72.511227
M3S030
G01 Z-0.125000 F50.0(Penetrate)
G01 X124.611194 Y72.033451 Z-0.125000 F2000.000000
G01 X124.133418 Y72.511227 Z-0.125000
G00 Z5.000000
M5
(End cutting path id: path19211)


(Start cutting path id: path19209)
(Change tool to Default tool)

G00 Z5.000000
G00 X123.655642 Y72.511227
M3S030
G01 Z-0.125000 F50.0(Penetrate)
G01 X124.133418 Y72.033451 Z-0.125000 F2000.000000
G01 X123.655642 Y72.511227 Z-0.125000
G00 Z5.000000
M5
(End cutting path id: path19209)


(Start cutting path id: path19207)
(Change tool to Default tool)

G00 Z5.000000
G00 X117.444552 Y72.511227
M3S030
G01 Z-0.125000 F50.0(Penetrate)
G01 X117.922328 Y72.033451 Z-0.125000 F2000.000000
G01 X117.444552 Y72.511227 Z-0.125000
G00 Z5.000000
M5
(End cutting path id: path19207)


(Start cutting path id: path19205)
(Change tool to Default tool)

G00 Z5.000000
G00 X116.966776 Y72.511227
M3S030
G01 Z-0.125000 F50.0(Penetrate)
G01 X117.444552 Y72.033451 Z-0.125000 F2000.000000
G01 X116.966776 Y72.511227 Z-0.125000
G00 Z5.000000
M5
(End cutting path id: path19205)


(Start cutting path id: path19203)
(Change tool to Default tool)

G00 Z5.000000
G00 X116.011224 Y72.511227
M3S030
G01 Z-0.125000 F50.0(Penetrate)
G01 X116.489000 Y72.033451 Z-0.125000 F2000.000000
G01 X116.011224 Y72.511227 Z-0.125000
G00 Z5.000000
M5
(End cutting path id: path19203)


(Start cutting path id: path19201)
(Change tool to Default tool)

G00 Z5.000000
G00 X115.533448 Y72.511227
M3S030
G01 Z-0.125000 F50.0(Penetrate)
G01 X116.011224 Y72.033451 Z-0.125000 F2000.000000
G01 X115.533448 Y72.511227 Z-0.125000
G00 Z5.000000
M5
(End cutting path id: path19201)


(Start cutting path id: path19199)
(Change tool to Default tool)

G00 Z5.000000
G00 X111.711239 Y72.511227
M3S030
G01 Z-0.125000 F50.0(Penetrate)
G01 X112.189015 Y72.033451 Z-0.125000 F2000.000000
G01 X111.711239 Y72.511227 Z-0.125000
G00 Z5.000000
M5
(End cutting path id: path19199)


(Start cutting path id: path19197)
(Change tool to Default tool)

G00 Z5.000000
G00 X111.233463 Y72.511227
M3S030
G01 Z-0.125000 F50.0(Penetrate)
G01 X111.711239 Y72.033451 Z-0.125000 F2000.000000
G01 X111.233463 Y72.511227 Z-0.125000
G00 Z5.000000
M5
(End cutting path id: path19197)


(Start cutting path id: path19195)
(Change tool to Default tool)

G00 Z5.000000
G00 X109.800134 Y72.511227
M3S030
G01 Z-0.125000 F50.0(Penetrate)
G01 X110.277911 Y72.033451 Z-0.125000 F2000.000000
G01 X109.800134 Y72.511227 Z-0.125000
G00 Z5.000000
M5
(End cutting path id: path19195)


(Start cutting path id: path19193)
(Change tool to Default tool)

G00 Z5.000000
G00 X105.977925 Y72.511227
M3S030
G01 Z-0.125000 F50.0(Penetrate)
G01 X106.455702 Y72.033451 Z-0.125000 F2000.000000
G01 X105.977925 Y72.511227 Z-0.125000
G00 Z5.000000
M5
(End cutting path id: path19193)


(Start cutting path id: path19191)
(Change tool to Default tool)

G00 Z5.000000
G00 X105.500149 Y72.511227
M3S030
G01 Z-0.125000 F50.0(Penetrate)
G01 X105.977925 Y72.033451 Z-0.125000 F2000.000000
G01 X105.500149 Y72.511227 Z-0.125000
G00 Z5.000000
M5
(End cutting path id: path19191)


(Start cutting path id: path19189)
(Change tool to Default tool)

G00 Z5.000000
G00 X104.544597 Y72.511227
M3S030
G01 Z-0.125000 F50.0(Penetrate)
G01 X105.022373 Y72.033451 Z-0.125000 F2000.000000
G01 X104.544597 Y72.511227 Z-0.125000
G00 Z5.000000
M5
(End cutting path id: path19189)


(Start cutting path id: path19187)
(Change tool to Default tool)

G00 Z5.000000
G00 X99.289060 Y72.511227
M3S030
G01 Z-0.125000 F50.0(Penetrate)
G01 X99.766836 Y72.033451 Z-0.125000 F2000.000000
G01 X99.289060 Y72.511227 Z-0.125000
G00 Z5.000000
M5
(End cutting path id: path19187)


(Start cutting path id: path19185)
(Change tool to Default tool)

G00 Z5.000000
G00 X98.811284 Y72.511227
M3S030
G01 Z-0.125000 F50.0(Penetrate)
G01 X99.289060 Y72.033451 Z-0.125000 F2000.000000
G01 X98.811284 Y72.511227 Z-0.125000
G00 Z5.000000
M5
(End cutting path id: path19185)


(Start cutting path id: path19183)
(Change tool to Default tool)

G00 Z5.000000
G00 X98.333508 Y72.511227
M3S030
G01 Z-0.125000 F50.0(Penetrate)
G01 X98.811284 Y72.033451 Z-0.125000 F2000.000000
G01 X98.333508 Y72.511227 Z-0.125000
G00 Z5.000000
M5
(End cutting path id: path19183)


(Start cutting path id: path19181)
(Change tool to Default tool)

G00 Z5.000000
G00 X97.855731 Y72.511227
M3S030
G01 Z-0.125000 F50.0(Penetrate)
G01 X98.333508 Y72.033451 Z-0.125000 F2000.000000
G01 X97.855731 Y72.511227 Z-0.125000
G00 Z5.000000
M5
(End cutting path id: path19181)


(Start cutting path id: path19179)
(Change tool to Default tool)

G00 Z5.000000
G00 X97.377955 Y72.511227
M3S030
G01 Z-0.125000 F50.0(Penetrate)
G01 X97.855731 Y72.033451 Z-0.125000 F2000.000000
G01 X97.377955 Y72.511227 Z-0.125000
G00 Z5.000000
M5
(End cutting path id: path19179)


(Start cutting path id: path19177)
(Change tool to Default tool)

G00 Z5.000000
G00 X96.900179 Y72.511227
M3S030
G01 Z-0.125000 F50.0(Penetrate)
G01 X97.377955 Y72.033451 Z-0.125000 F2000.000000
G01 X96.900179 Y72.511227 Z-0.125000
G00 Z5.000000
M5
(End cutting path id: path19177)


(Start cutting path id: path19175)
(Change tool to Default tool)

G00 Z5.000000
G00 X96.422403 Y72.511227
M3S030
G01 Z-0.125000 F50.0(Penetrate)
G01 X96.900179 Y72.033451 Z-0.125000 F2000.000000
G01 X96.422403 Y72.511227 Z-0.125000
G00 Z5.000000
M5
(End cutting path id: path19175)


(Start cutting path id: path19173)
(Change tool to Default tool)

G00 Z5.000000
G00 X93.555746 Y72.511227
M3S030
G01 Z-0.125000 F50.0(Penetrate)
G01 X94.033522 Y72.033451 Z-0.125000 F2000.000000
G01 X93.555746 Y72.511227 Z-0.125000
G00 Z5.000000
M5
(End cutting path id: path19173)


(Start cutting path id: path19171)
(Change tool to Default tool)

G00 Z5.000000
G00 X93.077970 Y72.511227
M3S030
G01 Z-0.125000 F50.0(Penetrate)
G01 X93.555746 Y72.033451 Z-0.125000 F2000.000000
G01 X93.077970 Y72.511227 Z-0.125000
G00 Z5.000000
M5
(End cutting path id: path19171)


(Start cutting path id: path19169)
(Change tool to Default tool)

G00 Z5.000000
G00 X85.911328 Y72.511227
M3S030
G01 Z-0.125000 F50.0(Penetrate)
G01 X86.389105 Y72.033451 Z-0.125000 F2000.000000
G01 X85.911328 Y72.511227 Z-0.125000
G00 Z5.000000
M5
(End cutting path id: path19169)


(Start cutting path id: path19167)
(Change tool to Default tool)

G00 Z5.000000
G00 X85.433552 Y72.511227
M3S030
G01 Z-0.125000 F50.0(Penetrate)
G01 X85.911328 Y72.033451 Z-0.125000 F2000.000000
G01 X85.433552 Y72.511227 Z-0.125000
G00 Z5.000000
M5
(End cutting path id: path19167)


(Start cutting path id: path19165)
(Change tool to Default tool)

G00 Z5.000000
G00 X84.955776 Y72.511227
M3S030
G01 Z-0.125000 F50.0(Penetrate)
G01 X85.433552 Y72.033451 Z-0.125000 F2000.000000
G01 X84.955776 Y72.511227 Z-0.125000
G00 Z5.000000
M5
(End cutting path id: path19165)


(Start cutting path id: path19163)
(Change tool to Default tool)

G00 Z5.000000
G00 X82.089119 Y72.511227
M3S030
G01 Z-0.125000 F50.0(Penetrate)
G01 X82.566896 Y72.033451 Z-0.125000 F2000.000000
G01 X82.089119 Y72.511227 Z-0.125000
G00 Z5.000000
M5
(End cutting path id: path19163)


(Start cutting path id: path19161)
(Change tool to Default tool)

G00 Z5.000000
G00 X81.611343 Y72.511227
M3S030
G01 Z-0.125000 F50.0(Penetrate)
G01 X82.089119 Y72.033451 Z-0.125000 F2000.000000
G01 X81.611343 Y72.511227 Z-0.125000
G00 Z5.000000
M5
(End cutting path id: path19161)


(Start cutting path id: path19159)
(Change tool to Default tool)

G00 Z5.000000
G00 X81.133567 Y72.511227
M3S030
G01 Z-0.125000 F50.0(Penetrate)
G01 X81.611343 Y72.033451 Z-0.125000 F2000.000000
G01 X81.133567 Y72.511227 Z-0.125000
G00 Z5.000000
M5
(End cutting path id: path19159)


(Start cutting path id: path19157)
(Change tool to Default tool)

G00 Z5.000000
G00 X73.489149 Y72.511227
M3S030
G01 Z-0.125000 F50.0(Penetrate)
G01 X73.966925 Y72.033451 Z-0.125000 F2000.000000
G01 X73.489149 Y72.511227 Z-0.125000
G00 Z5.000000
M5
(End cutting path id: path19157)


(Start cutting path id: path19155)
(Change tool to Default tool)

G00 Z5.000000
G00 X73.011373 Y72.511227
M3S030
G01 Z-0.125000 F50.0(Penetrate)
G01 X73.489149 Y72.033451 Z-0.125000 F2000.000000
G01 X73.011373 Y72.511227 Z-0.125000
G00 Z5.000000
M5
(End cutting path id: path19155)


(Start cutting path id: path19153)
(Change tool to Default tool)

G00 Z5.000000
G00 X72.055821 Y72.511227
M3S030
G01 Z-0.125000 F50.0(Penetrate)
G01 X72.533597 Y72.033451 Z-0.125000 F2000.000000
G01 X72.055821 Y72.511227 Z-0.125000
G00 Z5.000000
M5
(End cutting path id: path19153)


(Start cutting path id: path19151)
(Change tool to Default tool)

G00 Z5.000000
G00 X71.578045 Y72.511227
M3S030
G01 Z-0.125000 F50.0(Penetrate)
G01 X72.055821 Y72.033451 Z-0.125000 F2000.000000
G01 X71.578045 Y72.511227 Z-0.125000
G00 Z5.000000
M5
(End cutting path id: path19151)


(Start cutting path id: path19149)
(Change tool to Default tool)

G00 Z5.000000
G00 X64.889179 Y72.511227
M3S030
G01 Z-0.125000 F50.0(Penetrate)
G01 X65.366955 Y72.033451 Z-0.125000 F2000.000000
G01 X64.889179 Y72.511227 Z-0.125000
G00 Z5.000000
M5
(End cutting path id: path19149)


(Start cutting path id: path19147)
(Change tool to Default tool)

G00 Z5.000000
G00 X64.411403 Y72.511227
M3S030
G01 Z-0.125000 F50.0(Penetrate)
G01 X64.889179 Y72.033451 Z-0.125000 F2000.000000
G01 X64.411403 Y72.511227 Z-0.125000
G00 Z5.000000
M5
(End cutting path id: path19147)


(Start cutting path id: path19145)
(Change tool to Default tool)

G00 Z5.000000
G00 X63.933627 Y72.511227
M3S030
G01 Z-0.125000 F50.0(Penetrate)
G01 X64.411403 Y72.033451 Z-0.125000 F2000.000000
G01 X63.933627 Y72.511227 Z-0.125000
G00 Z5.000000
M5
(End cutting path id: path19145)


(Start cutting path id: path19143)
(Change tool to Default tool)

G00 Z5.000000
G00 X63.455851 Y72.511227
M3S030
G01 Z-0.125000 F50.0(Penetrate)
G01 X63.933627 Y72.033451 Z-0.125000 F2000.000000
G01 X63.455851 Y72.511227 Z-0.125000
G00 Z5.000000
M5
(End cutting path id: path19143)


(Start cutting path id: path19141)
(Change tool to Default tool)

G00 Z5.000000
G00 X59.633642 Y72.511227
M3S030
G01 Z-0.125000 F50.0(Penetrate)
G01 X60.111418 Y72.033451 Z-0.125000 F2000.000000
G01 X59.633642 Y72.511227 Z-0.125000
G00 Z5.000000
M5
(End cutting path id: path19141)


(Start cutting path id: path19139)
(Change tool to Default tool)

G00 Z5.000000
G00 X59.155866 Y72.511227
M3S030
G01 Z-0.125000 F50.0(Penetrate)
G01 X59.633642 Y72.033451 Z-0.125000 F2000.000000
G01 X59.155866 Y72.511227 Z-0.125000
G00 Z5.000000
M5
(End cutting path id: path19139)


(Start cutting path id: path19137)
(Change tool to Default tool)

G00 Z5.000000
G00 X233.544149 Y72.989004
M3S030
G01 Z-0.125000 F50.0(Penetrate)
G01 X234.021926 Y72.511227 Z-0.125000 F2000.000000
G01 X233.544149 Y72.989004 Z-0.125000
G00 Z5.000000
M5
(End cutting path id: path19137)


(Start cutting path id: path19135)
(Change tool to Default tool)

G00 Z5.000000
G00 X223.033075 Y72.989004
M3S030
G01 Z-0.125000 F50.0(Penetrate)
G01 X223.510851 Y72.511227 Z-0.125000 F2000.000000
G01 X223.033075 Y72.989004 Z-0.125000
G00 Z5.000000
M5
(End cutting path id: path19135)


(Start cutting path id: path19133)
(Change tool to Default tool)

G00 Z5.000000
G00 X222.555299 Y72.989004
M3S030
G01 Z-0.125000 F50.0(Penetrate)
G01 X223.033075 Y72.511227 Z-0.125000 F2000.000000
G01 X222.555299 Y72.989004 Z-0.125000
G00 Z5.000000
M5
(End cutting path id: path19133)


(Start cutting path id: path19131)
(Change tool to Default tool)

G00 Z5.000000
G00 X222.077523 Y72.989004
M3S030
G01 Z-0.125000 F50.0(Penetrate)
G01 X222.555299 Y72.511227 Z-0.125000 F2000.000000
G01 X222.077523 Y72.989004 Z-0.125000
G00 Z5.000000
M5
(End cutting path id: path19131)


(Start cutting path id: path19129)
(Change tool to Default tool)

G00 Z5.000000
G00 X217.299761 Y72.989004
M3S030
G01 Z-0.125000 F50.0(Penetrate)
G01 X217.777538 Y72.511227 Z-0.125000 F2000.000000
G01 X217.299761 Y72.989004 Z-0.125000
G00 Z5.000000
M5
(End cutting path id: path19129)


(Start cutting path id: path19127)
(Change tool to Default tool)

G00 Z5.000000
G00 X214.910881 Y72.989004
M3S030
G01 Z-0.125000 F50.0(Penetrate)
G01 X215.388657 Y72.511227 Z-0.125000 F2000.000000
G01 X214.910881 Y72.989004 Z-0.125000
G00 Z5.000000
M5
(End cutting path id: path19127)


(Start cutting path id: path19125)
(Change tool to Default tool)

G00 Z5.000000
G00 X214.433105 Y72.989004
M3S030
G01 Z-0.125000 F50.0(Penetrate)
G01 X214.910881 Y72.511227 Z-0.125000 F2000.000000
G01 X214.433105 Y72.989004 Z-0.125000
G00 Z5.000000
M5
(End cutting path id: path19125)


(Start cutting path id: path19123)
(Change tool to Default tool)

G00 Z5.000000
G00 X206.788687 Y72.989004
M3S030
G01 Z-0.125000 F50.0(Penetrate)
G01 X207.266463 Y72.511227 Z-0.125000 F2000.000000
G01 X206.788687 Y72.989004 Z-0.125000
G00 Z5.000000
M5
(End cutting path id: path19123)


(Start cutting path id: path19121)
(Change tool to Default tool)

G00 Z5.000000
G00 X200.577597 Y72.989004
M3S030
G01 Z-0.125000 F50.0(Penetrate)
G01 X201.055373 Y72.511227 Z-0.125000 F2000.000000
G01 X200.577597 Y72.989004 Z-0.125000
G00 Z5.000000
M5
(End cutting path id: path19121)


(Start cutting path id: path19119)
(Change tool to Default tool)

G00 Z5.000000
G00 X195.799836 Y72.989004
M3S030
G01 Z-0.125000 F50.0(Penetrate)
G01 X196.277612 Y72.511227 Z-0.125000 F2000.000000
G01 X195.799836 Y72.989004 Z-0.125000
G00 Z5.000000
M5
(End cutting path id: path19119)


(Start cutting path id: path19117)
(Change tool to Default tool)

G00 Z5.000000
G00 X195.322060 Y72.989004
M3S030
G01 Z-0.125000 F50.0(Penetrate)
G01 X195.799836 Y72.511227 Z-0.125000 F2000.000000
G01 X195.322060 Y72.989004 Z-0.125000
G00 Z5.000000
M5
(End cutting path id: path19117)


(Start cutting path id: path19115)
(Change tool to Default tool)

G00 Z5.000000
G00 X188.633194 Y72.989004
M3S030
G01 Z-0.125000 F50.0(Penetrate)
G01 X189.110970 Y72.511227 Z-0.125000 F2000.000000
G01 X188.633194 Y72.989004 Z-0.125000
G00 Z5.000000
M5
(End cutting path id: path19115)


(Start cutting path id: path19113)
(Change tool to Default tool)

G00 Z5.000000
G00 X188.155418 Y72.989004
M3S030
G01 Z-0.125000 F50.0(Penetrate)
G01 X188.633194 Y72.511227 Z-0.125000 F2000.000000
G01 X188.155418 Y72.989004 Z-0.125000
G00 Z5.000000
M5
(End cutting path id: path19113)


(Start cutting path id: path19111)
(Change tool to Default tool)

G00 Z5.000000
G00 X181.944329 Y72.989004
M3S030
G01 Z-0.125000 F50.0(Penetrate)
G01 X182.422105 Y72.511227 Z-0.125000 F2000.000000
G01 X181.944329 Y72.989004 Z-0.125000
G00 Z5.000000
M5
(End cutting path id: path19111)


(Start cutting path id: path19109)
(Change tool to Default tool)

G00 Z5.000000
G00 X162.833284 Y72.989004
M3S030
G01 Z-0.125000 F50.0(Penetrate)
G01 X163.311060 Y72.511227 Z-0.125000 F2000.000000
G01 X162.833284 Y72.989004 Z-0.125000
G00 Z5.000000
M5
(End cutting path id: path19109)


(Start cutting path id: path19107)
(Change tool to Default tool)

G00 Z5.000000
G00 X154.233314 Y72.989004
M3S030
G01 Z-0.125000 F50.0(Penetrate)
G01 X154.711090 Y72.511227 Z-0.125000 F2000.000000
G01 X154.233314 Y72.989004 Z-0.125000
G00 Z5.000000
M5
(End cutting path id: path19107)


(Start cutting path id: path19105)
(Change tool to Default tool)

G00 Z5.000000
G00 X147.544448 Y72.989004
M3S030
G01 Z-0.125000 F50.0(Penetrate)
G01 X148.022224 Y72.511227 Z-0.125000 F2000.000000
G01 X147.544448 Y72.989004 Z-0.125000
G00 Z5.000000
M5
(End cutting path id: path19105)


(Start cutting path id: path19103)
(Change tool to Default tool)

G00 Z5.000000
G00 X143.244463 Y72.989004
M3S030
G01 Z-0.125000 F50.0(Penetrate)
G01 X143.722239 Y72.511227 Z-0.125000 F2000.000000
G01 X143.244463 Y72.989004 Z-0.125000
G00 Z5.000000
M5
(End cutting path id: path19103)


(Start cutting path id: path19103)
(Change tool to Default tool)

G00 Z5.000000
G00 X147.066672 Y72.989004
M3S030
G01 Z-0.125000 F50.0(Penetrate)
G01 X147.544448 Y72.511227 Z-0.125000 F2000.000000
G01 X147.066672 Y72.989004 Z-0.125000
G00 Z5.000000
M5
(End cutting path id: path19103)


(Start cutting path id: path19101)
(Change tool to Default tool)

G00 Z5.000000
G00 X142.766687 Y72.989004
M3S030
G01 Z-0.125000 F50.0(Penetrate)
G01 X143.244463 Y72.511227 Z-0.125000 F2000.000000
G01 X142.766687 Y72.989004 Z-0.125000
G00 Z5.000000
M5
(End cutting path id: path19101)


(Start cutting path id: path19099)
(Change tool to Default tool)

G00 Z5.000000
G00 X136.555597 Y72.989004
M3S030
G01 Z-0.125000 F50.0(Penetrate)
G01 X137.033373 Y72.511227 Z-0.125000 F2000.000000
G01 X136.555597 Y72.989004 Z-0.125000
G00 Z5.000000
M5
(End cutting path id: path19099)


(Start cutting path id: path19097)
(Change tool to Default tool)

G00 Z5.000000
G00 X136.077821 Y72.989004
M3S030
G01 Z-0.125000 F50.0(Penetrate)
G01 X136.555597 Y72.511227 Z-0.125000 F2000.000000
G01 X136.077821 Y72.989004 Z-0.125000
G00 Z5.000000
M5
(End cutting path id: path19097)


(Start cutting path id: path19095)
(Change tool to Default tool)

G00 Z5.000000
G00 X130.822284 Y72.989004
M3S030
G01 Z-0.125000 F50.0(Penetrate)
G01 X131.300060 Y72.511227 Z-0.125000 F2000.000000
G01 X130.822284 Y72.989004 Z-0.125000
G00 Z5.000000
M5
(End cutting path id: path19095)


(Start cutting path id: path19093)
(Change tool to Default tool)

G00 Z5.000000
G00 X126.044522 Y72.989004
M3S030
G01 Z-0.125000 F50.0(Penetrate)
G01 X126.522299 Y72.511227 Z-0.125000 F2000.000000
G01 X126.044522 Y72.989004 Z-0.125000
G00 Z5.000000
M5
(End cutting path id: path19093)


(Start cutting path id: path19091)
(Change tool to Default tool)

G00 Z5.000000
G00 X123.177866 Y72.989004
M3S030
G01 Z-0.125000 F50.0(Penetrate)
G01 X123.655642 Y72.511227 Z-0.125000 F2000.000000
G01 X123.177866 Y72.989004 Z-0.125000
G00 Z5.000000
M5
(End cutting path id: path19091)


(Start cutting path id: path19089)
(Change tool to Default tool)

G00 Z5.000000
G00 X111.711239 Y72.989004
M3S030
G01 Z-0.125000 F50.0(Penetrate)
G01 X112.189015 Y72.511227 Z-0.125000 F2000.000000
G01 X111.711239 Y72.989004 Z-0.125000
G00 Z5.000000
M5
(End cutting path id: path19089)


(Start cutting path id: path19087)
(Change tool to Default tool)

G00 Z5.000000
G00 X109.800134 Y72.989004
M3S030
G01 Z-0.125000 F50.0(Penetrate)
G01 X109.800134 Y72.511227 Z-0.125000 F2000.000000
G01 X110.755687 Y72.033451 Z-0.125000
G01 X110.755687 Y72.511227 Z-0.125000
G01 X109.800134 Y72.989004 Z-0.125000
G00 Z5.000000
M5
(End cutting path id: path19087)


(Start cutting path id: path19087)
(Change tool to Default tool)

G00 Z5.000000
G00 X111.233463 Y72.989004
M3S030
G01 Z-0.125000 F50.0(Penetrate)
G01 X111.711239 Y72.511227 Z-0.125000 F2000.000000
G01 X111.233463 Y72.989004 Z-0.125000
G00 Z5.000000
M5
(End cutting path id: path19087)


(Start cutting path id: path19085)
(Change tool to Default tool)

G00 Z5.000000
G00 X109.322358 Y72.989004
M3S030
G01 Z-0.125000 F50.0(Penetrate)
G01 X109.800134 Y72.511227 Z-0.125000 F2000.000000
G01 X109.322358 Y72.989004 Z-0.125000
G00 Z5.000000
M5
(End cutting path id: path19085)


(Start cutting path id: path19083)
(Change tool to Default tool)

G00 Z5.000000
G00 X106.455702 Y72.989004
M3S030
G01 Z-0.125000 F50.0(Penetrate)
G01 X106.933478 Y72.511227 Z-0.125000 F2000.000000
G01 X106.455702 Y72.989004 Z-0.125000
G00 Z5.000000
M5
(End cutting path id: path19083)


(Start cutting path id: path19081)
(Change tool to Default tool)

G00 Z5.000000
G00 X97.377955 Y72.989004
M3S030
G01 Z-0.125000 F50.0(Penetrate)
G01 X97.855731 Y72.511227 Z-0.125000 F2000.000000
G01 X97.377955 Y72.989004 Z-0.125000
G00 Z5.000000
M5
(End cutting path id: path19081)


(Start cutting path id: path19079)
(Change tool to Default tool)

G00 Z5.000000
G00 X96.900179 Y72.989004
M3S030
G01 Z-0.125000 F50.0(Penetrate)
G01 X97.377955 Y72.511227 Z-0.125000 F2000.000000
G01 X96.900179 Y72.989004 Z-0.125000
G00 Z5.000000
M5
(End cutting path id: path19079)


(Start cutting path id: path19077)
(Change tool to Default tool)

G00 Z5.000000
G00 X93.077970 Y72.989004
M3S030
G01 Z-0.125000 F50.0(Penetrate)
G01 X93.555746 Y72.511227 Z-0.125000 F2000.000000
G01 X93.077970 Y72.989004 Z-0.125000
G00 Z5.000000
M5
(End cutting path id: path19077)


(Start cutting path id: path19075)
(Change tool to Default tool)

G00 Z5.000000
G00 X92.600194 Y72.989004
M3S030
G01 Z-0.125000 F50.0(Penetrate)
G01 X93.077970 Y72.511227 Z-0.125000 F2000.000000
G01 X92.600194 Y72.989004 Z-0.125000
G00 Z5.000000
M5
(End cutting path id: path19075)


(Start cutting path id: path19073)
(Change tool to Default tool)

G00 Z5.000000
G00 X86.389105 Y72.989004
M3S030
G01 Z-0.125000 F50.0(Penetrate)
G01 X86.866881 Y72.511227 Z-0.125000 F2000.000000
G01 X86.389105 Y72.989004 Z-0.125000
G00 Z5.000000
M5
(End cutting path id: path19073)


(Start cutting path id: path19071)
(Change tool to Default tool)

G00 Z5.000000
G00 X85.911328 Y72.989004
M3S030
G01 Z-0.125000 F50.0(Penetrate)
G01 X86.389105 Y72.511227 Z-0.125000 F2000.000000
G01 X85.911328 Y72.989004 Z-0.125000
G00 Z5.000000
M5
(End cutting path id: path19071)


(Start cutting path id: path19069)
(Change tool to Default tool)

G00 Z5.000000
G00 X81.133567 Y72.989004
M3S030
G01 Z-0.125000 F50.0(Penetrate)
G01 X81.611343 Y72.511227 Z-0.125000 F2000.000000
G01 X81.133567 Y72.989004 Z-0.125000
G00 Z5.000000
M5
(End cutting path id: path19069)


(Start cutting path id: path19067)
(Change tool to Default tool)

G00 Z5.000000
G00 X80.655791 Y72.989004
M3S030
G01 Z-0.125000 F50.0(Penetrate)
G01 X81.133567 Y72.511227 Z-0.125000 F2000.000000
G01 X80.655791 Y72.989004 Z-0.125000
G00 Z5.000000
M5
(End cutting path id: path19067)


(Start cutting path id: path19065)
(Change tool to Default tool)

G00 Z5.000000
G00 X65.844731 Y72.989004
M3S030
G01 Z-0.125000 F50.0(Penetrate)
G01 X66.322507 Y72.511227 Z-0.125000 F2000.000000
G01 X65.844731 Y72.989004 Z-0.125000
G00 Z5.000000
M5
(End cutting path id: path19065)


(Start cutting path id: path19063)
(Change tool to Default tool)

G00 Z5.000000
G00 X65.366955 Y72.989004
M3S030
G01 Z-0.125000 F50.0(Penetrate)
G01 X65.844731 Y72.511227 Z-0.125000 F2000.000000
G01 X65.366955 Y72.989004 Z-0.125000
G00 Z5.000000
M5
(End cutting path id: path19063)


(Start cutting path id: path19061)
(Change tool to Default tool)

G00 Z5.000000
G00 X222.077523 Y73.466780
M3S030
G01 Z-0.125000 F50.0(Penetrate)
G01 X222.555299 Y72.989004 Z-0.125000 F2000.000000
G01 X222.077523 Y73.466780 Z-0.125000
G00 Z5.000000
M5
(End cutting path id: path19061)


(Start cutting path id: path19059)
(Change tool to Default tool)

G00 Z5.000000
G00 X217.299761 Y73.466780
M3S030
G01 Z-0.125000 F50.0(Penetrate)
G01 X217.777538 Y72.989004 Z-0.125000 F2000.000000
G01 X217.299761 Y73.466780 Z-0.125000
G00 Z5.000000
M5
(End cutting path id: path19059)


(Start cutting path id: path19057)
(Change tool to Default tool)

G00 Z5.000000
G00 X214.433105 Y73.466780
M3S030
G01 Z-0.125000 F50.0(Penetrate)
G01 X214.910881 Y72.989004 Z-0.125000 F2000.000000
G01 X214.433105 Y73.466780 Z-0.125000
G00 Z5.000000
M5
(End cutting path id: path19057)


(Start cutting path id: path19055)
(Change tool to Default tool)

G00 Z5.000000
G00 X206.788687 Y73.466780
M3S030
G01 Z-0.125000 F50.0(Penetrate)
G01 X207.266463 Y72.989004 Z-0.125000 F2000.000000
G01 X206.788687 Y73.466780 Z-0.125000
G00 Z5.000000
M5
(End cutting path id: path19055)


(Start cutting path id: path19053)
(Change tool to Default tool)

G00 Z5.000000
G00 X201.055373 Y73.466780
M3S030
G01 Z-0.125000 F50.0(Penetrate)
G01 X201.533149 Y72.989004 Z-0.125000 F2000.000000
G01 X201.055373 Y73.466780 Z-0.125000
G00 Z5.000000
M5
(End cutting path id: path19053)


(Start cutting path id: path19051)
(Change tool to Default tool)

G00 Z5.000000
G00 X195.322060 Y73.466780
M3S030
G01 Z-0.125000 F50.0(Penetrate)
G01 X195.799836 Y72.989004 Z-0.125000 F2000.000000
G01 X195.322060 Y73.466780 Z-0.125000
G00 Z5.000000
M5
(End cutting path id: path19051)


(Start cutting path id: path19051)
(Change tool to Default tool)

G00 Z5.000000
G00 X200.577597 Y73.466780
M3S030
G01 Z-0.125000 F50.0(Penetrate)
G01 X200.099821 Y72.511227 Z-0.125000 F2000.000000
G01 X200.617253 Y72.989004 Z-0.125000
G01 X200.776830 Y73.148103 Z-0.125000
G01 X200.577597 Y73.466780 Z-0.125000
G00 Z5.000000
M5
(End cutting path id: path19051)


(Start cutting path id: path19049)
(Change tool to Default tool)

G00 Z5.000000
G00 X194.844284 Y73.466780
M3S030
G01 Z-0.125000 F50.0(Penetrate)
G01 X195.322060 Y72.989004 Z-0.125000 F2000.000000
G01 X194.844284 Y73.466780 Z-0.125000
G00 Z5.000000
M5
(End cutting path id: path19049)


(Start cutting path id: path19047)
(Change tool to Default tool)

G00 Z5.000000
G00 X189.110970 Y73.466780
M3S030
G01 Z-0.125000 F50.0(Penetrate)
G01 X189.588746 Y72.989004 Z-0.125000 F2000.000000
G01 X189.110970 Y73.466780 Z-0.125000
G00 Z5.000000
M5
(End cutting path id: path19047)


(Start cutting path id: path19045)
(Change tool to Default tool)

G00 Z5.000000
G00 X188.633194 Y73.466780
M3S030
G01 Z-0.125000 F50.0(Penetrate)
G01 X189.110970 Y72.989004 Z-0.125000 F2000.000000
G01 X188.633194 Y73.466780 Z-0.125000
G00 Z5.000000
M5
(End cutting path id: path19045)


(Start cutting path id: path19043)
(Change tool to Default tool)

G00 Z5.000000
G00 X181.944329 Y73.466780
M3S030
G01 Z-0.125000 F50.0(Penetrate)
G01 X182.422105 Y72.989004 Z-0.125000 F2000.000000
G01 X181.944329 Y73.466780 Z-0.125000
G00 Z5.000000
M5
(End cutting path id: path19043)


(Start cutting path id: path19041)
(Change tool to Default tool)

G00 Z5.000000
G00 X177.325667 Y73.148103
M3S030
G01 Z-0.125000 F50.0(Penetrate)
G01 X177.325667 Y72.829904 Z-0.125000 F2000.000000
G01 X177.485244 Y72.829904 Z-0.125000
G01 X177.485244 Y73.148103 Z-0.125000
G01 X177.325667 Y73.148103 Z-0.125000
G00 Z5.000000
M5
(End cutting path id: path19041)


(Start cutting path id: path19039)
(Change tool to Default tool)

G00 Z5.000000
G00 X162.833284 Y73.466780
M3S030
G01 Z-0.125000 F50.0(Penetrate)
G01 X163.311060 Y72.989004 Z-0.125000 F2000.000000
G01 X162.833284 Y73.466780 Z-0.125000
G00 Z5.000000
M5
(End cutting path id: path19039)


(Start cutting path id: path19037)
(Change tool to Default tool)

G00 Z5.000000
G00 X154.233314 Y73.466780
M3S030
G01 Z-0.125000 F50.0(Penetrate)
G01 X154.711090 Y72.989004 Z-0.125000 F2000.000000
G01 X154.233314 Y73.466780 Z-0.125000
G00 Z5.000000
M5
(End cutting path id: path19037)


(Start cutting path id: path19035)
(Change tool to Default tool)

G00 Z5.000000
G00 X142.766687 Y73.466780
M3S030
G01 Z-0.125000 F50.0(Penetrate)
G01 X143.244463 Y72.989004 Z-0.125000 F2000.000000
G01 X142.766687 Y73.466780 Z-0.125000
G00 Z5.000000
M5
(End cutting path id: path19035)


(Start cutting path id: path19033)
(Change tool to Default tool)

G00 Z5.000000
G00 X142.288911 Y73.466780
M3S030
G01 Z-0.125000 F50.0(Penetrate)
G01 X142.766687 Y72.989004 Z-0.125000 F2000.000000
G01 X142.288911 Y73.466780 Z-0.125000
G00 Z5.000000
M5
(End cutting path id: path19033)


(Start cutting path id: path19031)
(Change tool to Default tool)

G00 Z5.000000
G00 X137.033373 Y73.466780
M3S030
G01 Z-0.125000 F50.0(Penetrate)
G01 X137.511149 Y72.989004 Z-0.125000 F2000.000000
G01 X137.033373 Y73.466780 Z-0.125000
G00 Z5.000000
M5
(End cutting path id: path19031)


(Start cutting path id: path19029)
(Change tool to Default tool)

G00 Z5.000000
G00 X136.555597 Y73.466780
M3S030
G01 Z-0.125000 F50.0(Penetrate)
G01 X137.033373 Y72.989004 Z-0.125000 F2000.000000
G01 X136.555597 Y73.466780 Z-0.125000
G00 Z5.000000
M5
(End cutting path id: path19029)


(Start cutting path id: path19027)
(Change tool to Default tool)

G00 Z5.000000
G00 X130.822284 Y73.466780
M3S030
G01 Z-0.125000 F50.0(Penetrate)
G01 X130.822284 Y72.989004 Z-0.125000 F2000.000000
G01 X131.777836 Y72.511227 Z-0.125000
G01 X131.300060 Y73.466780 Z-0.125000
G01 X130.822284 Y73.466780 Z-0.125000
G00 Z5.000000
M5
(End cutting path id: path19027)


(Start cutting path id: path19025)
(Change tool to Default tool)

G00 Z5.000000
G00 X130.344508 Y73.466780
M3S030
G01 Z-0.125000 F50.0(Penetrate)
G01 X130.822284 Y72.989004 Z-0.125000 F2000.000000
G01 X130.344508 Y73.466780 Z-0.125000
G00 Z5.000000
M5
(End cutting path id: path19025)


(Start cutting path id: path19023)
(Change tool to Default tool)

G00 Z5.000000
G00 X126.044522 Y73.466780
M3S030
G01 Z-0.125000 F50.0(Penetrate)
G01 X126.522299 Y72.989004 Z-0.125000 F2000.000000
G01 X126.044522 Y73.466780 Z-0.125000
G00 Z5.000000
M5
(End cutting path id: path19023)


(Start cutting path id: path19021)
(Change tool to Default tool)

G00 Z5.000000
G00 X123.177866 Y73.466780
M3S030
G01 Z-0.125000 F50.0(Penetrate)
G01 X123.655642 Y72.989004 Z-0.125000 F2000.000000
G01 X123.177866 Y73.466780 Z-0.125000
G00 Z5.000000
M5
(End cutting path id: path19021)


(Start cutting path id: path19019)
(Change tool to Default tool)

G00 Z5.000000
G00 X122.700090 Y73.466780
M3S030
G01 Z-0.125000 F50.0(Penetrate)
G01 X123.177866 Y72.989004 Z-0.125000 F2000.000000
G01 X122.700090 Y73.466780 Z-0.125000
G00 Z5.000000
M5
(End cutting path id: path19019)


(Start cutting path id: path19017)
(Change tool to Default tool)

G00 Z5.000000
G00 X111.233463 Y73.466780
M3S030
G01 Z-0.125000 F50.0(Penetrate)
G01 X111.711239 Y72.989004 Z-0.125000 F2000.000000
G01 X111.233463 Y73.466780 Z-0.125000
G00 Z5.000000
M5
(End cutting path id: path19017)


(Start cutting path id: path19015)
(Change tool to Default tool)

G00 Z5.000000
G00 X109.322358 Y73.466780
M3S030
G01 Z-0.125000 F50.0(Penetrate)
G01 X109.800134 Y72.989004 Z-0.125000 F2000.000000
G01 X109.322358 Y73.466780 Z-0.125000
G00 Z5.000000
M5
(End cutting path id: path19015)


(Start cutting path id: path19013)
(Change tool to Default tool)

G00 Z5.000000
G00 X106.455702 Y73.466780
M3S030
G01 Z-0.125000 F50.0(Penetrate)
G01 X106.933478 Y72.989004 Z-0.125000 F2000.000000
G01 X106.455702 Y73.466780 Z-0.125000
G00 Z5.000000
M5
(End cutting path id: path19013)


(Start cutting path id: path19011)
(Change tool to Default tool)

G00 Z5.000000
G00 X92.600194 Y73.466780
M3S030
G01 Z-0.125000 F50.0(Penetrate)
G01 X93.077970 Y72.989004 Z-0.125000 F2000.000000
G01 X92.600194 Y73.466780 Z-0.125000
G00 Z5.000000
M5
(End cutting path id: path19011)


(Start cutting path id: path19009)
(Change tool to Default tool)

G00 Z5.000000
G00 X92.122418 Y73.466780
M3S030
G01 Z-0.125000 F50.0(Penetrate)
G01 X92.600194 Y72.989004 Z-0.125000 F2000.000000
G01 X92.122418 Y73.466780 Z-0.125000
G00 Z5.000000
M5
(End cutting path id: path19009)


(Start cutting path id: path19007)
(Change tool to Default tool)

G00 Z5.000000
G00 X86.866881 Y73.466780
M3S030
G01 Z-0.125000 F50.0(Penetrate)
G01 X87.344657 Y72.989004 Z-0.125000 F2000.000000
G01 X86.866881 Y73.466780 Z-0.125000
G00 Z5.000000
M5
(End cutting path id: path19007)


(Start cutting path id: path19005)
(Change tool to Default tool)

G00 Z5.000000
G00 X86.389105 Y73.466780
M3S030
G01 Z-0.125000 F50.0(Penetrate)
G01 X86.866881 Y72.989004 Z-0.125000 F2000.000000
G01 X86.389105 Y73.466780 Z-0.125000
G00 Z5.000000
M5
(End cutting path id: path19005)


(Start cutting path id: path19003)
(Change tool to Default tool)

G00 Z5.000000
G00 X80.655791 Y73.466780
M3S030
G01 Z-0.125000 F50.0(Penetrate)
G01 X81.133567 Y72.989004 Z-0.125000 F2000.000000
G01 X80.655791 Y73.466780 Z-0.125000
G00 Z5.000000
M5
(End cutting path id: path19003)


(Start cutting path id: path19001)
(Change tool to Default tool)

G00 Z5.000000
G00 X80.178015 Y73.466780
M3S030
G01 Z-0.125000 F50.0(Penetrate)
G01 X80.655791 Y72.989004 Z-0.125000 F2000.000000
G01 X80.178015 Y73.466780 Z-0.125000
G00 Z5.000000
M5
(End cutting path id: path19001)


(Start cutting path id: path18999)
(Change tool to Default tool)

G00 Z5.000000
G00 X71.737144 Y73.148103
M3S030
G01 Z-0.125000 F50.0(Penetrate)
G01 X71.737144 Y72.989004 Z-0.125000 F2000.000000
G01 X71.896721 Y72.829904 Z-0.125000
G01 X71.896721 Y72.989004 Z-0.125000
G01 X71.737144 Y73.148103 Z-0.125000
G00 Z5.000000
M5
(End cutting path id: path18999)


(Start cutting path id: path18997)
(Change tool to Default tool)

G00 Z5.000000
G00 X66.322507 Y73.466780
M3S030
G01 Z-0.125000 F50.0(Penetrate)
G01 X66.800284 Y72.989004 Z-0.125000 F2000.000000
G01 X66.322507 Y73.466780 Z-0.125000
G00 Z5.000000
M5
(End cutting path id: path18997)


(Start cutting path id: path18995)
(Change tool to Default tool)

G00 Z5.000000
G00 X65.844731 Y73.466780
M3S030
G01 Z-0.125000 F50.0(Penetrate)
G01 X66.322507 Y72.989004 Z-0.125000 F2000.000000
G01 X65.844731 Y73.466780 Z-0.125000
G00 Z5.000000
M5
(End cutting path id: path18995)


(Start cutting path id: path18993)
(Change tool to Default tool)

G00 Z5.000000
G00 X235.455254 Y73.944556
M3S030
G01 Z-0.125000 F50.0(Penetrate)
G01 X235.455254 Y72.511227 Z-0.125000 F2000.000000
G01 X235.786831 Y72.869560 Z-0.125000
G01 X235.786831 Y73.374091 Z-0.125000
G01 X235.786831 Y73.586224 Z-0.125000
G01 X235.455254 Y73.944556 Z-0.125000
G00 Z5.000000
M5
(End cutting path id: path18993)


(Start cutting path id: path18991)
(Change tool to Default tool)

G00 Z5.000000
G00 X233.703249 Y73.625879
M3S030
G01 Z-0.125000 F50.0(Penetrate)
G01 X233.703249 Y73.307680 Z-0.125000 F2000.000000
G01 X233.862826 Y73.307680 Z-0.125000
G01 X233.862826 Y73.625879 Z-0.125000
G01 X233.703249 Y73.625879 Z-0.125000
G00 Z5.000000
M5
(End cutting path id: path18991)


(Start cutting path id: path18989)
(Change tool to Default tool)

G00 Z5.000000
G00 X228.766388 Y73.944556
M3S030
G01 Z-0.125000 F50.0(Penetrate)
G01 X228.766388 Y72.511227 Z-0.125000 F2000.000000
G01 X229.097965 Y72.869560 Z-0.125000
G01 X229.097965 Y73.374091 Z-0.125000
G01 X229.097965 Y73.586224 Z-0.125000
G01 X228.766388 Y73.944556 Z-0.125000
G00 Z5.000000
M5
(End cutting path id: path18989)


(Start cutting path id: path18987)
(Change tool to Default tool)

G00 Z5.000000
G00 X226.855284 Y73.944556
M3S030
G01 Z-0.125000 F50.0(Penetrate)
G01 X227.333060 Y73.466780 Z-0.125000 F2000.000000
G01 X226.855284 Y73.944556 Z-0.125000
G00 Z5.000000
M5
(End cutting path id: path18987)


(Start cutting path id: path18985)
(Change tool to Default tool)

G00 Z5.000000
G00 X224.944179 Y73.944556
M3S030
G01 Z-0.125000 F50.0(Penetrate)
G01 X225.315889 Y73.599601 Z-0.125000 F2000.000000
G01 X225.541399 Y73.586224 Z-0.125000
G01 X225.926487 Y73.493535 Z-0.125000
G01 X226.855284 Y73.466780 Z-0.125000
G01 X226.483574 Y73.811734 Z-0.125000
G01 X226.258064 Y73.825112 Z-0.125000
G01 X225.872976 Y73.917800 Z-0.125000
G01 X224.944179 Y73.944556 Z-0.125000
G00 Z5.000000
M5
(End cutting path id: path18985)


(Start cutting path id: path18983)
(Change tool to Default tool)

G00 Z5.000000
G00 X224.466403 Y73.944556
M3S030
G01 Z-0.125000 F50.0(Penetrate)
G01 X224.944179 Y73.466780 Z-0.125000 F2000.000000
G01 X224.466403 Y73.944556 Z-0.125000
G00 Z5.000000
M5
(End cutting path id: path18983)


(Start cutting path id: path18981)
(Change tool to Default tool)

G00 Z5.000000
G00 X223.988627 Y73.944556
M3S030
G01 Z-0.125000 F50.0(Penetrate)
G01 X224.466403 Y73.466780 Z-0.125000 F2000.000000
G01 X223.988627 Y73.944556 Z-0.125000
G00 Z5.000000
M5
(End cutting path id: path18981)


(Start cutting path id: path18979)
(Change tool to Default tool)

G00 Z5.000000
G00 X221.599746 Y73.944556
M3S030
G01 Z-0.125000 F50.0(Penetrate)
G01 X222.077523 Y73.466780 Z-0.125000 F2000.000000
G01 X221.599746 Y73.944556 Z-0.125000
G00 Z5.000000
M5
(End cutting path id: path18979)


(Start cutting path id: path18977)
(Change tool to Default tool)

G00 Z5.000000
G00 X217.299761 Y73.944556
M3S030
G01 Z-0.125000 F50.0(Penetrate)
G01 X217.777538 Y73.466780 Z-0.125000 F2000.000000
G01 X217.299761 Y73.944556 Z-0.125000
G00 Z5.000000
M5
(End cutting path id: path18977)


(Start cutting path id: path18975)
(Change tool to Default tool)

G00 Z5.000000
G00 X216.821985 Y73.944556
M3S030
G01 Z-0.125000 F50.0(Penetrate)
G01 X217.299761 Y73.466780 Z-0.125000 F2000.000000
G01 X216.821985 Y73.944556 Z-0.125000
G00 Z5.000000
M5
(End cutting path id: path18975)


(Start cutting path id: path18973)
(Change tool to Default tool)

G00 Z5.000000
G00 X216.344209 Y73.944556
M3S030
G01 Z-0.125000 F50.0(Penetrate)
G01 X216.821985 Y73.466780 Z-0.125000 F2000.000000
G01 X216.344209 Y73.944556 Z-0.125000
G00 Z5.000000
M5
(End cutting path id: path18973)


(Start cutting path id: path18971)
(Change tool to Default tool)

G00 Z5.000000
G00 X213.955329 Y73.944556
M3S030
G01 Z-0.125000 F50.0(Penetrate)
G01 X214.433105 Y73.466780 Z-0.125000 F2000.000000
G01 X213.955329 Y73.944556 Z-0.125000
G00 Z5.000000
M5
(End cutting path id: path18971)


(Start cutting path id: path18969)
(Change tool to Default tool)

G00 Z5.000000
G00 X201.533149 Y73.944556
M3S030
G01 Z-0.125000 F50.0(Penetrate)
G01 X202.010926 Y73.466780 Z-0.125000 F2000.000000
G01 X201.533149 Y73.944556 Z-0.125000
G00 Z5.000000
M5
(End cutting path id: path18969)


(Start cutting path id: path18967)
(Change tool to Default tool)

G00 Z5.000000
G00 X201.055373 Y73.944556
M3S030
G01 Z-0.125000 F50.0(Penetrate)
G01 X201.533149 Y73.466780 Z-0.125000 F2000.000000
G01 X201.055373 Y73.944556 Z-0.125000
G00 Z5.000000
M5
(End cutting path id: path18967)


(Start cutting path id: path18965)
(Change tool to Default tool)

G00 Z5.000000
G00 X199.144269 Y73.944556
M3S030
G01 Z-0.125000 F50.0(Penetrate)
G01 X199.622045 Y73.466780 Z-0.125000 F2000.000000
G01 X199.144269 Y73.944556 Z-0.125000
G00 Z5.000000
M5
(End cutting path id: path18965)


(Start cutting path id: path18963)
(Change tool to Default tool)

G00 Z5.000000
G00 X198.666493 Y73.944556
M3S030
G01 Z-0.125000 F50.0(Penetrate)
G01 X199.144269 Y73.466780 Z-0.125000 F2000.000000
G01 X198.666493 Y73.944556 Z-0.125000
G00 Z5.000000
M5
(End cutting path id: path18963)


(Start cutting path id: path18961)
(Change tool to Default tool)

G00 Z5.000000
G00 X198.029617 Y73.785456
M3S030
G01 Z-0.125000 F50.0(Penetrate)
G01 X198.029617 Y73.625879 Z-0.125000 F2000.000000
G01 X198.347816 Y73.625879 Z-0.125000
G01 X198.347816 Y73.785456 Z-0.125000
G01 X198.029617 Y73.785456 Z-0.125000
G00 Z5.000000
M5
(End cutting path id: path18961)


(Start cutting path id: path18959)
(Change tool to Default tool)

G00 Z5.000000
G00 X197.233164 Y73.944556
M3S030
G01 Z-0.125000 F50.0(Penetrate)
G01 X197.710940 Y73.466780 Z-0.125000 F2000.000000
G01 X197.233164 Y73.944556 Z-0.125000
G00 Z5.000000
M5
(End cutting path id: path18959)


(Start cutting path id: path18957)
(Change tool to Default tool)

G00 Z5.000000
G00 X196.755388 Y73.944556
M3S030
G01 Z-0.125000 F50.0(Penetrate)
G01 X197.233164 Y73.466780 Z-0.125000 F2000.000000
G01 X196.755388 Y73.944556 Z-0.125000
G00 Z5.000000
M5
(End cutting path id: path18957)


(Start cutting path id: path18955)
(Change tool to Default tool)

G00 Z5.000000
G00 X194.844284 Y73.944556
M3S030
G01 Z-0.125000 F50.0(Penetrate)
G01 X195.322060 Y73.466780 Z-0.125000 F2000.000000
G01 X194.844284 Y73.944556 Z-0.125000
G00 Z5.000000
M5
(End cutting path id: path18955)


(Start cutting path id: path18953)
(Change tool to Default tool)

G00 Z5.000000
G00 X194.366508 Y73.944556
M3S030
G01 Z-0.125000 F50.0(Penetrate)
G01 X194.844284 Y73.466780 Z-0.125000 F2000.000000
G01 X194.366508 Y73.944556 Z-0.125000
G00 Z5.000000
M5
(End cutting path id: path18953)


(Start cutting path id: path18951)
(Change tool to Default tool)

G00 Z5.000000
G00 X189.110970 Y73.944556
M3S030
G01 Z-0.125000 F50.0(Penetrate)
G01 X189.588746 Y73.466780 Z-0.125000 F2000.000000
G01 X189.110970 Y73.944556 Z-0.125000
G00 Z5.000000
M5
(End cutting path id: path18951)


(Start cutting path id: path18949)
(Change tool to Default tool)

G00 Z5.000000
G00 X186.722090 Y73.944556
M3S030
G01 Z-0.125000 F50.0(Penetrate)
G01 X187.199866 Y73.466780 Z-0.125000 F2000.000000
G01 X186.722090 Y73.944556 Z-0.125000
G00 Z5.000000
M5
(End cutting path id: path18949)


(Start cutting path id: path18947)
(Change tool to Default tool)

G00 Z5.000000
G00 X186.244314 Y73.944556
M3S030
G01 Z-0.125000 F50.0(Penetrate)
G01 X186.722090 Y73.466780 Z-0.125000 F2000.000000
G01 X186.244314 Y73.944556 Z-0.125000
G00 Z5.000000
M5
(End cutting path id: path18947)


(Start cutting path id: path18945)
(Change tool to Default tool)

G00 Z5.000000
G00 X184.333209 Y73.944556
M3S030
G01 Z-0.125000 F50.0(Penetrate)
G01 X184.704919 Y73.599601 Z-0.125000 F2000.000000
G01 X184.930429 Y73.586224 Z-0.125000
G01 X185.315517 Y73.493535 Z-0.125000
G01 X186.244314 Y73.466780 Z-0.125000
G01 X185.872604 Y73.811734 Z-0.125000
G01 X185.647093 Y73.825112 Z-0.125000
G01 X185.262006 Y73.917800 Z-0.125000
G01 X184.333209 Y73.944556 Z-0.125000
G00 Z5.000000
M5
(End cutting path id: path18945)


(Start cutting path id: path18943)
(Change tool to Default tool)

G00 Z5.000000
G00 X183.855433 Y73.944556
M3S030
G01 Z-0.125000 F50.0(Penetrate)
G01 X184.333209 Y73.466780 Z-0.125000 F2000.000000
G01 X183.855433 Y73.944556 Z-0.125000
G00 Z5.000000
M5
(End cutting path id: path18943)


(Start cutting path id: path18941)
(Change tool to Default tool)

G00 Z5.000000
G00 X177.166567 Y73.944556
M3S030
G01 Z-0.125000 F50.0(Penetrate)
G01 X177.644343 Y73.466780 Z-0.125000 F2000.000000
G01 X177.166567 Y73.944556 Z-0.125000
G00 Z5.000000
M5
(End cutting path id: path18941)


(Start cutting path id: path18939)
(Change tool to Default tool)

G00 Z5.000000
G00 X175.255463 Y73.944556
M3S030
G01 Z-0.125000 F50.0(Penetrate)
G01 X175.255463 Y72.511227 Z-0.125000 F2000.000000
G01 X175.587039 Y72.869560 Z-0.125000
G01 X175.587039 Y73.374091 Z-0.125000
G01 X175.587039 Y73.586224 Z-0.125000
G01 X175.255463 Y73.944556 Z-0.125000
G00 Z5.000000
M5
(End cutting path id: path18939)


(Start cutting path id: path18937)
(Change tool to Default tool)

G00 Z5.000000
G00 X162.833284 Y73.944556
M3S030
G01 Z-0.125000 F50.0(Penetrate)
G01 X163.311060 Y73.466780 Z-0.125000 F2000.000000
G01 X162.833284 Y73.944556 Z-0.125000
G00 Z5.000000
M5
(End cutting path id: path18937)


(Start cutting path id: path18935)
(Change tool to Default tool)

G00 Z5.000000
G00 X146.588896 Y73.944556
M3S030
G01 Z-0.125000 F50.0(Penetrate)
G01 X147.066672 Y73.466780 Z-0.125000 F2000.000000
G01 X146.588896 Y73.944556 Z-0.125000
G00 Z5.000000
M5
(End cutting path id: path18935)


(Start cutting path id: path18933)
(Change tool to Default tool)

G00 Z5.000000
G00 X146.111120 Y73.944556
M3S030
G01 Z-0.125000 F50.0(Penetrate)
G01 X146.588896 Y73.466780 Z-0.125000 F2000.000000
G01 X146.111120 Y73.944556 Z-0.125000
G00 Z5.000000
M5
(End cutting path id: path18933)


(Start cutting path id: path18931)
(Change tool to Default tool)

G00 Z5.000000
G00 X145.633343 Y73.944556
M3S030
G01 Z-0.125000 F50.0(Penetrate)
G01 X146.111120 Y73.466780 Z-0.125000 F2000.000000
G01 X145.633343 Y73.944556 Z-0.125000
G00 Z5.000000
M5
(End cutting path id: path18931)


(Start cutting path id: path18929)
(Change tool to Default tool)

G00 Z5.000000
G00 X145.155567 Y73.944556
M3S030
G01 Z-0.125000 F50.0(Penetrate)
G01 X145.633343 Y73.466780 Z-0.125000 F2000.000000
G01 X145.155567 Y73.944556 Z-0.125000
G00 Z5.000000
M5
(End cutting path id: path18929)


(Start cutting path id: path18927)
(Change tool to Default tool)

G00 Z5.000000
G00 X144.677791 Y73.944556
M3S030
G01 Z-0.125000 F50.0(Penetrate)
G01 X145.155567 Y73.466780 Z-0.125000 F2000.000000
G01 X144.677791 Y73.944556 Z-0.125000
G00 Z5.000000
M5
(End cutting path id: path18927)


(Start cutting path id: path18925)
(Change tool to Default tool)

G00 Z5.000000
G00 X144.200015 Y73.944556
M3S030
G01 Z-0.125000 F50.0(Penetrate)
G01 X144.677791 Y73.466780 Z-0.125000 F2000.000000
G01 X144.200015 Y73.944556 Z-0.125000
G00 Z5.000000
M5
(End cutting path id: path18925)


(Start cutting path id: path18923)
(Change tool to Default tool)

G00 Z5.000000
G00 X142.288911 Y73.944556
M3S030
G01 Z-0.125000 F50.0(Penetrate)
G01 X142.766687 Y73.466780 Z-0.125000 F2000.000000
G01 X142.288911 Y73.944556 Z-0.125000
G00 Z5.000000
M5
(End cutting path id: path18923)


(Start cutting path id: path18921)
(Change tool to Default tool)

G00 Z5.000000
G00 X137.033373 Y73.944556
M3S030
G01 Z-0.125000 F50.0(Penetrate)
G01 X137.511149 Y73.466780 Z-0.125000 F2000.000000
G01 X137.033373 Y73.944556 Z-0.125000
G00 Z5.000000
M5
(End cutting path id: path18921)


(Start cutting path id: path18919)
(Change tool to Default tool)

G00 Z5.000000
G00 X135.122269 Y73.944556
M3S030
G01 Z-0.125000 F50.0(Penetrate)
G01 X135.600045 Y73.466780 Z-0.125000 F2000.000000
G01 X135.122269 Y73.944556 Z-0.125000
G00 Z5.000000
M5
(End cutting path id: path18919)


(Start cutting path id: path18917)
(Change tool to Default tool)

G00 Z5.000000
G00 X134.644493 Y73.944556
M3S030
G01 Z-0.125000 F50.0(Penetrate)
G01 X135.122269 Y73.466780 Z-0.125000 F2000.000000
G01 X134.644493 Y73.944556 Z-0.125000
G00 Z5.000000
M5
(End cutting path id: path18917)


(Start cutting path id: path18915)
(Change tool to Default tool)

G00 Z5.000000
G00 X134.166717 Y73.944556
M3S030
G01 Z-0.125000 F50.0(Penetrate)
G01 X134.644493 Y73.466780 Z-0.125000 F2000.000000
G01 X134.166717 Y73.944556 Z-0.125000
G00 Z5.000000
M5
(End cutting path id: path18915)


(Start cutting path id: path18913)
(Change tool to Default tool)

G00 Z5.000000
G00 X133.688940 Y73.944556
M3S030
G01 Z-0.125000 F50.0(Penetrate)
G01 X134.166717 Y73.466780 Z-0.125000 F2000.000000
G01 X133.688940 Y73.944556 Z-0.125000
G00 Z5.000000
M5
(End cutting path id: path18913)


(Start cutting path id: path18911)
(Change tool to Default tool)

G00 Z5.000000
G00 X133.211164 Y73.944556
M3S030
G01 Z-0.125000 F50.0(Penetrate)
G01 X133.688940 Y73.466780 Z-0.125000 F2000.000000
G01 X133.211164 Y73.944556 Z-0.125000
G00 Z5.000000
M5
(End cutting path id: path18911)


(Start cutting path id: path18909)
(Change tool to Default tool)

G00 Z5.000000
G00 X132.733388 Y73.944556
M3S030
G01 Z-0.125000 F50.0(Penetrate)
G01 X133.211164 Y73.466780 Z-0.125000 F2000.000000
G01 X132.733388 Y73.944556 Z-0.125000
G00 Z5.000000
M5
(End cutting path id: path18909)


(Start cutting path id: path18907)
(Change tool to Default tool)

G00 Z5.000000
G00 X130.344508 Y73.944556
M3S030
G01 Z-0.125000 F50.0(Penetrate)
G01 X130.822284 Y73.466780 Z-0.125000 F2000.000000
G01 X130.344508 Y73.944556 Z-0.125000
G00 Z5.000000
M5
(End cutting path id: path18907)


(Start cutting path id: path18905)
(Change tool to Default tool)

G00 Z5.000000
G00 X126.044522 Y73.944556
M3S030
G01 Z-0.125000 F50.0(Penetrate)
G01 X126.522299 Y73.466780 Z-0.125000 F2000.000000
G01 X126.044522 Y73.944556 Z-0.125000
G00 Z5.000000
M5
(End cutting path id: path18905)


(Start cutting path id: path18903)
(Change tool to Default tool)

G00 Z5.000000
G00 X125.566746 Y73.944556
M3S030
G01 Z-0.125000 F50.0(Penetrate)
G01 X126.044522 Y73.466780 Z-0.125000 F2000.000000
G01 X125.566746 Y73.944556 Z-0.125000
G00 Z5.000000
M5
(End cutting path id: path18903)


(Start cutting path id: path18901)
(Change tool to Default tool)

G00 Z5.000000
G00 X125.088970 Y73.944556
M3S030
G01 Z-0.125000 F50.0(Penetrate)
G01 X125.566746 Y73.466780 Z-0.125000 F2000.000000
G01 X125.088970 Y73.944556 Z-0.125000
G00 Z5.000000
M5
(End cutting path id: path18901)


(Start cutting path id: path18899)
(Change tool to Default tool)

G00 Z5.000000
G00 X124.611194 Y73.944556
M3S030
G01 Z-0.125000 F50.0(Penetrate)
G01 X125.088970 Y73.466780 Z-0.125000 F2000.000000
G01 X124.611194 Y73.944556 Z-0.125000
G00 Z5.000000
M5
(End cutting path id: path18899)


(Start cutting path id: path18897)
(Change tool to Default tool)

G00 Z5.000000
G00 X122.700090 Y73.944556
M3S030
G01 Z-0.125000 F50.0(Penetrate)
G01 X123.177866 Y73.466780 Z-0.125000 F2000.000000
G01 X122.700090 Y73.944556 Z-0.125000
G00 Z5.000000
M5
(End cutting path id: path18897)


(Start cutting path id: path18895)
(Change tool to Default tool)

G00 Z5.000000
G00 X117.444552 Y73.944556
M3S030
G01 Z-0.125000 F50.0(Penetrate)
G01 X117.444552 Y72.511227 Z-0.125000 F2000.000000
G01 X117.776129 Y72.869560 Z-0.125000
G01 X117.776129 Y73.374091 Z-0.125000
G01 X117.776129 Y73.586224 Z-0.125000
G01 X117.444552 Y73.944556 Z-0.125000
G00 Z5.000000
M5
(End cutting path id: path18895)


(Start cutting path id: path18893)
(Change tool to Default tool)

G00 Z5.000000
G00 X115.533448 Y73.944556
M3S030
G01 Z-0.125000 F50.0(Penetrate)
G01 X115.533448 Y72.511227 Z-0.125000 F2000.000000
G01 X115.865024 Y72.869560 Z-0.125000
G01 X115.865024 Y73.374091 Z-0.125000
G01 X115.865024 Y73.586224 Z-0.125000
G01 X115.533448 Y73.944556 Z-0.125000
G00 Z5.000000
M5
(End cutting path id: path18893)


(Start cutting path id: path18891)
(Change tool to Default tool)

G00 Z5.000000
G00 X111.233463 Y73.944556
M3S030
G01 Z-0.125000 F50.0(Penetrate)
G01 X111.711239 Y73.466780 Z-0.125000 F2000.000000
G01 X111.233463 Y73.944556 Z-0.125000
G00 Z5.000000
M5
(End cutting path id: path18891)


(Start cutting path id: path18889)
(Change tool to Default tool)

G00 Z5.000000
G00 X109.322358 Y73.944556
M3S030
G01 Z-0.125000 F50.0(Penetrate)
G01 X109.800134 Y73.466780 Z-0.125000 F2000.000000
G01 X109.322358 Y73.944556 Z-0.125000
G00 Z5.000000
M5
(End cutting path id: path18889)


(Start cutting path id: path18889)
(Change tool to Default tool)

G00 Z5.000000
G00 X110.755687 Y73.944556
M3S030
G01 Z-0.125000 F50.0(Penetrate)
G01 X111.233463 Y73.466780 Z-0.125000 F2000.000000
G01 X110.755687 Y73.944556 Z-0.125000
G00 Z5.000000
M5
(End cutting path id: path18889)


(Start cutting path id: path18887)
(Change tool to Default tool)

G00 Z5.000000
G00 X108.844582 Y73.944556
M3S030
G01 Z-0.125000 F50.0(Penetrate)
G01 X109.322358 Y73.466780 Z-0.125000 F2000.000000
G01 X108.844582 Y73.944556 Z-0.125000
G00 Z5.000000
M5
(End cutting path id: path18887)


(Start cutting path id: path18885)
(Change tool to Default tool)

G00 Z5.000000
G00 X106.137025 Y73.625879
M3S030
G01 Z-0.125000 F50.0(Penetrate)
G01 X106.137025 Y73.466780 Z-0.125000 F2000.000000
G01 X106.296602 Y73.307680 Z-0.125000
G01 X106.296602 Y73.466780 Z-0.125000
G01 X106.137025 Y73.625879 Z-0.125000
G00 Z5.000000
M5
(End cutting path id: path18885)


(Start cutting path id: path18883)
(Change tool to Default tool)

G00 Z5.000000
G00 X96.422403 Y73.944556
M3S030
G01 Z-0.125000 F50.0(Penetrate)
G01 X96.900179 Y73.466780 Z-0.125000 F2000.000000
G01 X96.422403 Y73.944556 Z-0.125000
G00 Z5.000000
M5
(End cutting path id: path18883)


(Start cutting path id: path18881)
(Change tool to Default tool)

G00 Z5.000000
G00 X95.944627 Y73.944556
M3S030
G01 Z-0.125000 F50.0(Penetrate)
G01 X96.422403 Y73.466780 Z-0.125000 F2000.000000
G01 X95.944627 Y73.944556 Z-0.125000
G00 Z5.000000
M5
(End cutting path id: path18881)


(Start cutting path id: path18879)
(Change tool to Default tool)

G00 Z5.000000
G00 X95.466851 Y73.944556
M3S030
G01 Z-0.125000 F50.0(Penetrate)
G01 X95.944627 Y73.466780 Z-0.125000 F2000.000000
G01 X95.466851 Y73.944556 Z-0.125000
G00 Z5.000000
M5
(End cutting path id: path18879)


(Start cutting path id: path18877)
(Change tool to Default tool)

G00 Z5.000000
G00 X94.989075 Y73.944556
M3S030
G01 Z-0.125000 F50.0(Penetrate)
G01 X95.466851 Y73.466780 Z-0.125000 F2000.000000
G01 X94.989075 Y73.944556 Z-0.125000
G00 Z5.000000
M5
(End cutting path id: path18877)


(Start cutting path id: path18875)
(Change tool to Default tool)

G00 Z5.000000
G00 X94.511299 Y73.944556
M3S030
G01 Z-0.125000 F50.0(Penetrate)
G01 X94.989075 Y73.466780 Z-0.125000 F2000.000000
G01 X94.511299 Y73.944556 Z-0.125000
G00 Z5.000000
M5
(End cutting path id: path18875)


(Start cutting path id: path18873)
(Change tool to Default tool)

G00 Z5.000000
G00 X94.033522 Y73.944556
M3S030
G01 Z-0.125000 F50.0(Penetrate)
G01 X94.511299 Y73.466780 Z-0.125000 F2000.000000
G01 X94.033522 Y73.944556 Z-0.125000
G00 Z5.000000
M5
(End cutting path id: path18873)


(Start cutting path id: path18871)
(Change tool to Default tool)

G00 Z5.000000
G00 X92.122418 Y73.944556
M3S030
G01 Z-0.125000 F50.0(Penetrate)
G01 X92.600194 Y73.466780 Z-0.125000 F2000.000000
G01 X92.122418 Y73.944556 Z-0.125000
G00 Z5.000000
M5
(End cutting path id: path18871)


(Start cutting path id: path18869)
(Change tool to Default tool)

G00 Z5.000000
G00 X86.866881 Y73.944556
M3S030
G01 Z-0.125000 F50.0(Penetrate)
G01 X87.344657 Y73.466780 Z-0.125000 F2000.000000
G01 X86.866881 Y73.944556 Z-0.125000
G00 Z5.000000
M5
(End cutting path id: path18869)


(Start cutting path id: path18867)
(Change tool to Default tool)

G00 Z5.000000
G00 X84.955776 Y73.944556
M3S030
G01 Z-0.125000 F50.0(Penetrate)
G01 X85.433552 Y73.466780 Z-0.125000 F2000.000000
G01 X84.955776 Y73.944556 Z-0.125000
G00 Z5.000000
M5
(End cutting path id: path18867)


(Start cutting path id: path18865)
(Change tool to Default tool)

G00 Z5.000000
G00 X84.478000 Y73.944556
M3S030
G01 Z-0.125000 F50.0(Penetrate)
G01 X84.955776 Y73.466780 Z-0.125000 F2000.000000
G01 X84.478000 Y73.944556 Z-0.125000
G00 Z5.000000
M5
(End cutting path id: path18865)


(Start cutting path id: path18863)
(Change tool to Default tool)

G00 Z5.000000
G00 X84.000224 Y73.944556
M3S030
G01 Z-0.125000 F50.0(Penetrate)
G01 X84.478000 Y73.466780 Z-0.125000 F2000.000000
G01 X84.000224 Y73.944556 Z-0.125000
G00 Z5.000000
M5
(End cutting path id: path18863)


(Start cutting path id: path18861)
(Change tool to Default tool)

G00 Z5.000000
G00 X83.522448 Y73.944556
M3S030
G01 Z-0.125000 F50.0(Penetrate)
G01 X84.000224 Y73.466780 Z-0.125000 F2000.000000
G01 X83.522448 Y73.944556 Z-0.125000
G00 Z5.000000
M5
(End cutting path id: path18861)


(Start cutting path id: path18859)
(Change tool to Default tool)

G00 Z5.000000
G00 X83.044672 Y73.944556
M3S030
G01 Z-0.125000 F50.0(Penetrate)
G01 X83.522448 Y73.466780 Z-0.125000 F2000.000000
G01 X83.044672 Y73.944556 Z-0.125000
G00 Z5.000000
M5
(End cutting path id: path18859)


(Start cutting path id: path18857)
(Change tool to Default tool)

G00 Z5.000000
G00 X82.566896 Y73.944556
M3S030
G01 Z-0.125000 F50.0(Penetrate)
G01 X83.044672 Y73.466780 Z-0.125000 F2000.000000
G01 X82.566896 Y73.944556 Z-0.125000
G00 Z5.000000
M5
(End cutting path id: path18857)


(Start cutting path id: path18855)
(Change tool to Default tool)

G00 Z5.000000
G00 X80.178015 Y73.944556
M3S030
G01 Z-0.125000 F50.0(Penetrate)
G01 X80.655791 Y73.466780 Z-0.125000 F2000.000000
G01 X80.178015 Y73.944556 Z-0.125000
G00 Z5.000000
M5
(End cutting path id: path18855)


(Start cutting path id: path18853)
(Change tool to Default tool)

G00 Z5.000000
G00 X71.578045 Y73.944556
M3S030
G01 Z-0.125000 F50.0(Penetrate)
G01 X72.055821 Y73.466780 Z-0.125000 F2000.000000
G01 X71.578045 Y73.944556 Z-0.125000
G00 Z5.000000
M5
(End cutting path id: path18853)


(Start cutting path id: path18851)
(Change tool to Default tool)

G00 Z5.000000
G00 X66.322507 Y73.944556
M3S030
G01 Z-0.125000 F50.0(Penetrate)
G01 X66.800284 Y73.466780 Z-0.125000 F2000.000000
G01 X66.322507 Y73.944556 Z-0.125000
G00 Z5.000000
M5
(End cutting path id: path18851)


(Start cutting path id: path18849)
(Change tool to Default tool)

G00 Z5.000000
G00 X63.933627 Y73.944556
M3S030
G01 Z-0.125000 F50.0(Penetrate)
G01 X64.411403 Y73.466780 Z-0.125000 F2000.000000
G01 X63.933627 Y73.944556 Z-0.125000
G00 Z5.000000
M5
(End cutting path id: path18849)


(Start cutting path id: path18847)
(Change tool to Default tool)

G00 Z5.000000
G00 X63.455851 Y73.944556
M3S030
G01 Z-0.125000 F50.0(Penetrate)
G01 X63.933627 Y73.466780 Z-0.125000 F2000.000000
G01 X63.455851 Y73.944556 Z-0.125000
G00 Z5.000000
M5
(End cutting path id: path18847)


(Start cutting path id: path18845)
(Change tool to Default tool)

G00 Z5.000000
G00 X61.544746 Y73.944556
M3S030
G01 Z-0.125000 F50.0(Penetrate)
G01 X61.916456 Y73.599601 Z-0.125000 F2000.000000
G01 X62.141966 Y73.586224 Z-0.125000
G01 X62.527054 Y73.493535 Z-0.125000
G01 X63.455851 Y73.466780 Z-0.125000
G01 X63.084141 Y73.811734 Z-0.125000
G01 X62.858631 Y73.825112 Z-0.125000
G01 X62.473543 Y73.917800 Z-0.125000
G01 X61.544746 Y73.944556 Z-0.125000
G00 Z5.000000
M5
(End cutting path id: path18845)


(Start cutting path id: path18843)
(Change tool to Default tool)

G00 Z5.000000
G00 X61.066970 Y73.944556
M3S030
G01 Z-0.125000 F50.0(Penetrate)
G01 X61.544746 Y73.466780 Z-0.125000 F2000.000000
G01 X61.066970 Y73.944556 Z-0.125000
G00 Z5.000000
M5
(End cutting path id: path18843)


(Start cutting path id: path18841)
(Change tool to Default tool)

G00 Z5.000000
G00 X235.455254 Y74.422332
M3S030
G01 Z-0.125000 F50.0(Penetrate)
G01 X235.933030 Y73.944556 Z-0.125000 F2000.000000
G01 X235.455254 Y74.422332 Z-0.125000
G00 Z5.000000
M5
(End cutting path id: path18841)


(Start cutting path id: path18839)
(Change tool to Default tool)

G00 Z5.000000
G00 X234.499702 Y74.422332
M3S030
G01 Z-0.125000 F50.0(Penetrate)
G01 X234.168125 Y73.705668 Z-0.125000 F2000.000000
G01 X234.168125 Y72.989004 Z-0.125000
G01 X234.168125 Y72.750115 Z-0.125000
G01 X234.499702 Y72.033451 Z-0.125000
G01 X235.043889 Y72.405161 Z-0.125000
G01 X235.136577 Y72.657427 Z-0.125000
G01 X235.322432 Y73.015759 Z-0.125000
G01 X235.441876 Y73.705668 Z-0.125000
G01 X235.455254 Y74.422332 Z-0.125000
G01 X234.499702 Y74.422332 Z-0.125000
G00 Z5.000000
M5
(End cutting path id: path18839)


(Start cutting path id: path18837)
(Change tool to Default tool)

G00 Z5.000000
G00 X234.021926 Y74.422332
M3S030
G01 Z-0.125000 F50.0(Penetrate)
G01 X234.499702 Y73.944556 Z-0.125000 F2000.000000
G01 X234.021926 Y74.422332 Z-0.125000
G00 Z5.000000
M5
(End cutting path id: path18837)


(Start cutting path id: path18835)
(Change tool to Default tool)

G00 Z5.000000
G00 X233.544149 Y74.422332
M3S030
G01 Z-0.125000 F50.0(Penetrate)
G01 X234.021926 Y73.944556 Z-0.125000 F2000.000000
G01 X233.544149 Y74.422332 Z-0.125000
G00 Z5.000000
M5
(End cutting path id: path18835)


(Start cutting path id: path18833)
(Change tool to Default tool)

G00 Z5.000000
G00 X228.766388 Y74.422332
M3S030
G01 Z-0.125000 F50.0(Penetrate)
G01 X229.244164 Y73.944556 Z-0.125000 F2000.000000
G01 X228.766388 Y74.422332 Z-0.125000
G00 Z5.000000
M5
(End cutting path id: path18833)


(Start cutting path id: path18831)
(Change tool to Default tool)

G00 Z5.000000
G00 X223.988627 Y74.422332
M3S030
G01 Z-0.125000 F50.0(Penetrate)
G01 X224.466403 Y73.944556 Z-0.125000 F2000.000000
G01 X223.988627 Y74.422332 Z-0.125000
G00 Z5.000000
M5
(End cutting path id: path18831)


(Start cutting path id: path18829)
(Change tool to Default tool)

G00 Z5.000000
G00 X223.510851 Y74.422332
M3S030
G01 Z-0.125000 F50.0(Penetrate)
G01 X223.988627 Y73.944556 Z-0.125000 F2000.000000
G01 X223.510851 Y74.422332 Z-0.125000
G00 Z5.000000
M5
(End cutting path id: path18829)


(Start cutting path id: path18827)
(Change tool to Default tool)

G00 Z5.000000
G00 X221.599746 Y74.422332
M3S030
G01 Z-0.125000 F50.0(Penetrate)
G01 X222.077523 Y73.944556 Z-0.125000 F2000.000000
G01 X221.599746 Y74.422332 Z-0.125000
G00 Z5.000000
M5
(End cutting path id: path18827)


(Start cutting path id: path18825)
(Change tool to Default tool)

G00 Z5.000000
G00 X215.866433 Y74.422332
M3S030
G01 Z-0.125000 F50.0(Penetrate)
G01 X216.344209 Y73.944556 Z-0.125000 F2000.000000
G01 X215.866433 Y74.422332 Z-0.125000
G00 Z5.000000
M5
(End cutting path id: path18825)


(Start cutting path id: path18823)
(Change tool to Default tool)

G00 Z5.000000
G00 X213.955329 Y74.422332
M3S030
G01 Z-0.125000 F50.0(Penetrate)
G01 X214.433105 Y73.944556 Z-0.125000 F2000.000000
G01 X213.955329 Y74.422332 Z-0.125000
G00 Z5.000000
M5
(End cutting path id: path18823)


(Start cutting path id: path18821)
(Change tool to Default tool)

G00 Z5.000000
G00 X206.947786 Y74.103655
M3S030
G01 Z-0.125000 F50.0(Penetrate)
G01 X206.947786 Y73.785456 Z-0.125000 F2000.000000
G01 X207.107363 Y73.785456 Z-0.125000
G01 X207.107363 Y73.944556 Z-0.125000
G01 X206.947786 Y74.103655 Z-0.125000
G00 Z5.000000
M5
(End cutting path id: path18821)


(Start cutting path id: path18819)
(Change tool to Default tool)

G00 Z5.000000
G00 X201.533149 Y74.422332
M3S030
G01 Z-0.125000 F50.0(Penetrate)
G01 X202.010926 Y73.944556 Z-0.125000 F2000.000000
G01 X201.533149 Y74.422332 Z-0.125000
G00 Z5.000000
M5
(End cutting path id: path18819)


(Start cutting path id: path18817)
(Change tool to Default tool)

G00 Z5.000000
G00 X199.622045 Y74.422332
M3S030
G01 Z-0.125000 F50.0(Penetrate)
G01 X200.099821 Y73.944556 Z-0.125000 F2000.000000
G01 X199.622045 Y74.422332 Z-0.125000
G00 Z5.000000
M5
(End cutting path id: path18817)


(Start cutting path id: path18815)
(Change tool to Default tool)

G00 Z5.000000
G00 X199.144269 Y74.422332
M3S030
G01 Z-0.125000 F50.0(Penetrate)
G01 X199.622045 Y73.944556 Z-0.125000 F2000.000000
G01 X199.144269 Y74.422332 Z-0.125000
G00 Z5.000000
M5
(End cutting path id: path18815)


(Start cutting path id: path18813)
(Change tool to Default tool)

G00 Z5.000000
G00 X196.755388 Y74.422332
M3S030
G01 Z-0.125000 F50.0(Penetrate)
G01 X197.233164 Y73.944556 Z-0.125000 F2000.000000
G01 X196.755388 Y74.422332 Z-0.125000
G00 Z5.000000
M5
(End cutting path id: path18813)


(Start cutting path id: path18811)
(Change tool to Default tool)

G00 Z5.000000
G00 X196.277612 Y74.422332
M3S030
G01 Z-0.125000 F50.0(Penetrate)
G01 X196.755388 Y73.944556 Z-0.125000 F2000.000000
G01 X196.277612 Y74.422332 Z-0.125000
G00 Z5.000000
M5
(End cutting path id: path18811)


(Start cutting path id: path18809)
(Change tool to Default tool)

G00 Z5.000000
G00 X194.366508 Y74.422332
M3S030
G01 Z-0.125000 F50.0(Penetrate)
G01 X194.844284 Y73.944556 Z-0.125000 F2000.000000
G01 X194.366508 Y74.422332 Z-0.125000
G00 Z5.000000
M5
(End cutting path id: path18809)


(Start cutting path id: path18807)
(Change tool to Default tool)

G00 Z5.000000
G00 X189.588746 Y74.422332
M3S030
G01 Z-0.125000 F50.0(Penetrate)
G01 X190.066523 Y73.944556 Z-0.125000 F2000.000000
G01 X189.588746 Y74.422332 Z-0.125000
G00 Z5.000000
M5
(End cutting path id: path18807)


(Start cutting path id: path18805)
(Change tool to Default tool)

G00 Z5.000000
G00 X189.110970 Y74.422332
M3S030
G01 Z-0.125000 F50.0(Penetrate)
G01 X189.588746 Y73.944556 Z-0.125000 F2000.000000
G01 X189.110970 Y74.422332 Z-0.125000
G00 Z5.000000
M5
(End cutting path id: path18805)


(Start cutting path id: path18803)
(Change tool to Default tool)

G00 Z5.000000
G00 X187.199866 Y74.422332
M3S030
G01 Z-0.125000 F50.0(Penetrate)
G01 X187.677642 Y73.944556 Z-0.125000 F2000.000000
G01 X187.199866 Y74.422332 Z-0.125000
G00 Z5.000000
M5
(End cutting path id: path18803)


(Start cutting path id: path18801)
(Change tool to Default tool)

G00 Z5.000000
G00 X186.722090 Y74.422332
M3S030
G01 Z-0.125000 F50.0(Penetrate)
G01 X187.199866 Y73.944556 Z-0.125000 F2000.000000
G01 X186.722090 Y74.422332 Z-0.125000
G00 Z5.000000
M5
(End cutting path id: path18801)


(Start cutting path id: path18799)
(Change tool to Default tool)

G00 Z5.000000
G00 X182.103428 Y74.103655
M3S030
G01 Z-0.125000 F50.0(Penetrate)
G01 X182.103428 Y73.785456 Z-0.125000 F2000.000000
G01 X182.263005 Y73.785456 Z-0.125000
G01 X182.263005 Y74.103655 Z-0.125000
G01 X182.103428 Y74.103655 Z-0.125000
G00 Z5.000000
M5
(End cutting path id: path18799)


(Start cutting path id: path18797)
(Change tool to Default tool)

G00 Z5.000000
G00 X177.166567 Y74.422332
M3S030
G01 Z-0.125000 F50.0(Penetrate)
G01 X177.644343 Y73.944556 Z-0.125000 F2000.000000
G01 X177.166567 Y74.422332 Z-0.125000
G00 Z5.000000
M5
(End cutting path id: path18797)


(Start cutting path id: path18795)
(Change tool to Default tool)

G00 Z5.000000
G00 X175.733239 Y74.422332
M3S030
G01 Z-0.125000 F50.0(Penetrate)
G01 X175.759994 Y73.466780 Z-0.125000 F2000.000000
G01 X175.852683 Y72.989004 Z-0.125000
G01 X175.866061 Y72.750115 Z-0.125000
G01 X176.211015 Y72.033451 Z-0.125000
G01 X176.755202 Y72.405161 Z-0.125000
G01 X176.847891 Y72.657427 Z-0.125000
G01 X177.033746 Y73.015759 Z-0.125000
G01 X177.153190 Y73.705668 Z-0.125000
G01 X177.166567 Y74.422332 Z-0.125000
G01 X175.733239 Y74.422332 Z-0.125000
G00 Z5.000000
M5
(End cutting path id: path18795)


(Start cutting path id: path18793)
(Change tool to Default tool)

G00 Z5.000000
G00 X175.255463 Y74.422332
M3S030
G01 Z-0.125000 F50.0(Penetrate)
G01 X175.733239 Y73.944556 Z-0.125000 F2000.000000
G01 X175.255463 Y74.422332 Z-0.125000
G00 Z5.000000
M5
(End cutting path id: path18793)


(Start cutting path id: path18791)
(Change tool to Default tool)

G00 Z5.000000
G00 X162.833284 Y74.422332
M3S030
G01 Z-0.125000 F50.0(Penetrate)
G01 X163.311060 Y73.944556 Z-0.125000 F2000.000000
G01 X162.833284 Y74.422332 Z-0.125000
G00 Z5.000000
M5
(End cutting path id: path18791)


(Start cutting path id: path18789)
(Change tool to Default tool)

G00 Z5.000000
G00 X154.392413 Y74.103655
M3S030
G01 Z-0.125000 F50.0(Penetrate)
G01 X154.392413 Y73.785456 Z-0.125000 F2000.000000
G01 X154.551990 Y73.785456 Z-0.125000
G01 X154.551990 Y73.944556 Z-0.125000
G01 X154.392413 Y74.103655 Z-0.125000
G00 Z5.000000
M5
(End cutting path id: path18789)


(Start cutting path id: path18787)
(Change tool to Default tool)

G00 Z5.000000
G00 X147.066672 Y74.422332
M3S030
G01 Z-0.125000 F50.0(Penetrate)
G01 X147.544448 Y73.944556 Z-0.125000 F2000.000000
G01 X147.066672 Y74.422332 Z-0.125000
G00 Z5.000000
M5
(End cutting path id: path18787)


(Start cutting path id: path18785)
(Change tool to Default tool)

G00 Z5.000000
G00 X146.588896 Y74.422332
M3S030
G01 Z-0.125000 F50.0(Penetrate)
G01 X147.066672 Y73.944556 Z-0.125000 F2000.000000
G01 X146.588896 Y74.422332 Z-0.125000
G00 Z5.000000
M5
(End cutting path id: path18785)


(Start cutting path id: path18783)
(Change tool to Default tool)

G00 Z5.000000
G00 X144.200015 Y74.422332
M3S030
G01 Z-0.125000 F50.0(Penetrate)
G01 X144.677791 Y73.944556 Z-0.125000 F2000.000000
G01 X144.200015 Y74.422332 Z-0.125000
G00 Z5.000000
M5
(End cutting path id: path18783)


(Start cutting path id: path18781)
(Change tool to Default tool)

G00 Z5.000000
G00 X142.288911 Y74.422332
M3S030
G01 Z-0.125000 F50.0(Penetrate)
G01 X142.766687 Y73.944556 Z-0.125000 F2000.000000
G01 X142.288911 Y74.422332 Z-0.125000
G00 Z5.000000
M5
(End cutting path id: path18781)


(Start cutting path id: path18779)
(Change tool to Default tool)

G00 Z5.000000
G00 X137.033373 Y74.422332
M3S030
G01 Z-0.125000 F50.0(Penetrate)
G01 X137.511149 Y73.944556 Z-0.125000 F2000.000000
G01 X137.033373 Y74.422332 Z-0.125000
G00 Z5.000000
M5
(End cutting path id: path18779)


(Start cutting path id: path18779)
(Change tool to Default tool)

G00 Z5.000000
G00 X141.811134 Y74.422332
M3S030
G01 Z-0.125000 F50.0(Penetrate)
G01 X142.288911 Y73.944556 Z-0.125000 F2000.000000
G01 X141.811134 Y74.422332 Z-0.125000
G00 Z5.000000
M5
(End cutting path id: path18779)


(Start cutting path id: path18777)
(Change tool to Default tool)

G00 Z5.000000
G00 X136.555597 Y74.422332
M3S030
G01 Z-0.125000 F50.0(Penetrate)
G01 X137.033373 Y73.944556 Z-0.125000 F2000.000000
G01 X136.555597 Y74.422332 Z-0.125000
G00 Z5.000000
M5
(End cutting path id: path18777)


(Start cutting path id: path18775)
(Change tool to Default tool)

G00 Z5.000000
G00 X135.600045 Y74.422332
M3S030
G01 Z-0.125000 F50.0(Penetrate)
G01 X136.077821 Y73.944556 Z-0.125000 F2000.000000
G01 X135.600045 Y74.422332 Z-0.125000
G00 Z5.000000
M5
(End cutting path id: path18775)


(Start cutting path id: path18773)
(Change tool to Default tool)

G00 Z5.000000
G00 X135.122269 Y74.422332
M3S030
G01 Z-0.125000 F50.0(Penetrate)
G01 X135.600045 Y73.944556 Z-0.125000 F2000.000000
G01 X135.122269 Y74.422332 Z-0.125000
G00 Z5.000000
M5
(End cutting path id: path18773)


(Start cutting path id: path18771)
(Change tool to Default tool)

G00 Z5.000000
G00 X132.255612 Y74.422332
M3S030
G01 Z-0.125000 F50.0(Penetrate)
G01 X132.733388 Y73.944556 Z-0.125000 F2000.000000
G01 X132.255612 Y74.422332 Z-0.125000
G00 Z5.000000
M5
(End cutting path id: path18771)


(Start cutting path id: path18769)
(Change tool to Default tool)

G00 Z5.000000
G00 X130.344508 Y74.422332
M3S030
G01 Z-0.125000 F50.0(Penetrate)
G01 X130.822284 Y73.944556 Z-0.125000 F2000.000000
G01 X130.344508 Y74.422332 Z-0.125000
G00 Z5.000000
M5
(End cutting path id: path18769)


(Start cutting path id: path18767)
(Change tool to Default tool)

G00 Z5.000000
G00 X129.866731 Y74.422332
M3S030
G01 Z-0.125000 F50.0(Penetrate)
G01 X130.344508 Y73.944556 Z-0.125000 F2000.000000
G01 X129.866731 Y74.422332 Z-0.125000
G00 Z5.000000
M5
(End cutting path id: path18767)


(Start cutting path id: path18765)
(Change tool to Default tool)

G00 Z5.000000
G00 X124.611194 Y74.422332
M3S030
G01 Z-0.125000 F50.0(Penetrate)
G01 X125.088970 Y73.944556 Z-0.125000 F2000.000000
