%
(Header)
(Generated by gcodetools from Inkscape.)
(Using default header. To add your own header create file "header" in the output dir.)
M3
(Header end.)
G21 (All units in mm)
M5

(Start cutting path id: path2536)
(Change tool to Default tool)

G00 Z5.000000
G00 X59.410541 Y55.883175
M3S030
G01 Z-1.000000 F100.0(Penetrate)
G01 X59.843939 Y55.480870 Z-1.000000 F2000.000000
G01 X60.107054 Y55.465268 Z-1.000000
G01 X60.555942 Y55.357169 Z-1.000000
G01 X61.639381 Y55.325965 Z-1.000000
G01 X61.205983 Y55.728271 Z-1.000000
G01 X60.942869 Y55.743873 Z-1.000000
G01 X60.493980 Y55.851971 Z-1.000000
G01 X59.410541 Y55.883175 Z-1.000000
G00 Z5.000000
M5
(End cutting path id: path2536)


(Start cutting path id: path2534)
(Change tool to Default tool)

G00 Z5.000000
G00 X62.010873 Y56.254834
M3S030
G01 Z-1.000000 F100.0(Penetrate)
G01 X62.010873 Y56.068726 Z-1.000000 F2000.000000
G01 X62.382310 Y56.068726 Z-1.000000
G01 X62.382310 Y56.254834 Z-1.000000
G01 X62.010873 Y56.254834 Z-1.000000
G00 Z5.000000
M5
(End cutting path id: path2534)


(Start cutting path id: path2532)
(Change tool to Default tool)

G00 Z5.000000
G00 X61.082171 Y56.440385
M3S030
G01 Z-1.000000 F100.0(Penetrate)
G01 X61.639381 Y55.883175 Z-1.000000 F2000.000000
G01 X61.082171 Y56.440385 Z-1.000000
G00 Z5.000000
M5
(End cutting path id: path2532)


(Start cutting path id: path2530)
(Change tool to Default tool)

G00 Z5.000000
G00 X59.410541 Y56.440385
M3S030
G01 Z-1.000000 F100.0(Penetrate)
G01 X59.967751 Y55.883175 Z-1.000000 F2000.000000
G01 X59.410541 Y56.440385 Z-1.000000
G00 Z5.000000
M5
(End cutting path id: path2530)


(Start cutting path id: path2528)
(Change tool to Default tool)

G00 Z5.000000
G00 X62.753802 Y56.997595
M3S030
G01 Z-1.000000 F100.0(Penetrate)
G01 X63.311012 Y56.440385 Z-1.000000 F2000.000000
G01 X62.753802 Y56.997595 Z-1.000000
G00 Z5.000000
M5
(End cutting path id: path2528)


(Start cutting path id: path2528)
(Change tool to Default tool)

G00 Z5.000000
G00 X58.667613 Y56.254834
M3S030
G01 Z-1.000000 F100.0(Penetrate)
G01 X58.853331 Y56.068726 Z-1.000000 F2000.000000
G01 X59.039049 Y56.068726 Z-1.000000
G01 X59.039049 Y56.254834 Z-1.000000
G01 X58.667613 Y56.254834 Z-1.000000
G00 Z5.000000
M5
(End cutting path id: path2528)


(Start cutting path id: path2526)
(Change tool to Default tool)

G00 Z5.000000
G00 X62.196591 Y56.997595
M3S030
G01 Z-1.000000 F100.0(Penetrate)
G01 X62.753802 Y56.440385 Z-1.000000 F2000.000000
G01 X62.196591 Y56.997595 Z-1.000000
G00 Z5.000000
M5
(End cutting path id: path2526)


(Start cutting path id: path2524)
(Change tool to Default tool)

G00 Z5.000000
G00 X58.296121 Y56.997595
M3S030
G01 Z-1.000000 F100.0(Penetrate)
G01 X58.853331 Y56.440385 Z-1.000000 F2000.000000
G01 X58.296121 Y56.997595 Z-1.000000
G00 Z5.000000
M5
(End cutting path id: path2524)


(Start cutting path id: path2522)
(Change tool to Default tool)

G00 Z5.000000
G00 X57.738911 Y56.997595
M3S030
G01 Z-1.000000 F100.0(Penetrate)
G01 X58.296121 Y56.440385 Z-1.000000 F2000.000000
G01 X57.738911 Y56.997595 Z-1.000000
G00 Z5.000000
M5
(End cutting path id: path2522)


(Start cutting path id: path2520)
(Change tool to Default tool)

G00 Z5.000000
G00 X63.868222 Y57.554805
M3S030
G01 Z-1.000000 F100.0(Penetrate)
G01 X64.425432 Y56.997595 Z-1.000000 F2000.000000
G01 X63.868222 Y57.554805 Z-1.000000
G00 Z5.000000
M5
(End cutting path id: path2520)


(Start cutting path id: path2518)
(Change tool to Default tool)

G00 Z5.000000
G00 X63.311012 Y57.554805
M3S030
G01 Z-1.000000 F100.0(Penetrate)
G01 X63.868222 Y56.997595 Z-1.000000 F2000.000000
G01 X63.311012 Y57.554805 Z-1.000000
G00 Z5.000000
M5
(End cutting path id: path2518)


(Start cutting path id: path2516)
(Change tool to Default tool)

G00 Z5.000000
G00 X57.181701 Y57.554805
M3S030
G01 Z-1.000000 F100.0(Penetrate)
G01 X57.738911 Y56.997595 Z-1.000000 F2000.000000
G01 X57.181701 Y57.554805 Z-1.000000
G00 Z5.000000
M5
(End cutting path id: path2516)


(Start cutting path id: path2514)
(Change tool to Default tool)

G00 Z5.000000
G00 X56.624491 Y57.554805
M3S030
G01 Z-1.000000 F100.0(Penetrate)
G01 X57.181701 Y56.997595 Z-1.000000 F2000.000000
G01 X56.624491 Y57.554805 Z-1.000000
G00 Z5.000000
M5
(End cutting path id: path2514)


(Start cutting path id: path2512)
(Change tool to Default tool)

G00 Z5.000000
G00 X64.982642 Y58.112015
M3S030
G01 Z-1.000000 F100.0(Penetrate)
G01 X65.539852 Y57.554805 Z-1.000000 F2000.000000
G01 X64.982642 Y58.112015 Z-1.000000
G00 Z5.000000
M5
(End cutting path id: path2512)


(Start cutting path id: path2510)
(Change tool to Default tool)

G00 Z5.000000
G00 X64.425432 Y58.112015
M3S030
G01 Z-1.000000 F100.0(Penetrate)
G01 X64.982642 Y57.554805 Z-1.000000 F2000.000000
G01 X64.425432 Y58.112015 Z-1.000000
G00 Z5.000000
M5
(End cutting path id: path2510)


(Start cutting path id: path2508)
(Change tool to Default tool)

G00 Z5.000000
G00 X63.868222 Y58.112015
M3S030
G01 Z-1.000000 F100.0(Penetrate)
G01 X64.425432 Y57.554805 Z-1.000000 F2000.000000
G01 X63.868222 Y58.112015 Z-1.000000
G00 Z5.000000
M5
(End cutting path id: path2508)


(Start cutting path id: path2506)
(Change tool to Default tool)

G00 Z5.000000
G00 X56.624491 Y58.112015
M3S030
G01 Z-1.000000 F100.0(Penetrate)
G01 X57.181701 Y57.554805 Z-1.000000 F2000.000000
G01 X56.624491 Y58.112015 Z-1.000000
G00 Z5.000000
M5
(End cutting path id: path2506)


(Start cutting path id: path2504)
(Change tool to Default tool)

G00 Z5.000000
G00 X55.881563 Y57.926464
M3S030
G01 Z-1.000000 F100.0(Penetrate)
G01 X55.881563 Y57.740356 Z-1.000000 F2000.000000
G01 X56.252999 Y57.740356 Z-1.000000
G01 X56.252999 Y57.926464 Z-1.000000
G01 X55.881563 Y57.926464 Z-1.000000
G00 Z5.000000
M5
(End cutting path id: path2504)


(Start cutting path id: path2502)
(Change tool to Default tool)

G00 Z5.000000
G00 X65.911344 Y58.483675
M3S030
G01 Z-1.000000 F100.0(Penetrate)
G01 X65.911344 Y58.297566 Z-1.000000 F2000.000000
G01 X66.282780 Y58.297566 Z-1.000000
G01 X66.282780 Y58.483675 Z-1.000000
G01 X65.911344 Y58.483675 Z-1.000000
G00 Z5.000000
M5
(End cutting path id: path2502)


(Start cutting path id: path2500)
(Change tool to Default tool)

G00 Z5.000000
G00 X64.982642 Y58.669225
M3S030
G01 Z-1.000000 F100.0(Penetrate)
G01 X65.539852 Y58.112015 Z-1.000000 F2000.000000
G01 X64.982642 Y58.669225 Z-1.000000
G00 Z5.000000
M5
(End cutting path id: path2500)


(Start cutting path id: path2498)
(Change tool to Default tool)

G00 Z5.000000
G00 X55.510071 Y58.669225
M3S030
G01 Z-1.000000 F100.0(Penetrate)
G01 X56.067281 Y58.112015 Z-1.000000 F2000.000000
G01 X55.510071 Y58.669225 Z-1.000000
G00 Z5.000000
M5
(End cutting path id: path2498)


(Start cutting path id: path2496)
(Change tool to Default tool)

G00 Z5.000000
G00 X54.767143 Y58.483675
M3S030
G01 Z-1.000000 F100.0(Penetrate)
G01 X54.767143 Y58.297566 Z-1.000000 F2000.000000
G01 X55.138579 Y58.297566 Z-1.000000
G01 X55.138579 Y58.483675 Z-1.000000
G01 X54.767143 Y58.483675 Z-1.000000
G00 Z5.000000
M5
(End cutting path id: path2496)


(Start cutting path id: path2494)
(Change tool to Default tool)

G00 Z5.000000
G00 X66.097062 Y59.226436
M3S030
G01 Z-1.000000 F100.0(Penetrate)
G01 X66.654272 Y58.669225 Z-1.000000 F2000.000000
G01 X66.097062 Y59.226436 Z-1.000000
G00 Z5.000000
M5
(End cutting path id: path2494)


(Start cutting path id: path2492)
(Change tool to Default tool)

G00 Z5.000000
G00 X54.395651 Y59.226436
M3S030
G01 Z-1.000000 F100.0(Penetrate)
G01 X54.952861 Y58.669225 Z-1.000000 F2000.000000
G01 X54.395651 Y59.226436 Z-1.000000
G00 Z5.000000
M5
(End cutting path id: path2492)


(Start cutting path id: path2490)
(Change tool to Default tool)

G00 Z5.000000
G00 X53.838441 Y59.226436
M3S030
G01 Z-1.000000 F100.0(Penetrate)
G01 X54.395651 Y58.669225 Z-1.000000 F2000.000000
G01 X53.838441 Y59.226436 Z-1.000000
G00 Z5.000000
M5
(End cutting path id: path2490)


(Start cutting path id: path2488)
(Change tool to Default tool)

G00 Z5.000000
G00 X66.654272 Y58.669225
M3S030
G01 Z-1.000000 F100.0(Penetrate)
G01 X67.629390 Y59.040885 Z-1.000000 F2000.000000
G01 X67.923596 Y59.148983 Z-1.000000
G01 X68.325902 Y59.783646 Z-1.000000
G01 X67.350785 Y59.411986 Z-1.000000
G01 X67.056689 Y59.303888 Z-1.000000
G01 X66.654272 Y58.669225 Z-1.000000
G00 Z5.000000
M5
(End cutting path id: path2488)


(Start cutting path id: path2486)
(Change tool to Default tool)

G00 Z5.000000
G00 X66.654272 Y59.783646
M3S030
G01 Z-1.000000 F100.0(Penetrate)
G01 X67.211482 Y59.226436 Z-1.000000 F2000.000000
G01 X66.654272 Y59.783646 Z-1.000000
G00 Z5.000000
M5
(End cutting path id: path2486)


(Start cutting path id: path2484)
(Change tool to Default tool)

G00 Z5.000000
G00 X53.838441 Y59.783646
M3S030
G01 Z-1.000000 F100.0(Penetrate)
G01 X54.395651 Y59.226436 Z-1.000000 F2000.000000
G01 X53.838441 Y59.783646 Z-1.000000
G00 Z5.000000
M5
(End cutting path id: path2484)


(Start cutting path id: path2482)
(Change tool to Default tool)

G00 Z5.000000
G00 X53.095512 Y59.598095
M3S030
G01 Z-1.000000 F100.0(Penetrate)
G01 X53.095512 Y59.411986 Z-1.000000 F2000.000000
G01 X53.466949 Y59.411986 Z-1.000000
G01 X53.466949 Y59.598095 Z-1.000000
G01 X53.095512 Y59.598095 Z-1.000000
G00 Z5.000000
M5
(End cutting path id: path2482)


(Start cutting path id: path2480)
(Change tool to Default tool)

G00 Z5.000000
G00 X68.325902 Y60.340856
M3S030
G01 Z-1.000000 F100.0(Penetrate)
G01 X68.883112 Y59.783646 Z-1.000000 F2000.000000
G01 X68.325902 Y60.340856 Z-1.000000
G00 Z5.000000
M5
(End cutting path id: path2480)


(Start cutting path id: path2478)
(Change tool to Default tool)

G00 Z5.000000
G00 X67.768692 Y60.340856
M3S030
G01 Z-1.000000 F100.0(Penetrate)
G01 X68.325902 Y59.783646 Z-1.000000 F2000.000000
G01 X67.768692 Y60.340856 Z-1.000000
G00 Z5.000000
M5
(End cutting path id: path2478)


(Start cutting path id: path2476)
(Change tool to Default tool)

G00 Z5.000000
G00 X52.724020 Y60.340856
M3S030
G01 Z-1.000000 F100.0(Penetrate)
G01 X53.281230 Y59.783646 Z-1.000000 F2000.000000
G01 X52.724020 Y60.340856 Z-1.000000
G00 Z5.000000
M5
(End cutting path id: path2476)


(Start cutting path id: path2474)
(Change tool to Default tool)

G00 Z5.000000
G00 X52.166810 Y60.340856
M3S030
G01 Z-1.000000 F100.0(Penetrate)
G01 X52.724020 Y59.783646 Z-1.000000 F2000.000000
G01 X52.166810 Y60.340856 Z-1.000000
G00 Z5.000000
M5
(End cutting path id: path2474)


(Start cutting path id: path2472)
(Change tool to Default tool)

G00 Z5.000000
G00 X69.254771 Y60.712515
M3S030
G01 Z-1.000000 F100.0(Penetrate)
G01 X69.254771 Y60.526407 Z-1.000000 F2000.000000
G01 X69.625873 Y60.526407 Z-1.000000
G01 X69.625873 Y60.712515 Z-1.000000
G01 X69.254771 Y60.712515 Z-1.000000
G00 Z5.000000
M5
(End cutting path id: path2472)


(Start cutting path id: path2470)
(Change tool to Default tool)

G00 Z5.000000
G00 X68.325902 Y60.898066
M3S030
G01 Z-1.000000 F100.0(Penetrate)
G01 X68.883112 Y60.340856 Z-1.000000 F2000.000000
G01 X68.325902 Y60.898066 Z-1.000000
G00 Z5.000000
M5
(End cutting path id: path2470)


(Start cutting path id: path2468)
(Change tool to Default tool)

G00 Z5.000000
G00 X52.166810 Y60.898066
M3S030
G01 Z-1.000000 F100.0(Penetrate)
G01 X52.724020 Y60.340856 Z-1.000000 F2000.000000
G01 X52.166810 Y60.898066 Z-1.000000
G00 Z5.000000
M5
(End cutting path id: path2468)


(Start cutting path id: path2466)
(Change tool to Default tool)

G00 Z5.000000
G00 X51.609600 Y60.898066
M3S030
G01 Z-1.000000 F100.0(Penetrate)
G01 X52.166810 Y60.340856 Z-1.000000 F2000.000000
G01 X51.609600 Y60.898066 Z-1.000000
G00 Z5.000000
M5
(End cutting path id: path2466)


(Start cutting path id: path2464)
(Change tool to Default tool)

G00 Z5.000000
G00 X69.997532 Y61.455276
M3S030
G01 Z-1.000000 F100.0(Penetrate)
G01 X70.554742 Y60.898066 Z-1.000000 F2000.000000
G01 X69.997532 Y61.455276 Z-1.000000
G00 Z5.000000
M5
(End cutting path id: path2464)


(Start cutting path id: path2462)
(Change tool to Default tool)

G00 Z5.000000
G00 X69.440322 Y61.455276
M3S030
G01 Z-1.000000 F100.0(Penetrate)
G01 X69.997532 Y60.898066 Z-1.000000 F2000.000000
G01 X69.440322 Y61.455276 Z-1.000000
G00 Z5.000000
M5
(End cutting path id: path2462)


(Start cutting path id: path2460)
(Change tool to Default tool)

G00 Z5.000000
G00 X51.052390 Y61.455276
M3S030
G01 Z-1.000000 F100.0(Penetrate)
G01 X51.609600 Y60.898066 Z-1.000000 F2000.000000
G01 X51.052390 Y61.455276 Z-1.000000
G00 Z5.000000
M5
(End cutting path id: path2460)


(Start cutting path id: path2458)
(Change tool to Default tool)

G00 Z5.000000
G00 X50.495180 Y61.455276
M3S030
G01 Z-1.000000 F100.0(Penetrate)
G01 X51.052390 Y60.898066 Z-1.000000 F2000.000000
G01 X50.495180 Y61.455276 Z-1.000000
G00 Z5.000000
M5
(End cutting path id: path2458)


(Start cutting path id: path2456)
(Change tool to Default tool)

G00 Z5.000000
G00 X70.926401 Y61.826935
M3S030
G01 Z-1.000000 F100.0(Penetrate)
G01 X71.111952 Y61.640827 Z-1.000000 F2000.000000
G01 X71.297503 Y61.640827 Z-1.000000
G01 X71.297503 Y61.826935 Z-1.000000
G01 X70.926401 Y61.826935 Z-1.000000
G00 Z5.000000
M5
(End cutting path id: path2456)


(Start cutting path id: path2454)
(Change tool to Default tool)

G00 Z5.000000
G00 X69.997532 Y62.012486
M3S030
G01 Z-1.000000 F100.0(Penetrate)
G01 X70.554742 Y61.455276 Z-1.000000 F2000.000000
G01 X69.997532 Y62.012486 Z-1.000000
G00 Z5.000000
M5
(End cutting path id: path2454)


(Start cutting path id: path2452)
(Change tool to Default tool)

G00 Z5.000000
G00 X50.495180 Y62.012486
M3S030
G01 Z-1.000000 F100.0(Penetrate)
G01 X51.052390 Y61.455276 Z-1.000000 F2000.000000
G01 X50.495180 Y62.012486 Z-1.000000
G00 Z5.000000
M5
(End cutting path id: path2452)


(Start cutting path id: path2450)
(Change tool to Default tool)

G00 Z5.000000
G00 X49.937970 Y62.012486
M3S030
G01 Z-1.000000 F100.0(Penetrate)
G01 X50.495180 Y61.455276 Z-1.000000 F2000.000000
G01 X49.937970 Y62.012486 Z-1.000000
G00 Z5.000000
M5
(End cutting path id: path2450)


(Start cutting path id: path2448)
(Change tool to Default tool)

G00 Z5.000000
G00 X71.669162 Y62.569696
M3S030
G01 Z-1.000000 F100.0(Penetrate)
G01 X72.226373 Y62.012486 Z-1.000000 F2000.000000
G01 X71.669162 Y62.569696 Z-1.000000
G00 Z5.000000
M5
(End cutting path id: path2448)


(Start cutting path id: path2446)
(Change tool to Default tool)

G00 Z5.000000
G00 X71.111952 Y62.569696
M3S030
G01 Z-1.000000 F100.0(Penetrate)
G01 X71.669162 Y62.012486 Z-1.000000 F2000.000000
G01 X71.111952 Y62.569696 Z-1.000000
G00 Z5.000000
M5
(End cutting path id: path2446)


(Start cutting path id: path2444)
(Change tool to Default tool)

G00 Z5.000000
G00 X49.380760 Y62.569696
M3S030
G01 Z-1.000000 F100.0(Penetrate)
G01 X49.937970 Y62.012486 Z-1.000000 F2000.000000
G01 X49.380760 Y62.569696 Z-1.000000
G00 Z5.000000
M5
(End cutting path id: path2444)


(Start cutting path id: path2442)
(Change tool to Default tool)

G00 Z5.000000
G00 X48.823550 Y62.569696
M3S030
G01 Z-1.000000 F100.0(Penetrate)
G01 X49.380760 Y62.012486 Z-1.000000 F2000.000000
G01 X48.823550 Y62.569696 Z-1.000000
G00 Z5.000000
M5
(End cutting path id: path2442)


(Start cutting path id: path2440)
(Change tool to Default tool)

G00 Z5.000000
G00 X71.669162 Y63.126906
M3S030
G01 Z-1.000000 F100.0(Penetrate)
G01 X72.226373 Y62.569696 Z-1.000000 F2000.000000
G01 X71.669162 Y63.126906 Z-1.000000
G00 Z5.000000
M5
(End cutting path id: path2440)


(Start cutting path id: path2438)
(Change tool to Default tool)

G00 Z5.000000
G00 X48.823550 Y63.126906
M3S030
G01 Z-1.000000 F100.0(Penetrate)
G01 X49.380760 Y62.569696 Z-1.000000 F2000.000000
G01 X48.823550 Y63.126906 Z-1.000000
G00 Z5.000000
M5
(End cutting path id: path2438)


(Start cutting path id: path2436)
(Change tool to Default tool)

G00 Z5.000000
G00 X48.266340 Y63.126906
M3S030
G01 Z-1.000000 F100.0(Penetrate)
G01 X48.823550 Y62.569696 Z-1.000000 F2000.000000
G01 X48.266340 Y63.126906 Z-1.000000
G00 Z5.000000
M5
(End cutting path id: path2436)


(Start cutting path id: path2434)
(Change tool to Default tool)

G00 Z5.000000
G00 X72.226373 Y62.569696
M3S030
G01 Z-1.000000 F100.0(Penetrate)
G01 X73.201490 Y62.941355 Z-1.000000 F2000.000000
G01 X73.495697 Y63.049454 Z-1.000000
G01 X73.898003 Y63.684116 Z-1.000000
G01 X72.922885 Y63.312457 Z-1.000000
G01 X72.628678 Y63.204358 Z-1.000000
G01 X72.226373 Y62.569696 Z-1.000000
G00 Z5.000000
M5
(End cutting path id: path2434)


(Start cutting path id: path2432)
(Change tool to Default tool)

G00 Z5.000000
G00 X72.226373 Y63.684116
M3S030
G01 Z-1.000000 F100.0(Penetrate)
G01 X72.783583 Y63.126906 Z-1.000000 F2000.000000
G01 X72.226373 Y63.684116 Z-1.000000
G00 Z5.000000
M5
(End cutting path id: path2432)


(Start cutting path id: path2430)
(Change tool to Default tool)

G00 Z5.000000
G00 X48.266340 Y63.684116
M3S030
G01 Z-1.000000 F100.0(Penetrate)
G01 X48.823550 Y63.126906 Z-1.000000 F2000.000000
G01 X48.266340 Y63.684116 Z-1.000000
G00 Z5.000000
M5
(End cutting path id: path2430)


(Start cutting path id: path2428)
(Change tool to Default tool)

G00 Z5.000000
G00 X73.898003 Y64.241326
M3S030
G01 Z-1.000000 F100.0(Penetrate)
G01 X74.455213 Y63.684116 Z-1.000000 F2000.000000
G01 X73.898003 Y64.241326 Z-1.000000
G00 Z5.000000
M5
(End cutting path id: path2428)


(Start cutting path id: path2426)
(Change tool to Default tool)

G00 Z5.000000
G00 X73.340793 Y64.241326
M3S030
G01 Z-1.000000 F100.0(Penetrate)
G01 X73.898003 Y63.684116 Z-1.000000 F2000.000000
G01 X73.340793 Y64.241326 Z-1.000000
G00 Z5.000000
M5
(End cutting path id: path2426)


(Start cutting path id: path2424)
(Change tool to Default tool)

G00 Z5.000000
G00 X47.709130 Y64.241326
M3S030
G01 Z-1.000000 F100.0(Penetrate)
G01 X48.266340 Y63.684116 Z-1.000000 F2000.000000
G01 X47.709130 Y64.241326 Z-1.000000
G00 Z5.000000
M5
(End cutting path id: path2424)


(Start cutting path id: path2422)
(Change tool to Default tool)

G00 Z5.000000
G00 X74.455213 Y64.798536
M3S030
G01 Z-1.000000 F100.0(Penetrate)
G01 X75.012423 Y64.241326 Z-1.000000 F2000.000000
G01 X74.455213 Y64.798536 Z-1.000000
G00 Z5.000000
M5
(End cutting path id: path2422)


(Start cutting path id: path2420)
(Change tool to Default tool)

G00 Z5.000000
G00 X73.898003 Y64.798536
M3S030
G01 Z-1.000000 F100.0(Penetrate)
G01 X74.455213 Y64.241326 Z-1.000000 F2000.000000
G01 X73.898003 Y64.798536 Z-1.000000
G00 Z5.000000
M5
(End cutting path id: path2420)


(Start cutting path id: path2418)
(Change tool to Default tool)

G00 Z5.000000
G00 X46.037500 Y64.798536
M3S030
G01 Z-1.000000 F100.0(Penetrate)
G01 X46.470898 Y64.024571 Z-1.000000 F2000.000000
G01 X46.734012 Y63.839020 Z-1.000000
G01 X47.446015 Y63.328059 Z-1.000000
G01 X48.266340 Y63.126906 Z-1.000000
G01 X47.832942 Y63.900871 Z-1.000000
G01 X47.569827 Y64.086422 Z-1.000000
G01 X46.857824 Y64.597383 Z-1.000000
G01 X46.037500 Y64.798536 Z-1.000000
G00 Z5.000000
M5
(End cutting path id: path2418)


(Start cutting path id: path2416)
(Change tool to Default tool)

G00 Z5.000000
G00 X75.012423 Y65.355746
M3S030
G01 Z-1.000000 F100.0(Penetrate)
G01 X75.569633 Y64.798536 Z-1.000000 F2000.000000
G01 X75.012423 Y65.355746 Z-1.000000
G00 Z5.000000
M5
(End cutting path id: path2416)


(Start cutting path id: path2414)
(Change tool to Default tool)

G00 Z5.000000
G00 X74.455213 Y65.355746
M3S030
G01 Z-1.000000 F100.0(Penetrate)
G01 X75.012423 Y64.798536 Z-1.000000 F2000.000000
G01 X74.455213 Y65.355746 Z-1.000000
G00 Z5.000000
M5
(End cutting path id: path2414)


(Start cutting path id: path2412)
(Change tool to Default tool)

G00 Z5.000000
G00 X46.037500 Y65.355746
M3S030
G01 Z-1.000000 F100.0(Penetrate)
G01 X46.594710 Y64.798536 Z-1.000000 F2000.000000
G01 X46.037500 Y65.355746 Z-1.000000
G00 Z5.000000
M5
(End cutting path id: path2412)


(Start cutting path id: path2410)
(Change tool to Default tool)

G00 Z5.000000
G00 X45.480290 Y65.355746
M3S030
G01 Z-1.000000 F100.0(Penetrate)
G01 X46.037500 Y64.798536 Z-1.000000 F2000.000000
G01 X45.480290 Y65.355746 Z-1.000000
G00 Z5.000000
M5
(End cutting path id: path2410)


(Start cutting path id: path2408)
(Change tool to Default tool)

G00 Z5.000000
G00 X75.569633 Y65.912956
M3S030
G01 Z-1.000000 F100.0(Penetrate)
G01 X76.126843 Y65.355746 Z-1.000000 F2000.000000
G01 X75.569633 Y65.912956 Z-1.000000
G00 Z5.000000
M5
(End cutting path id: path2408)


(Start cutting path id: path2406)
(Change tool to Default tool)

G00 Z5.000000
G00 X75.012423 Y65.912956
M3S030
G01 Z-1.000000 F100.0(Penetrate)
G01 X75.569633 Y65.355746 Z-1.000000 F2000.000000
G01 X75.012423 Y65.912956 Z-1.000000
G00 Z5.000000
M5
(End cutting path id: path2406)


(Start cutting path id: path2404)
(Change tool to Default tool)

G00 Z5.000000
G00 X45.480290 Y65.912956
M3S030
G01 Z-1.000000 F100.0(Penetrate)
G01 X46.037500 Y65.355746 Z-1.000000 F2000.000000
G01 X45.480290 Y65.912956 Z-1.000000
G00 Z5.000000
M5
(End cutting path id: path2404)


(Start cutting path id: path2402)
(Change tool to Default tool)

G00 Z5.000000
G00 X44.923080 Y65.912956
M3S030
G01 Z-1.000000 F100.0(Penetrate)
G01 X45.480290 Y65.355746 Z-1.000000 F2000.000000
G01 X44.923080 Y65.912956 Z-1.000000
G00 Z5.000000
M5
(End cutting path id: path2402)


(Start cutting path id: path2400)
(Change tool to Default tool)

G00 Z5.000000
G00 X76.684053 Y66.470166
M3S030
G01 Z-1.000000 F100.0(Penetrate)
G01 X77.241263 Y65.912956 Z-1.000000 F2000.000000
G01 X76.684053 Y66.470166 Z-1.000000
G00 Z5.000000
M5
(End cutting path id: path2400)


(Start cutting path id: path2398)
(Change tool to Default tool)

G00 Z5.000000
G00 X76.126843 Y66.470166
M3S030
G01 Z-1.000000 F100.0(Penetrate)
G01 X76.684053 Y65.912956 Z-1.000000 F2000.000000
G01 X76.126843 Y66.470166 Z-1.000000
G00 Z5.000000
M5
(End cutting path id: path2398)


(Start cutting path id: path2396)
(Change tool to Default tool)

G00 Z5.000000
G00 X77.241263 Y67.027376
M3S030
G01 Z-1.000000 F100.0(Penetrate)
G01 X77.798473 Y66.470166 Z-1.000000 F2000.000000
G01 X77.241263 Y67.027376 Z-1.000000
G00 Z5.000000
M5
(End cutting path id: path2396)


(Start cutting path id: path2394)
(Change tool to Default tool)

G00 Z5.000000
G00 X76.684053 Y67.027376
M3S030
G01 Z-1.000000 F100.0(Penetrate)
G01 X77.241263 Y66.470166 Z-1.000000 F2000.000000
G01 X76.684053 Y67.027376 Z-1.000000
G00 Z5.000000
M5
(End cutting path id: path2394)


(Start cutting path id: path2392)
(Change tool to Default tool)

G00 Z5.000000
G00 X43.808659 Y67.027376
M3S030
G01 Z-1.000000 F100.0(Penetrate)
G01 X43.808659 Y65.912956 Z-1.000000 F2000.000000
G01 X44.923080 Y65.912956 Z-1.000000
G01 X44.365870 Y67.027376 Z-1.000000
G01 X43.808659 Y67.027376 Z-1.000000
G00 Z5.000000
M5
(End cutting path id: path2392)


(Start cutting path id: path2390)
(Change tool to Default tool)

G00 Z5.000000
G00 X43.251449 Y67.027376
M3S030
G01 Z-1.000000 F100.0(Penetrate)
G01 X43.808659 Y66.470166 Z-1.000000 F2000.000000
G01 X43.251449 Y67.027376 Z-1.000000
G00 Z5.000000
M5
(End cutting path id: path2390)


(Start cutting path id: path2388)
(Change tool to Default tool)

G00 Z5.000000
G00 X77.798473 Y67.584586
M3S030
G01 Z-1.000000 F100.0(Penetrate)
G01 X78.355683 Y67.027376 Z-1.000000 F2000.000000
G01 X77.798473 Y67.584586 Z-1.000000
G00 Z5.000000
M5
(End cutting path id: path2388)


(Start cutting path id: path2386)
(Change tool to Default tool)

G00 Z5.000000
G00 X77.241263 Y67.584586
M3S030
G01 Z-1.000000 F100.0(Penetrate)
G01 X77.798473 Y67.027376 Z-1.000000 F2000.000000
G01 X77.241263 Y67.584586 Z-1.000000
G00 Z5.000000
M5
(End cutting path id: path2386)


(Start cutting path id: path2384)
(Change tool to Default tool)

G00 Z5.000000
G00 X43.251449 Y67.584586
M3S030
G01 Z-1.000000 F100.0(Penetrate)
G01 X43.808659 Y67.027376 Z-1.000000 F2000.000000
G01 X43.251449 Y67.584586 Z-1.000000
G00 Z5.000000
M5
(End cutting path id: path2384)


(Start cutting path id: path2382)
(Change tool to Default tool)

G00 Z5.000000
G00 X42.694239 Y67.584586
M3S030
G01 Z-1.000000 F100.0(Penetrate)
G01 X43.251449 Y67.027376 Z-1.000000 F2000.000000
G01 X42.694239 Y67.584586 Z-1.000000
G00 Z5.000000
M5
(End cutting path id: path2382)


(Start cutting path id: path2380)
(Change tool to Default tool)

G00 Z5.000000
G00 X78.355683 Y68.141796
M3S030
G01 Z-1.000000 F100.0(Penetrate)
G01 X78.912893 Y67.584586 Z-1.000000 F2000.000000
G01 X78.355683 Y68.141796 Z-1.000000
G00 Z5.000000
M5
(End cutting path id: path2380)


(Start cutting path id: path2378)
(Change tool to Default tool)

G00 Z5.000000
G00 X77.798473 Y68.141796
M3S030
G01 Z-1.000000 F100.0(Penetrate)
G01 X78.355683 Y67.584586 Z-1.000000 F2000.000000
G01 X77.798473 Y68.141796 Z-1.000000
G00 Z5.000000
M5
(End cutting path id: path2378)


(Start cutting path id: path2376)
(Change tool to Default tool)

G00 Z5.000000
G00 X42.694239 Y68.141796
M3S030
G01 Z-1.000000 F100.0(Penetrate)
G01 X43.251449 Y67.584586 Z-1.000000 F2000.000000
G01 X42.694239 Y68.141796 Z-1.000000
G00 Z5.000000
M5
(End cutting path id: path2376)


(Start cutting path id: path2374)
(Change tool to Default tool)

G00 Z5.000000
G00 X42.137029 Y68.141796
M3S030
G01 Z-1.000000 F100.0(Penetrate)
G01 X42.694239 Y67.584586 Z-1.000000 F2000.000000
G01 X42.137029 Y68.141796 Z-1.000000
G00 Z5.000000
M5
(End cutting path id: path2374)


(Start cutting path id: path2372)
(Change tool to Default tool)

G00 Z5.000000
G00 X78.912893 Y68.699007
M3S030
G01 Z-1.000000 F100.0(Penetrate)
G01 X79.470103 Y68.141796 Z-1.000000 F2000.000000
G01 X78.912893 Y68.699007 Z-1.000000
G00 Z5.000000
M5
(End cutting path id: path2372)


(Start cutting path id: path2370)
(Change tool to Default tool)

G00 Z5.000000
G00 X78.355683 Y68.699007
M3S030
G01 Z-1.000000 F100.0(Penetrate)
G01 X78.912893 Y68.141796 Z-1.000000 F2000.000000
G01 X78.355683 Y68.699007 Z-1.000000
G00 Z5.000000
M5
(End cutting path id: path2370)


(Start cutting path id: path2368)
(Change tool to Default tool)

G00 Z5.000000
G00 X42.137029 Y68.699007
M3S030
G01 Z-1.000000 F100.0(Penetrate)
G01 X42.694239 Y68.141796 Z-1.000000 F2000.000000
G01 X42.137029 Y68.699007 Z-1.000000
G00 Z5.000000
M5
(End cutting path id: path2368)


(Start cutting path id: path2366)
(Change tool to Default tool)

G00 Z5.000000
G00 X41.579819 Y68.699007
M3S030
G01 Z-1.000000 F100.0(Penetrate)
G01 X42.137029 Y68.141796 Z-1.000000 F2000.000000
G01 X41.579819 Y68.699007 Z-1.000000
G00 Z5.000000
M5
(End cutting path id: path2366)


(Start cutting path id: path2364)
(Change tool to Default tool)

G00 Z5.000000
G00 X79.470103 Y69.256217
M3S030
G01 Z-1.000000 F100.0(Penetrate)
G01 X80.027313 Y68.699007 Z-1.000000 F2000.000000
G01 X79.470103 Y69.256217 Z-1.000000
G00 Z5.000000
M5
(End cutting path id: path2364)


(Start cutting path id: path2362)
(Change tool to Default tool)

G00 Z5.000000
G00 X78.912893 Y69.256217
M3S030
G01 Z-1.000000 F100.0(Penetrate)
G01 X79.470103 Y68.699007 Z-1.000000 F2000.000000
G01 X78.912893 Y69.256217 Z-1.000000
G00 Z5.000000
M5
(End cutting path id: path2362)


(Start cutting path id: path2360)
(Change tool to Default tool)

G00 Z5.000000
G00 X41.022609 Y69.256217
M3S030
G01 Z-1.000000 F100.0(Penetrate)
G01 X41.579819 Y68.699007 Z-1.000000 F2000.000000
G01 X41.022609 Y69.256217 Z-1.000000
G00 Z5.000000
M5
(End cutting path id: path2360)


(Start cutting path id: path2358)
(Change tool to Default tool)

G00 Z5.000000
G00 X80.027313 Y69.813427
M3S030
G01 Z-1.000000 F100.0(Penetrate)
G01 X80.584523 Y69.256217 Z-1.000000 F2000.000000
G01 X80.027313 Y69.813427 Z-1.000000
G00 Z5.000000
M5
(End cutting path id: path2358)


(Start cutting path id: path2356)
(Change tool to Default tool)

G00 Z5.000000
G00 X79.470103 Y69.813427
M3S030
G01 Z-1.000000 F100.0(Penetrate)
G01 X80.027313 Y69.256217 Z-1.000000 F2000.000000
G01 X79.470103 Y69.813427 Z-1.000000
G00 Z5.000000
M5
(End cutting path id: path2356)


(Start cutting path id: path2354)
(Change tool to Default tool)

G00 Z5.000000
G00 X41.022609 Y69.813427
M3S030
G01 Z-1.000000 F100.0(Penetrate)
G01 X41.022609 Y69.256217 Z-1.000000 F2000.000000
G01 X42.137029 Y68.699007 Z-1.000000
G01 X41.579819 Y69.813427 Z-1.000000
G01 X41.022609 Y69.813427 Z-1.000000
G00 Z5.000000
M5
(End cutting path id: path2354)


(Start cutting path id: path2352)
(Change tool to Default tool)

G00 Z5.000000
G00 X40.465399 Y69.813427
M3S030
G01 Z-1.000000 F100.0(Penetrate)
G01 X41.022609 Y69.256217 Z-1.000000 F2000.000000
G01 X40.465399 Y69.813427 Z-1.000000
G00 Z5.000000
M5
(End cutting path id: path2352)


(Start cutting path id: path2350)
(Change tool to Default tool)

G00 Z5.000000
G00 X80.584523 Y70.370637
M3S030
G01 Z-1.000000 F100.0(Penetrate)
G01 X81.141734 Y69.813427 Z-1.000000 F2000.000000
G01 X80.584523 Y70.370637 Z-1.000000
G00 Z5.000000
M5
(End cutting path id: path2350)


(Start cutting path id: path2348)
(Change tool to Default tool)

G00 Z5.000000
G00 X40.465399 Y70.370637
M3S030
G01 Z-1.000000 F100.0(Penetrate)
G01 X41.022609 Y69.813427 Z-1.000000 F2000.000000
G01 X40.465399 Y70.370637 Z-1.000000
G00 Z5.000000
M5
(End cutting path id: path2348)


(Start cutting path id: path2346)
(Change tool to Default tool)

G00 Z5.000000
G00 X39.908189 Y70.370637
M3S030
G01 Z-1.000000 F100.0(Penetrate)
G01 X40.465399 Y69.813427 Z-1.000000 F2000.000000
G01 X39.908189 Y70.370637 Z-1.000000
G00 Z5.000000
M5
(End cutting path id: path2346)


(Start cutting path id: path2344)
(Change tool to Default tool)

G00 Z5.000000
G00 X80.584523 Y70.927847
M3S030
G01 Z-1.000000 F100.0(Penetrate)
G01 X80.027313 Y69.813427 Z-1.000000 F2000.000000
G01 X80.630772 Y70.370637 Z-1.000000
G01 X80.816880 Y70.556188 Z-1.000000
G01 X80.584523 Y70.927847 Z-1.000000
G00 Z5.000000
M5
(End cutting path id: path2344)


(Start cutting path id: path2342)
(Change tool to Default tool)

G00 Z5.000000
G00 X39.350979 Y70.927847
M3S030
G01 Z-1.000000 F100.0(Penetrate)
G01 X39.908189 Y70.370637 Z-1.000000 F2000.000000
G01 X39.350979 Y70.927847 Z-1.000000
G00 Z5.000000
M5
(End cutting path id: path2342)


(Start cutting path id: path2340)
(Change tool to Default tool)

G00 Z5.000000
G00 X81.698944 Y71.485057
M3S030
G01 Z-1.000000 F100.0(Penetrate)
G01 X82.256154 Y70.927847 Z-1.000000 F2000.000000
G01 X81.698944 Y71.485057 Z-1.000000
G00 Z5.000000
M5
(End cutting path id: path2340)


(Start cutting path id: path2338)
(Change tool to Default tool)

G00 Z5.000000
G00 X38.793769 Y71.485057
M3S030
G01 Z-1.000000 F100.0(Penetrate)
G01 X39.350979 Y70.927847 Z-1.000000 F2000.000000
G01 X38.793769 Y71.485057 Z-1.000000
G00 Z5.000000
M5
(End cutting path id: path2338)


(Start cutting path id: path2336)
(Change tool to Default tool)

G00 Z5.000000
G00 X38.236559 Y72.042267
M3S030
G01 Z-1.000000 F100.0(Penetrate)
G01 X38.793769 Y71.485057 Z-1.000000 F2000.000000
G01 X38.236559 Y72.042267 Z-1.000000
G00 Z5.000000
M5
(End cutting path id: path2336)


(Start cutting path id: path2334)
(Change tool to Default tool)

G00 Z5.000000
G00 X82.813364 Y72.599477
M3S030
G01 Z-1.000000 F100.0(Penetrate)
G01 X82.023797 Y71.624359 Z-1.000000 F2000.000000
G01 X81.807042 Y71.330152 Z-1.000000
G01 X81.141734 Y70.927847 Z-1.000000
G01 X81.575243 Y70.587391 Z-1.000000
G01 X82.256154 Y70.804146 Z-1.000000
G01 X82.937064 Y71.485057 Z-1.000000
G01 X83.153819 Y72.165968 Z-1.000000
G01 X82.813364 Y72.599477 Z-1.000000
G00 Z5.000000
M5
(End cutting path id: path2334)


(Start cutting path id: path2332)
(Change tool to Default tool)

G00 Z5.000000
G00 X82.256154 Y72.599477
M3S030
G01 Z-1.000000 F100.0(Penetrate)
G01 X82.813364 Y72.042267 Z-1.000000 F2000.000000
G01 X82.256154 Y72.599477 Z-1.000000
G00 Z5.000000
M5
(End cutting path id: path2332)


(Start cutting path id: path2330)
(Change tool to Default tool)

G00 Z5.000000
G00 X38.236559 Y72.599477
M3S030
G01 Z-1.000000 F100.0(Penetrate)
G01 X38.793769 Y72.042267 Z-1.000000 F2000.000000
G01 X38.236559 Y72.599477 Z-1.000000
G00 Z5.000000
M5
(End cutting path id: path2330)


(Start cutting path id: path2328)
(Change tool to Default tool)

G00 Z5.000000
G00 X37.679349 Y72.599477
M3S030
G01 Z-1.000000 F100.0(Penetrate)
G01 X38.236559 Y72.042267 Z-1.000000 F2000.000000
G01 X37.679349 Y72.599477 Z-1.000000
G00 Z5.000000
M5
(End cutting path id: path2328)


(Start cutting path id: path2326)
(Change tool to Default tool)

G00 Z5.000000
G00 X83.370574 Y73.156687
M3S030
G01 Z-1.000000 F100.0(Penetrate)
G01 X83.927784 Y72.599477 Z-1.000000 F2000.000000
G01 X83.370574 Y73.156687 Z-1.000000
G00 Z5.000000
M5
(End cutting path id: path2326)


(Start cutting path id: path2324)
(Change tool to Default tool)

G00 Z5.000000
G00 X82.813364 Y73.156687
M3S030
G01 Z-1.000000 F100.0(Penetrate)
G01 X83.370574 Y72.599477 Z-1.000000 F2000.000000
G01 X82.813364 Y73.156687 Z-1.000000
G00 Z5.000000
M5
(End cutting path id: path2324)


(Start cutting path id: path2322)
(Change tool to Default tool)

G00 Z5.000000
G00 X37.679349 Y73.156687
M3S030
G01 Z-1.000000 F100.0(Penetrate)
G01 X38.236559 Y72.599477 Z-1.000000 F2000.000000
G01 X37.679349 Y73.156687 Z-1.000000
G00 Z5.000000
M5
(End cutting path id: path2322)


(Start cutting path id: path2320)
(Change tool to Default tool)

G00 Z5.000000
G00 X83.927784 Y73.713897
M3S030
G01 Z-1.000000 F100.0(Penetrate)
G01 X84.484994 Y73.156687 Z-1.000000 F2000.000000
G01 X83.927784 Y73.713897 Z-1.000000
G00 Z5.000000
M5
(End cutting path id: path2320)


(Start cutting path id: path2318)
(Change tool to Default tool)

G00 Z5.000000
G00 X83.370574 Y73.713897
M3S030
G01 Z-1.000000 F100.0(Penetrate)
G01 X83.927784 Y73.156687 Z-1.000000 F2000.000000
G01 X83.370574 Y73.713897 Z-1.000000
G00 Z5.000000
M5
(End cutting path id: path2318)


(Start cutting path id: path2316)
(Change tool to Default tool)

G00 Z5.000000
G00 X37.122139 Y73.713897
M3S030
G01 Z-1.000000 F100.0(Penetrate)
G01 X37.679349 Y73.156687 Z-1.000000 F2000.000000
G01 X37.122139 Y73.713897 Z-1.000000
G00 Z5.000000
M5
(End cutting path id: path2316)


(Start cutting path id: path2314)
(Change tool to Default tool)

G00 Z5.000000
G00 X36.564929 Y73.713897
M3S030
G01 Z-1.000000 F100.0(Penetrate)
G01 X36.564929 Y73.156687 Z-1.000000 F2000.000000
G01 X37.679349 Y72.599477 Z-1.000000
G01 X37.122139 Y73.713897 Z-1.000000
G01 X36.564929 Y73.713897 Z-1.000000
G00 Z5.000000
M5
(End cutting path id: path2314)


(Start cutting path id: path2312)
(Change tool to Default tool)

G00 Z5.000000
G00 X84.484994 Y74.271107
M3S030
G01 Z-1.000000 F100.0(Penetrate)
G01 X85.042204 Y73.713897 Z-1.000000 F2000.000000
G01 X84.484994 Y74.271107 Z-1.000000
G00 Z5.000000
M5
(End cutting path id: path2312)


(Start cutting path id: path2310)
(Change tool to Default tool)

G00 Z5.000000
G00 X83.927784 Y74.271107
M3S030
G01 Z-1.000000 F100.0(Penetrate)
G01 X84.484994 Y73.713897 Z-1.000000 F2000.000000
G01 X83.927784 Y74.271107 Z-1.000000
G00 Z5.000000
M5
(End cutting path id: path2310)


(Start cutting path id: path2308)
(Change tool to Default tool)

G00 Z5.000000
G00 X36.564929 Y74.271107
M3S030
G01 Z-1.000000 F100.0(Penetrate)
G01 X37.122139 Y73.713897 Z-1.000000 F2000.000000
G01 X36.564929 Y74.271107 Z-1.000000
G00 Z5.000000
M5
(End cutting path id: path2308)


(Start cutting path id: path2306)
(Change tool to Default tool)

G00 Z5.000000
G00 X36.007719 Y74.271107
M3S030
G01 Z-1.000000 F100.0(Penetrate)
G01 X36.564929 Y73.713897 Z-1.000000 F2000.000000
G01 X36.007719 Y74.271107 Z-1.000000
G00 Z5.000000
M5
(End cutting path id: path2306)


(Start cutting path id: path2304)
(Change tool to Default tool)

G00 Z5.000000
G00 X85.042204 Y74.828317
M3S030
G01 Z-1.000000 F100.0(Penetrate)
G01 X85.599414 Y74.271107 Z-1.000000 F2000.000000
G01 X85.042204 Y74.828317 Z-1.000000
G00 Z5.000000
M5
(End cutting path id: path2304)


(Start cutting path id: path2302)
(Change tool to Default tool)

G00 Z5.000000
G00 X84.484994 Y74.828317
M3S030
G01 Z-1.000000 F100.0(Penetrate)
G01 X85.042204 Y74.271107 Z-1.000000 F2000.000000
G01 X84.484994 Y74.828317 Z-1.000000
G00 Z5.000000
M5
(End cutting path id: path2302)


(Start cutting path id: path2300)
(Change tool to Default tool)

G00 Z5.000000
G00 X36.007719 Y74.828317
M3S030
G01 Z-1.000000 F100.0(Penetrate)
G01 X36.564929 Y74.271107 Z-1.000000 F2000.000000
G01 X36.007719 Y74.828317 Z-1.000000
G00 Z5.000000
M5
(End cutting path id: path2300)


(Start cutting path id: path2298)
(Change tool to Default tool)

G00 Z5.000000
G00 X35.450509 Y74.828317
M3S030
G01 Z-1.000000 F100.0(Penetrate)
G01 X36.007719 Y74.271107 Z-1.000000 F2000.000000
G01 X35.450509 Y74.828317 Z-1.000000
G00 Z5.000000
M5
(End cutting path id: path2298)


(Start cutting path id: path2296)
(Change tool to Default tool)

G00 Z5.000000
G00 X85.599414 Y75.385527
M3S030
G01 Z-1.000000 F100.0(Penetrate)
G01 X86.156624 Y74.828317 Z-1.000000 F2000.000000
G01 X85.599414 Y75.385527 Z-1.000000
G00 Z5.000000
M5
(End cutting path id: path2296)


(Start cutting path id: path2294)
(Change tool to Default tool)

G00 Z5.000000
G00 X85.042204 Y75.385527
M3S030
G01 Z-1.000000 F100.0(Penetrate)
G01 X85.599414 Y74.828317 Z-1.000000 F2000.000000
G01 X85.042204 Y75.385527 Z-1.000000
G00 Z5.000000
M5
(End cutting path id: path2294)


(Start cutting path id: path2292)
(Change tool to Default tool)

G00 Z5.000000
G00 X35.450509 Y75.385527
M3S030
G01 Z-1.000000 F100.0(Penetrate)
G01 X36.007719 Y74.828317 Z-1.000000 F2000.000000
G01 X35.450509 Y75.385527 Z-1.000000
G00 Z5.000000
M5
(End cutting path id: path2292)


(Start cutting path id: path2290)
(Change tool to Default tool)

G00 Z5.000000
G00 X34.893299 Y75.385527
M3S030
G01 Z-1.000000 F100.0(Penetrate)
G01 X35.450509 Y74.828317 Z-1.000000 F2000.000000
G01 X34.893299 Y75.385527 Z-1.000000
G00 Z5.000000
M5
(End cutting path id: path2290)


(Start cutting path id: path2288)
(Change tool to Default tool)

G00 Z5.000000
G00 X86.156624 Y75.942737
M3S030
G01 Z-1.000000 F100.0(Penetrate)
G01 X86.713834 Y75.385527 Z-1.000000 F2000.000000
G01 X86.156624 Y75.942737 Z-1.000000
G00 Z5.000000
M5
(End cutting path id: path2288)


(Start cutting path id: path2286)
(Change tool to Default tool)

G00 Z5.000000
G00 X85.599414 Y75.942737
M3S030
G01 Z-1.000000 F100.0(Penetrate)
G01 X86.156624 Y75.385527 Z-1.000000 F2000.000000
G01 X85.599414 Y75.942737 Z-1.000000
G00 Z5.000000
M5
(End cutting path id: path2286)


(Start cutting path id: path2284)
(Change tool to Default tool)

G00 Z5.000000
G00 X34.893299 Y75.942737
M3S030
G01 Z-1.000000 F100.0(Penetrate)
G01 X35.450509 Y75.385527 Z-1.000000 F2000.000000
G01 X34.893299 Y75.942737 Z-1.000000
G00 Z5.000000
M5
(End cutting path id: path2284)


(Start cutting path id: path2282)
(Change tool to Default tool)

G00 Z5.000000
G00 X86.156624 Y76.499947
M3S030
G01 Z-1.000000 F100.0(Penetrate)
G01 X86.713834 Y75.942737 Z-1.000000 F2000.000000
G01 X86.156624 Y76.499947 Z-1.000000
G00 Z5.000000
M5
(End cutting path id: path2282)


(Start cutting path id: path2280)
(Change tool to Default tool)

G00 Z5.000000
G00 X34.521807 Y76.128288
M3S030
G01 Z-1.000000 F100.0(Penetrate)
G01 X34.521807 Y75.757186 Z-1.000000 F2000.000000
G01 X34.707580 Y75.757186 Z-1.000000
G01 X34.707580 Y75.942737 Z-1.000000
G01 X34.521807 Y76.128288 Z-1.000000
G00 Z5.000000
M5
(End cutting path id: path2280)


(Start cutting path id: path2278)
(Change tool to Default tool)

G00 Z5.000000
G00 X33.778878 Y77.057157
M3S030
G01 Z-1.000000 F100.0(Penetrate)
G01 X34.336088 Y76.499947 Z-1.000000 F2000.000000
G01 X33.778878 Y77.057157 Z-1.000000
G00 Z5.000000
M5
(End cutting path id: path2278)


(Start cutting path id: path2276)
(Change tool to Default tool)

G00 Z5.000000
G00 X87.271044 Y77.614368
M3S030
G01 Z-1.000000 F100.0(Penetrate)
G01 X86.713834 Y77.057157 Z-1.000000 F2000.000000
G01 X86.713834 Y75.942737 Z-1.000000
G01 X87.332894 Y76.360645 Z-1.000000
G01 X87.534047 Y76.949059 Z-1.000000
G01 X87.611500 Y77.196460 Z-1.000000
G01 X87.271044 Y77.614368 Z-1.000000
G00 Z5.000000
M5
(End cutting path id: path2276)


(Start cutting path id: path2274)
(Change tool to Default tool)

G00 Z5.000000
G00 X33.778878 Y77.614368
M3S030
G01 Z-1.000000 F100.0(Penetrate)
G01 X34.336088 Y77.057157 Z-1.000000 F2000.000000
G01 X33.778878 Y77.614368 Z-1.000000
G00 Z5.000000
M5
(End cutting path id: path2274)


(Start cutting path id: path2272)
(Change tool to Default tool)

G00 Z5.000000
G00 X33.221668 Y77.614368
M3S030
G01 Z-1.000000 F100.0(Penetrate)
G01 X33.778878 Y77.057157 Z-1.000000 F2000.000000
G01 X33.221668 Y77.614368 Z-1.000000
G00 Z5.000000
M5
(End cutting path id: path2272)


(Start cutting path id: path2270)
(Change tool to Default tool)

G00 Z5.000000
G00 X87.828254 Y78.171578
M3S030
G01 Z-1.000000 F100.0(Penetrate)
G01 X88.385464 Y77.614368 Z-1.000000 F2000.000000
G01 X87.828254 Y78.171578 Z-1.000000
G00 Z5.000000
M5
(End cutting path id: path2270)


(Start cutting path id: path2268)
(Change tool to Default tool)

G00 Z5.000000
G00 X87.271044 Y78.171578
M3S030
G01 Z-1.000000 F100.0(Penetrate)
G01 X87.828254 Y77.614368 Z-1.000000 F2000.000000
G01 X87.271044 Y78.171578 Z-1.000000
G00 Z5.000000
M5
(End cutting path id: path2268)


(Start cutting path id: path2266)
(Change tool to Default tool)

G00 Z5.000000
G00 X33.221668 Y78.171578
M3S030
G01 Z-1.000000 F100.0(Penetrate)
G01 X33.778878 Y77.614368 Z-1.000000 F2000.000000
G01 X33.221668 Y78.171578 Z-1.000000
G00 Z5.000000
M5
(End cutting path id: path2266)


(Start cutting path id: path2264)
(Change tool to Default tool)

G00 Z5.000000
G00 X32.664458 Y78.171578
M3S030
G01 Z-1.000000 F100.0(Penetrate)
G01 X33.221668 Y77.614368 Z-1.000000 F2000.000000
G01 X32.664458 Y78.171578 Z-1.000000
G00 Z5.000000
M5
(End cutting path id: path2264)


(Start cutting path id: path2262)
(Change tool to Default tool)

G00 Z5.000000
G00 X160.265562 Y78.728788
M3S030
G01 Z-1.000000 F100.0(Penetrate)
G01 X160.699071 Y78.326482 Z-1.000000 F2000.000000
G01 X160.993278 Y78.310880 Z-1.000000
G01 X161.441832 Y78.202781 Z-1.000000
G01 X161.952794 Y78.187179 Z-1.000000
G01 X163.020409 Y78.171578 Z-1.000000
G01 X163.577619 Y78.171578 Z-1.000000
G01 X164.723242 Y78.171578 Z-1.000000
G01 X164.289733 Y78.573883 Z-1.000000
G01 X163.995526 Y78.589485 Z-1.000000
G01 X163.546972 Y78.697584 Z-1.000000
G01 X163.036010 Y78.713186 Z-1.000000
G01 X161.968396 Y78.728788 Z-1.000000
G01 X161.411186 Y78.728788 Z-1.000000
G01 X160.265562 Y78.728788 Z-1.000000
G00 Z5.000000
M5
(End cutting path id: path2262)


(Start cutting path id: path2262)
(Change tool to Default tool)

G00 Z5.000000
G00 X208.185627 Y78.728788
M3S030
G01 Z-1.000000 F100.0(Penetrate)
G01 X208.619137 Y78.326482 Z-1.000000 F2000.000000
G01 X208.913344 Y78.310880 Z-1.000000
G01 X209.361898 Y78.202781 Z-1.000000
G01 X209.872859 Y78.187179 Z-1.000000
G01 X210.383264 Y78.171578 Z-1.000000
G01 X210.940474 Y78.171578 Z-1.000000
G01 X212.086098 Y78.171578 Z-1.000000
G01 X211.652588 Y78.573883 Z-1.000000
G01 X211.358381 Y78.589485 Z-1.000000
G01 X210.909827 Y78.697584 Z-1.000000
G01 X210.398866 Y78.713186 Z-1.000000
G01 X209.888461 Y78.728788 Z-1.000000
G01 X209.331251 Y78.728788 Z-1.000000
G01 X208.185627 Y78.728788 Z-1.000000
G00 Z5.000000
M5
(End cutting path id: path2262)


(Start cutting path id: path2260)
(Change tool to Default tool)

G00 Z5.000000
G00 X157.479512 Y78.728788
M3S030
G01 Z-1.000000 F100.0(Penetrate)
G01 X157.913021 Y78.326482 Z-1.000000 F2000.000000
G01 X158.207228 Y78.310880 Z-1.000000
G01 X158.625136 Y78.202781 Z-1.000000
G01 X159.135540 Y78.187179 Z-1.000000
G01 X160.265562 Y78.171578 Z-1.000000
G01 X159.832053 Y78.573883 Z-1.000000
G01 X159.537846 Y78.589485 Z-1.000000
G01 X159.119938 Y78.697584 Z-1.000000
G01 X158.609534 Y78.713186 Z-1.000000
G01 X157.479512 Y78.728788 Z-1.000000
G00 Z5.000000
M5
(End cutting path id: path2260)


(Start cutting path id: path2258)
(Change tool to Default tool)

G00 Z5.000000
G00 X145.220890 Y78.728788
M3S030
G01 Z-1.000000 F100.0(Penetrate)
G01 X145.654400 Y78.326482 Z-1.000000 F2000.000000
G01 X145.948607 Y78.310880 Z-1.000000
G01 X146.366514 Y78.202781 Z-1.000000
G01 X146.876919 Y78.187179 Z-1.000000
G01 X148.006941 Y78.171578 Z-1.000000
G01 X147.573431 Y78.573883 Z-1.000000
G01 X147.279224 Y78.589485 Z-1.000000
G01 X146.861317 Y78.697584 Z-1.000000
G01 X146.350912 Y78.713186 Z-1.000000
G01 X145.220890 Y78.728788 Z-1.000000
G00 Z5.000000
M5
(End cutting path id: path2258)


(Start cutting path id: path2256)
(Change tool to Default tool)

G00 Z5.000000
G00 X88.385464 Y78.728788
M3S030
G01 Z-1.000000 F100.0(Penetrate)
G01 X88.942674 Y78.171578 Z-1.000000 F2000.000000
G01 X88.385464 Y78.728788 Z-1.000000
G00 Z5.000000
M5
(End cutting path id: path2256)


(Start cutting path id: path2254)
(Change tool to Default tool)

G00 Z5.000000
G00 X87.828254 Y78.728788
M3S030
G01 Z-1.000000 F100.0(Penetrate)
G01 X88.385464 Y78.171578 Z-1.000000 F2000.000000
G01 X87.828254 Y78.728788 Z-1.000000
G00 Z5.000000
M5
(End cutting path id: path2254)


(Start cutting path id: path2252)
(Change tool to Default tool)

G00 Z5.000000
G00 X32.664458 Y78.728788
M3S030
G01 Z-1.000000 F100.0(Penetrate)
G01 X33.221668 Y78.171578 Z-1.000000 F2000.000000
G01 X32.664458 Y78.728788 Z-1.000000
G00 Z5.000000
M5
(End cutting path id: path2252)


(Start cutting path id: path2250)
(Change tool to Default tool)

G00 Z5.000000
G00 X223.787509 Y79.285998
M3S030
G01 Z-1.000000 F100.0(Penetrate)
G01 X224.221018 Y78.883692 Z-1.000000 F2000.000000
G01 X224.484021 Y78.868090 Z-1.000000
G01 X224.933133 Y78.759991 Z-1.000000
G01 X226.016349 Y78.728788 Z-1.000000
G01 X225.582840 Y79.131093 Z-1.000000
G01 X225.319837 Y79.146695 Z-1.000000
G01 X224.870725 Y79.254794 Z-1.000000
G01 X223.787509 Y79.285998 Z-1.000000
G00 Z5.000000
M5
(End cutting path id: path2250)


(Start cutting path id: path2250)
(Change tool to Default tool)

G00 Z5.000000
G00 X244.404281 Y79.285998
M3S030
G01 Z-1.000000 F100.0(Penetrate)
G01 X244.837791 Y78.883692 Z-1.000000 F2000.000000
G01 X245.100794 Y78.868090 Z-1.000000
G01 X245.549905 Y78.759991 Z-1.000000
G01 X246.633121 Y78.728788 Z-1.000000
G01 X246.199612 Y79.131093 Z-1.000000
G01 X245.936609 Y79.146695 Z-1.000000
G01 X245.487497 Y79.254794 Z-1.000000
G01 X244.404281 Y79.285998 Z-1.000000
G00 Z5.000000
M5
(End cutting path id: path2250)


(Start cutting path id: path2248)
(Change tool to Default tool)

G00 Z5.000000
G00 X213.572177 Y79.100447
M3S030
G01 Z-1.000000 F100.0(Penetrate)
G01 X213.572177 Y78.914339 Z-1.000000 F2000.000000
G01 X213.943279 Y78.914339 Z-1.000000
G01 X213.943279 Y79.100447 Z-1.000000
G01 X213.572177 Y79.100447 Z-1.000000
G00 Z5.000000
M5
(End cutting path id: path2248)


(Start cutting path id: path2246)
(Change tool to Default tool)

G00 Z5.000000
G00 X178.096284 Y79.285998
M3S030
G01 Z-1.000000 F100.0(Penetrate)
G01 X178.529793 Y78.883692 Z-1.000000 F2000.000000
G01 X178.824000 Y78.868090 Z-1.000000
G01 X179.272554 Y78.759991 Z-1.000000
G01 X179.783516 Y78.744390 Z-1.000000
G01 X180.882334 Y78.728788 Z-1.000000
G01 X181.439544 Y78.728788 Z-1.000000
G01 X182.553964 Y78.728788 Z-1.000000
G01 X189.797695 Y78.728788 Z-1.000000
G01 X189.364186 Y79.131093 Z-1.000000
G01 X189.069979 Y79.146695 Z-1.000000
G01 X188.621425 Y79.254794 Z-1.000000
G01 X188.110463 Y79.270396 Z-1.000000
G01 X187.011645 Y79.285998 Z-1.000000
G01 X186.454435 Y79.285998 Z-1.000000
G01 X185.340015 Y79.285998 Z-1.000000
G01 X178.096284 Y79.285998 Z-1.000000
G00 Z5.000000
M5
(End cutting path id: path2246)


(Start cutting path id: path2244)
(Change tool to Default tool)

G00 Z5.000000
G00 X166.209322 Y79.100447
M3S030
G01 Z-1.000000 F100.0(Penetrate)
G01 X166.209322 Y78.914339 Z-1.000000 F2000.000000
G01 X166.580424 Y78.914339 Z-1.000000
G01 X166.394873 Y79.100447 Z-1.000000
G01 X166.209322 Y79.100447 Z-1.000000
G00 Z5.000000
M5
(End cutting path id: path2244)


(Start cutting path id: path2242)
(Change tool to Default tool)

G00 Z5.000000
G00 X157.479512 Y79.285998
M3S030
G01 Z-1.000000 F100.0(Penetrate)
G01 X157.881817 Y78.883692 Z-1.000000 F2000.000000
G01 X158.176024 Y78.868090 Z-1.000000
G01 X159.151142 Y78.728788 Z-1.000000
G01 X158.748836 Y79.131093 Z-1.000000
G01 X158.454629 Y79.146695 Z-1.000000
G01 X157.479512 Y79.285998 Z-1.000000
G00 Z5.000000
M5
(End cutting path id: path2242)


(Start cutting path id: path2240)
(Change tool to Default tool)

G00 Z5.000000
G00 X124.604118 Y79.285998
M3S030
G01 Z-1.000000 F100.0(Penetrate)
G01 X125.037628 Y78.883692 Z-1.000000 F2000.000000
G01 X125.331835 Y78.868090 Z-1.000000
G01 X125.780389 Y78.759991 Z-1.000000
G01 X126.291350 Y78.744390 Z-1.000000
G01 X127.390168 Y78.728788 Z-1.000000
G01 X127.947379 Y78.728788 Z-1.000000
G01 X129.619009 Y78.728788 Z-1.000000
G01 X139.648790 Y78.728788 Z-1.000000
G01 X139.215280 Y79.131093 Z-1.000000
G01 X138.921073 Y79.146695 Z-1.000000
G01 X138.472519 Y79.254794 Z-1.000000
G01 X137.961558 Y79.270396 Z-1.000000
G01 X136.862739 Y79.285998 Z-1.000000
G01 X136.305529 Y79.285998 Z-1.000000
G01 X134.633899 Y79.285998 Z-1.000000
G01 X124.604118 Y79.285998 Z-1.000000
G00 Z5.000000
M5
(End cutting path id: path2240)


(Start cutting path id: path2238)
(Change tool to Default tool)

G00 Z5.000000
G00 X88.385464 Y79.285998
M3S030
G01 Z-1.000000 F100.0(Penetrate)
G01 X88.942674 Y78.728788 Z-1.000000 F2000.000000
G01 X88.385464 Y79.285998 Z-1.000000
G00 Z5.000000
M5
(End cutting path id: path2238)


(Start cutting path id: path2236)
(Change tool to Default tool)

G00 Z5.000000
G00 X49.937970 Y79.285998
M3S030
G01 Z-1.000000 F100.0(Penetrate)
G01 X50.371368 Y78.883692 Z-1.000000 F2000.000000
G01 X50.665464 Y78.868090 Z-1.000000
G01 X51.114296 Y78.759991 Z-1.000000
G01 X51.625091 Y78.744390 Z-1.000000
G01 X52.724020 Y78.728788 Z-1.000000
G01 X53.807460 Y78.728788 Z-1.000000
G01 X55.510071 Y78.728788 Z-1.000000
G01 X55.076673 Y79.131093 Z-1.000000
G01 X54.782577 Y79.146695 Z-1.000000
G01 X54.333745 Y79.254794 Z-1.000000
G01 X53.822950 Y79.270396 Z-1.000000
G01 X52.724020 Y79.285998 Z-1.000000
G01 X51.640581 Y79.285998 Z-1.000000
G01 X49.937970 Y79.285998 Z-1.000000
G00 Z5.000000
M5
(End cutting path id: path2236)


(Start cutting path id: path2234)
(Change tool to Default tool)

G00 Z5.000000
G00 X203.170737 Y79.843208
M3S030
G01 Z-1.000000 F100.0(Penetrate)
G01 X203.604246 Y79.285998 Z-1.000000 F2000.000000
G01 X203.898453 Y79.162297 Z-1.000000
G01 X204.347007 Y78.852488 Z-1.000000
G01 X205.399577 Y78.434581 Z-1.000000
G01 X206.482793 Y78.217826 Z-1.000000
G01 X207.040003 Y78.187179 Z-1.000000
G01 X208.185627 Y78.171578 Z-1.000000
G01 X207.752118 Y78.589485 Z-1.000000
G01 X207.457911 Y78.635734 Z-1.000000
G01 X206.498395 Y78.976189 Z-1.000000
G01 X205.399577 Y79.379052 Z-1.000000
G01 X204.873571 Y79.580205 Z-1.000000
G01 X204.006552 Y79.796959 Z-1.000000
G01 X203.170737 Y79.843208 Z-1.000000
G00 Z5.000000
M5
(End cutting path id: path2234)


(Start cutting path id: path2232)
(Change tool to Default tool)

G00 Z5.000000
G00 X164.723242 Y78.728788
M3S030
G01 Z-1.000000 F100.0(Penetrate)
G01 X165.156752 Y78.326482 Z-1.000000 F2000.000000
G01 X165.450959 Y78.310880 Z-1.000000
G01 X165.899513 Y78.217826 Z-1.000000
G01 X166.410475 Y78.233428 Z-1.000000
G01 X167.478089 Y78.418979 Z-1.000000
G01 X168.345108 Y78.744390 Z-1.000000
G01 X169.180923 Y79.285998 Z-1.000000
G01 X168.747414 Y79.642055 Z-1.000000
G01 X168.453207 Y79.564603 Z-1.000000
G01 X168.004653 Y79.549001 Z-1.000000
G01 X167.493691 Y79.363450 Z-1.000000
G01 X166.426076 Y78.991791 Z-1.000000
G01 X165.559058 Y78.775036 Z-1.000000
G01 X164.723242 Y78.728788 Z-1.000000
G00 Z5.000000
M5
(End cutting path id: path2232)


(Start cutting path id: path2230)
(Change tool to Default tool)

G00 Z5.000000
G00 X89.128225 Y79.471549
M3S030
G01 Z-1.000000 F100.0(Penetrate)
G01 X89.128225 Y79.285998 Z-1.000000 F2000.000000
G01 X89.314333 Y79.100447 Z-1.000000
G01 X89.314333 Y79.285998 Z-1.000000
G01 X89.128225 Y79.471549 Z-1.000000
G00 Z5.000000
M5
(End cutting path id: path2230)


(Start cutting path id: path2228)
(Change tool to Default tool)

G00 Z5.000000
G00 X55.510071 Y79.843208
M3S030
G01 Z-1.000000 F100.0(Penetrate)
G01 X55.912488 Y79.440902 Z-1.000000 F2000.000000
G01 X56.206583 Y79.425300 Z-1.000000
G01 X57.181701 Y79.285998 Z-1.000000
G01 X56.779284 Y79.688303 Z-1.000000
G01 X56.485188 Y79.703905 Z-1.000000
G01 X55.510071 Y79.843208 Z-1.000000
G00 Z5.000000
M5
(End cutting path id: path2228)


(Start cutting path id: path2226)
(Change tool to Default tool)

G00 Z5.000000
G00 X50.866672 Y79.657657
M3S030
G01 Z-1.000000 F100.0(Penetrate)
G01 X51.052390 Y79.471549 Z-1.000000 F2000.000000
G01 X51.238108 Y79.471549 Z-1.000000
G01 X51.238108 Y79.657657 Z-1.000000
G01 X50.866672 Y79.657657 Z-1.000000
G00 Z5.000000
M5
(End cutting path id: path2226)


(Start cutting path id: path2224)
(Change tool to Default tool)

G00 Z5.000000
G00 X48.823550 Y79.843208
M3S030
G01 Z-1.000000 F100.0(Penetrate)
G01 X49.225967 Y79.440902 Z-1.000000 F2000.000000
G01 X49.520063 Y79.425300 Z-1.000000
G01 X50.495180 Y79.285998 Z-1.000000
G01 X50.092763 Y79.688303 Z-1.000000
G01 X49.798668 Y79.703905 Z-1.000000
G01 X48.823550 Y79.843208 Z-1.000000
G00 Z5.000000
M5
(End cutting path id: path2224)


(Start cutting path id: path2222)
(Change tool to Default tool)

G00 Z5.000000
G00 X32.107248 Y79.843208
M3S030
G01 Z-1.000000 F100.0(Penetrate)
G01 X32.664458 Y79.285998 Z-1.000000 F2000.000000
G01 X32.107248 Y79.843208 Z-1.000000
G00 Z5.000000
M5
(End cutting path id: path2222)


(Start cutting path id: path2220)
(Change tool to Default tool)

G00 Z5.000000
G00 X31.550038 Y79.843208
M3S030
G01 Z-1.000000 F100.0(Penetrate)
G01 X31.921530 Y78.868090 Z-1.000000 F2000.000000
G01 X32.029852 Y78.573883 Z-1.000000
G01 X32.664458 Y78.171578 Z-1.000000
G01 X32.292966 Y79.146695 Z-1.000000
G01 X32.184645 Y79.440902 Z-1.000000
G01 X31.550038 Y79.843208 Z-1.000000
G00 Z5.000000
M5
(End cutting path id: path2220)


(Start cutting path id: path2218)
(Change tool to Default tool)

G00 Z5.000000
G00 X89.499884 Y80.400418
M3S030
G01 Z-1.000000 F100.0(Penetrate)
G01 X90.057094 Y79.843208 Z-1.000000 F2000.000000
G01 X89.499884 Y80.400418 Z-1.000000
G00 Z5.000000
M5
(End cutting path id: path2218)


(Start cutting path id: path2216)
(Change tool to Default tool)

G00 Z5.000000
G00 X88.942674 Y80.400418
M3S030
G01 Z-1.000000 F100.0(Penetrate)
G01 X89.499884 Y79.843208 Z-1.000000 F2000.000000
G01 X88.942674 Y80.400418 Z-1.000000
G00 Z5.000000
M5
(End cutting path id: path2216)


(Start cutting path id: path2214)
(Change tool to Default tool)

G00 Z5.000000
G00 X58.667613 Y80.214867
M3S030
G01 Z-1.000000 F100.0(Penetrate)
G01 X58.853331 Y80.028759 Z-1.000000 F2000.000000
G01 X59.039049 Y80.028759 Z-1.000000
G01 X58.853331 Y80.214867 Z-1.000000
G01 X58.667613 Y80.214867 Z-1.000000
G00 Z5.000000
M5
(End cutting path id: path2214)


(Start cutting path id: path2212)
(Change tool to Default tool)

G00 Z5.000000
G00 X47.523412 Y80.214867
M3S030
G01 Z-1.000000 F100.0(Penetrate)
G01 X47.709130 Y80.028759 Z-1.000000 F2000.000000
G01 X47.894848 Y80.028759 Z-1.000000
G01 X47.894848 Y80.214867 Z-1.000000
G01 X47.523412 Y80.214867 Z-1.000000
G00 Z5.000000
M5
(End cutting path id: path2212)


(Start cutting path id: path2210)
(Change tool to Default tool)

G00 Z5.000000
G00 X31.550038 Y80.400418
M3S030
G01 Z-1.000000 F100.0(Penetrate)
G01 X32.107248 Y79.843208 Z-1.000000 F2000.000000
G01 X31.550038 Y80.400418 Z-1.000000
G00 Z5.000000
M5
(End cutting path id: path2210)


(Start cutting path id: path2208)
(Change tool to Default tool)

G00 Z5.000000
G00 X217.100988 Y80.957628
M3S030
G01 Z-1.000000 F100.0(Penetrate)
G01 X216.265173 Y80.276717 Z-1.000000 F2000.000000
G01 X215.398154 Y79.735109 Z-1.000000
G01 X214.872148 Y79.440902 Z-1.000000
G01 X213.788932 Y78.991791 Z-1.000000
G01 X212.921913 Y78.775036 Z-1.000000
G01 X212.086098 Y78.728788 Z-1.000000
G01 X212.519607 Y78.326482 Z-1.000000
G01 X212.813814 Y78.310880 Z-1.000000
G01 X213.773330 Y78.233428 Z-1.000000
G01 X214.872148 Y78.434581 Z-1.000000
G01 X215.986568 Y78.883692 Z-1.000000
G01 X217.039138 Y79.518354 Z-1.000000
G01 X217.487692 Y79.951307 Z-1.000000
G01 X217.781899 Y80.168061 Z-1.000000
G01 X218.215408 Y80.957628 Z-1.000000
G01 X217.100988 Y80.957628 Z-1.000000
G00 Z5.000000
M5
(End cutting path id: path2208)


(Start cutting path id: path2206)
(Change tool to Default tool)

G00 Z5.000000
G00 X208.185627 Y80.957628
M3S030
G01 Z-1.000000 F100.0(Penetrate)
G01 X208.619137 Y80.555322 Z-1.000000 F2000.000000
G01 X208.913344 Y80.539720 Z-1.000000
G01 X209.361898 Y80.431622 Z-1.000000
G01 X209.872859 Y80.416020 Z-1.000000
G01 X210.383264 Y80.400418 Z-1.000000
G01 X210.940474 Y80.400418 Z-1.000000
G01 X212.086098 Y80.400418 Z-1.000000
G01 X211.652588 Y80.802723 Z-1.000000
G01 X211.358381 Y80.818325 Z-1.000000
G01 X210.909827 Y80.926424 Z-1.000000
G01 X210.398866 Y80.942026 Z-1.000000
G01 X209.888461 Y80.957628 Z-1.000000
G01 X209.331251 Y80.957628 Z-1.000000
G01 X208.185627 Y80.957628 Z-1.000000
G00 Z5.000000
M5
(End cutting path id: path2206)


(Start cutting path id: path2204)
(Change tool to Default tool)

G00 Z5.000000
G00 X202.056317 Y80.957628
M3S030
G01 Z-1.000000 F100.0(Penetrate)
G01 X202.458622 Y80.322966 Z-1.000000 F2000.000000
G01 X202.752829 Y80.214867 Z-1.000000
G01 X203.727947 Y79.843208 Z-1.000000
G01 X203.170737 Y80.957628 Z-1.000000
G01 X202.056317 Y80.957628 Z-1.000000
G00 Z5.000000
M5
(End cutting path id: path2204)


(Start cutting path id: path2202)
(Change tool to Default tool)

G00 Z5.000000
G00 X193.698166 Y80.957628
M3S030
G01 Z-1.000000 F100.0(Penetrate)
G01 X192.862351 Y80.400418 Z-1.000000 F2000.000000
G01 X192.552542 Y80.276717 Z-1.000000
G01 X191.995332 Y79.966908 Z-1.000000
G01 X191.469325 Y79.750154 Z-1.000000
G01 X190.912115 Y79.502752 Z-1.000000
G01 X189.797695 Y79.115491 Z-1.000000
G01 X189.240485 Y78.961144 Z-1.000000
G01 X188.126065 Y78.775036 Z-1.000000
G01 X187.011645 Y78.728788 Z-1.000000
G01 X186.454435 Y78.728788 Z-1.000000
G01 X185.340015 Y78.728788 Z-1.000000
G01 X183.668385 Y78.728788 Z-1.000000
G01 X181.996754 Y78.728788 Z-1.000000
G01 X181.439544 Y78.728788 Z-1.000000
G01 X180.882334 Y78.728788 Z-1.000000
G01 X179.767914 Y78.775036 Z-1.000000
G01 X179.241908 Y78.852488 Z-1.000000
G01 X178.684698 Y78.961144 Z-1.000000
G01 X177.539074 Y79.285998 Z-1.000000
G01 X177.740227 Y78.651335 Z-1.000000
G01 X177.941380 Y78.543237 Z-1.000000
G01 X178.281835 Y78.326482 Z-1.000000
G01 X179.226306 Y78.187179 Z-1.000000
G01 X179.767914 Y78.171578 Z-1.000000
G01 X180.882334 Y78.171578 Z-1.000000
G01 X181.439544 Y78.171578 Z-1.000000
G01 X182.553964 Y78.171578 Z-1.000000
G01 X186.454435 Y78.171578 Z-1.000000
G01 X187.568855 Y78.171578 Z-1.000000
G01 X188.126065 Y78.171578 Z-1.000000
G01 X189.240485 Y78.217826 Z-1.000000
G01 X190.354905 Y78.388332 Z-1.000000
G01 X190.912115 Y78.527635 Z-1.000000
G01 X191.469325 Y78.666937 Z-1.000000
G01 X192.568144 Y79.069243 Z-1.000000
G01 X193.079105 Y79.347848 Z-1.000000
G01 X193.821866 Y80.013714 Z-1.000000
G01 X193.930522 Y80.354169 Z-1.000000
G01 X194.038621 Y80.570924 Z-1.000000
G01 X193.698166 Y80.957628 Z-1.000000
G00 Z5.000000
M5
(End cutting path id: path2202)


(Start cutting path id: path2200)
(Change tool to Default tool)

G00 Z5.000000
G00 X169.738133 Y80.957628
M3S030
G01 Z-1.000000 F100.0(Penetrate)
G01 X169.180923 Y79.843208 Z-1.000000 F2000.000000
G01 X170.295343 Y79.843208 Z-1.000000
G01 X170.295343 Y80.957628 Z-1.000000
G01 X169.738133 Y80.957628 Z-1.000000
G00 Z5.000000
M5
(End cutting path id: path2200)


(Start cutting path id: path2198)
(Change tool to Default tool)

G00 Z5.000000
G00 X159.708352 Y80.957628
M3S030
G01 Z-1.000000 F100.0(Penetrate)
G01 X160.141861 Y80.555322 Z-1.000000 F2000.000000
G01 X160.436068 Y80.539720 Z-1.000000
G01 X160.884622 Y80.431622 Z-1.000000
G01 X161.395584 Y80.416020 Z-1.000000
G01 X162.494402 Y80.400418 Z-1.000000
G01 X163.020409 Y80.400418 Z-1.000000
G01 X164.723242 Y80.400418 Z-1.000000
G01 X164.289733 Y80.802723 Z-1.000000
G01 X163.995526 Y80.818325 Z-1.000000
G01 X163.546972 Y80.926424 Z-1.000000
G01 X163.036010 Y80.942026 Z-1.000000
G01 X161.937192 Y80.957628 Z-1.000000
G01 X161.411186 Y80.957628 Z-1.000000
G01 X159.708352 Y80.957628 Z-1.000000
G00 Z5.000000
M5
(End cutting path id: path2198)


(Start cutting path id: path2196)
(Change tool to Default tool)

G00 Z5.000000
G00 X154.136251 Y80.957628
M3S030
G01 Z-1.000000 F100.0(Penetrate)
G01 X154.198102 Y80.168061 Z-1.000000 F2000.000000
G01 X154.538557 Y79.533399 Z-1.000000
G01 X155.312522 Y79.007393 Z-1.000000
G01 X155.792280 Y78.868090 Z-1.000000
G01 X156.643697 Y78.744390 Z-1.000000
G01 X157.479512 Y78.728788 Z-1.000000
G01 X157.046002 Y79.177899 Z-1.000000
G01 X156.751795 Y79.285998 Z-1.000000
G01 X155.839085 Y79.781357 Z-1.000000
G01 X154.956465 Y80.369214 Z-1.000000
G01 X154.739710 Y80.570924 Z-1.000000
G01 X154.136251 Y80.957628 Z-1.000000
G00 Z5.000000
M5
(End cutting path id: path2196)


(Start cutting path id: path2194)
(Change tool to Default tool)

G00 Z5.000000
G00 X89.499884 Y80.957628
M3S030
G01 Z-1.000000 F100.0(Penetrate)
G01 X90.057094 Y80.400418 Z-1.000000 F2000.000000
G01 X89.499884 Y80.957628 Z-1.000000
G00 Z5.000000
M5
(End cutting path id: path2194)


(Start cutting path id: path2192)
(Change tool to Default tool)

G00 Z5.000000
G00 X59.410541 Y80.957628
M3S030
G01 Z-1.000000 F100.0(Penetrate)
G01 X59.967751 Y80.400418 Z-1.000000 F2000.000000
G01 X59.410541 Y80.957628 Z-1.000000
G00 Z5.000000
M5
(End cutting path id: path2192)


(Start cutting path id: path2190)
(Change tool to Default tool)

G00 Z5.000000
G00 X52.166810 Y80.957628
M3S030
G01 Z-1.000000 F100.0(Penetrate)
G01 X52.600208 Y80.555322 Z-1.000000 F2000.000000
G01 X52.894304 Y80.539720 Z-1.000000
G01 X53.312211 Y80.431622 Z-1.000000
G01 X53.822950 Y80.416020 Z-1.000000
G01 X54.952861 Y80.400418 Z-1.000000
G01 X54.519463 Y80.802723 Z-1.000000
G01 X54.225367 Y80.818325 Z-1.000000
G01 X53.807460 Y80.926424 Z-1.000000
G01 X53.296721 Y80.942026 Z-1.000000
G01 X52.166810 Y80.957628 Z-1.000000
G00 Z5.000000
M5
(End cutting path id: path2190)


(Start cutting path id: path2188)
(Change tool to Default tool)

G00 Z5.000000
G00 X46.594710 Y80.957628
M3S030
G01 Z-1.000000 F100.0(Penetrate)
G01 X47.151920 Y80.400418 Z-1.000000 F2000.000000
G01 X46.594710 Y80.957628 Z-1.000000
G00 Z5.000000
M5
(End cutting path id: path2188)


(Start cutting path id: path2186)
(Change tool to Default tool)

G00 Z5.000000
G00 X31.178546 Y80.585969
M3S030
G01 Z-1.000000 F100.0(Penetrate)
G01 X31.178546 Y80.214867 Z-1.000000 F2000.000000
G01 X31.364320 Y80.214867 Z-1.000000
G01 X31.364320 Y80.585969 Z-1.000000
G01 X31.178546 Y80.585969 Z-1.000000
G00 Z5.000000
M5
(End cutting path id: path2186)


(Start cutting path id: path2184)
(Change tool to Default tool)

G00 Z5.000000
G00 X201.499106 Y81.514838
M3S030
G01 Z-1.000000 F100.0(Penetrate)
G01 X202.056317 Y80.957628 Z-1.000000 F2000.000000
G01 X201.499106 Y81.514838 Z-1.000000
G00 Z5.000000
M5
(End cutting path id: path2184)


(Start cutting path id: path2182)
(Change tool to Default tool)

G00 Z5.000000
G00 X180.325124 Y81.514838
M3S030
G01 Z-1.000000 F100.0(Penetrate)
G01 X180.758634 Y81.112532 Z-1.000000 F2000.000000
G01 X181.052841 Y81.096930 Z-1.000000
G01 X181.501395 Y80.988832 Z-1.000000
G01 X182.012356 Y80.973230 Z-1.000000
G01 X182.553964 Y80.957628 Z-1.000000
G01 X183.111174 Y80.957628 Z-1.000000
G01 X184.225595 Y80.957628 Z-1.000000
G01 X190.354905 Y80.957628 Z-1.000000
G01 X189.921396 Y81.359934 Z-1.000000
G01 X189.627189 Y81.375535 Z-1.000000
G01 X189.178635 Y81.483634 Z-1.000000
G01 X188.667673 Y81.499236 Z-1.000000
G01 X188.126065 Y81.514838 Z-1.000000
G01 X187.568855 Y81.514838 Z-1.000000
G01 X186.454435 Y81.514838 Z-1.000000
G01 X180.325124 Y81.514838 Z-1.000000
G00 Z5.000000
M5
(End cutting path id: path2182)


(Start cutting path id: path2180)
(Change tool to Default tool)

G00 Z5.000000
G00 X158.593932 Y81.514838
M3S030
G01 Z-1.000000 F100.0(Penetrate)
G01 X159.027441 Y81.112532 Z-1.000000 F2000.000000
G01 X159.321648 Y81.096930 Z-1.000000
G01 X159.770202 Y80.988832 Z-1.000000
G01 X160.281164 Y80.973230 Z-1.000000
G01 X161.379982 Y80.957628 Z-1.000000
G01 X162.494402 Y80.957628 Z-1.000000
G01 X164.723242 Y80.957628 Z-1.000000
G01 X164.289733 Y81.359934 Z-1.000000
G01 X163.995526 Y81.375535 Z-1.000000
G01 X163.546972 Y81.483634 Z-1.000000
G01 X163.036010 Y81.499236 Z-1.000000
G01 X161.937192 Y81.514838 Z-1.000000
G01 X160.822772 Y81.514838 Z-1.000000
G01 X158.593932 Y81.514838 Z-1.000000
G00 Z5.000000
M5
(End cutting path id: path2180)


(Start cutting path id: path2178)
(Change tool to Default tool)

G00 Z5.000000
G00 X156.922302 Y81.514838
M3S030
G01 Z-1.000000 F100.0(Penetrate)
G01 X157.324607 Y81.112532 Z-1.000000 F2000.000000
G01 X157.618814 Y81.096930 Z-1.000000
G01 X158.593932 Y80.957628 Z-1.000000
G01 X158.191626 Y81.359934 Z-1.000000
G01 X157.897419 Y81.375535 Z-1.000000
G01 X156.922302 Y81.514838 Z-1.000000
G00 Z5.000000
M5
(End cutting path id: path2178)


(Start cutting path id: path2176)
(Change tool to Default tool)

G00 Z5.000000
G00 X140.206000 Y81.514838
M3S030
G01 Z-1.000000 F100.0(Penetrate)
G01 X140.206000 Y79.285998 Z-1.000000 F2000.000000
G01 X139.648790 Y78.728788 Z-1.000000
G01 X124.604118 Y78.728788 Z-1.000000
G01 X125.037628 Y78.326482 Z-1.000000
G01 X125.331835 Y78.310880 Z-1.000000
G01 X125.780389 Y78.202781 Z-1.000000
G01 X126.291350 Y78.187179 Z-1.000000
G01 X127.390168 Y78.171578 Z-1.000000
G01 X127.947379 Y78.171578 Z-1.000000
G01 X129.619009 Y78.171578 Z-1.000000
G01 X140.206000 Y78.171578 Z-1.000000
G01 X140.763210 Y78.728788 Z-1.000000
G01 X140.747608 Y79.858810 Z-1.000000
G01 X140.732006 Y80.369214 Z-1.000000
G01 X140.623907 Y80.787122 Z-1.000000
G01 X140.608306 Y81.081329 Z-1.000000
G01 X140.206000 Y81.514838 Z-1.000000
G00 Z5.000000
M5
(End cutting path id: path2176)


(Start cutting path id: path2174)
(Change tool to Default tool)

G00 Z5.000000
G00 X127.390168 Y81.514838
M3S030
G01 Z-1.000000 F100.0(Penetrate)
G01 X127.823678 Y81.112532 Z-1.000000 F2000.000000
G01 X128.117885 Y81.096930 Z-1.000000
G01 X128.566439 Y80.988832 Z-1.000000
G01 X129.077401 Y80.973230 Z-1.000000
G01 X129.619009 Y80.957628 Z-1.000000
G01 X130.733429 Y80.957628 Z-1.000000
G01 X131.847849 Y80.957628 Z-1.000000
G01 X134.633899 Y80.957628 Z-1.000000
G01 X135.748319 Y80.957628 Z-1.000000
G01 X136.862739 Y80.957628 Z-1.000000
G01 X137.419950 Y80.942026 Z-1.000000
G01 X137.961558 Y80.895778 Z-1.000000
G01 X138.906029 Y80.585969 Z-1.000000
G01 X139.447637 Y80.059962 Z-1.000000
G01 X139.648790 Y79.285998 Z-1.000000
G01 X140.051095 Y79.719507 Z-1.000000
G01 X140.066697 Y79.982510 Z-1.000000
G01 X140.174796 Y80.431622 Z-1.000000
G01 X140.206000 Y81.514838 Z-1.000000
G01 X127.390168 Y81.514838 Z-1.000000
G00 Z5.000000
M5
(End cutting path id: path2174)


(Start cutting path id: path2172)
(Change tool to Default tool)

G00 Z5.000000
G00 X90.242645 Y81.143179
M3S030
G01 Z-1.000000 F100.0(Penetrate)
G01 X90.242645 Y80.957628 Z-1.000000 F2000.000000
G01 X90.428754 Y80.772077 Z-1.000000
G01 X90.428754 Y80.957628 Z-1.000000
G01 X90.242645 Y81.143179 Z-1.000000
G00 Z5.000000
M5
(End cutting path id: path2172)


(Start cutting path id: path2170)
(Change tool to Default tool)

G00 Z5.000000
G00 X60.524961 Y81.514838
M3S030
G01 Z-1.000000 F100.0(Penetrate)
G01 X61.082171 Y80.957628 Z-1.000000 F2000.000000
G01 X60.524961 Y81.514838 Z-1.000000
G00 Z5.000000
M5
(End cutting path id: path2170)


(Start cutting path id: path2168)
(Change tool to Default tool)

G00 Z5.000000
G00 X55.510071 Y81.514838
M3S030
G01 Z-1.000000 F100.0(Penetrate)
G01 X56.067281 Y80.957628 Z-1.000000 F2000.000000
G01 X55.510071 Y81.514838 Z-1.000000
G00 Z5.000000
M5
(End cutting path id: path2168)


(Start cutting path id: path2166)
(Change tool to Default tool)

G00 Z5.000000
G00 X51.052390 Y81.514838
M3S030
G01 Z-1.000000 F100.0(Penetrate)
G01 X51.609600 Y80.957628 Z-1.000000 F2000.000000
G01 X51.052390 Y81.514838 Z-1.000000
G00 Z5.000000
M5
(End cutting path id: path2166)


(Start cutting path id: path2164)
(Change tool to Default tool)

G00 Z5.000000
G00 X45.480290 Y81.514838
M3S030
G01 Z-1.000000 F100.0(Penetrate)
G01 X46.037500 Y80.957628 Z-1.000000 F2000.000000
G01 X45.480290 Y81.514838 Z-1.000000
G00 Z5.000000
M5
(End cutting path id: path2164)


(Start cutting path id: path2162)
(Change tool to Default tool)

G00 Z5.000000
G00 X30.435618 Y81.514838
M3S030
G01 Z-1.000000 F100.0(Penetrate)
G01 X30.992828 Y80.957628 Z-1.000000 F2000.000000
G01 X30.435618 Y81.514838 Z-1.000000
G00 Z5.000000
M5
(End cutting path id: path2162)


(Start cutting path id: path2160)
(Change tool to Default tool)

G00 Z5.000000
G00 X223.787509 Y82.072048
M3S030
G01 Z-1.000000 F100.0(Penetrate)
G01 X223.540108 Y81.236233 Z-1.000000 F2000.000000
G01 X223.415850 Y80.926424 Z-1.000000
G01 X223.044748 Y79.874412 Z-1.000000
G01 X222.920490 Y79.564603 Z-1.000000
G01 X222.673089 Y78.728788 Z-1.000000
G01 X223.508904 Y78.326482 Z-1.000000
G01 X223.818713 Y78.310880 Z-1.000000
G01 X224.375923 Y78.202781 Z-1.000000
G01 X225.443537 Y78.233428 Z-1.000000
G01 X226.388008 Y78.543237 Z-1.000000
G01 X226.929616 Y79.069243 Z-1.000000
G01 X227.130769 Y79.843208 Z-1.000000
G01 X226.294954 Y79.471549 Z-1.000000
G01 X225.985145 Y79.301600 Z-1.000000
G01 X225.459139 Y79.069243 Z-1.000000
G01 X224.623324 Y78.790638 Z-1.000000
G01 X223.787509 Y78.728788 Z-1.000000
G01 X223.926811 Y79.564603 Z-1.000000
G01 X224.004264 Y79.874412 Z-1.000000
G01 X224.189815 Y80.895778 Z-1.000000
G01 X224.159168 Y81.344332 Z-1.000000
G01 X224.174213 Y81.638539 Z-1.000000
G01 X223.787509 Y82.072048 Z-1.000000
G00 Z5.000000
M5
(End cutting path id: path2160)


(Start cutting path id: path2160)
(Change tool to Default tool)

G00 Z5.000000
G00 X242.732651 Y82.072048
M3S030
G01 Z-1.000000 F100.0(Penetrate)
G01 X242.778899 Y81.236233 Z-1.000000 F2000.000000
G01 X242.856352 Y80.926424 Z-1.000000
G01 X243.104310 Y79.874412 Z-1.000000
G01 X243.305463 Y79.317201 Z-1.000000
G01 X243.397960 Y79.007393 Z-1.000000
G01 X243.847071 Y78.171578 Z-1.000000
G01 X247.190331 Y78.171578 Z-1.000000
G01 X247.174729 Y79.317201 Z-1.000000
G01 X247.144083 Y79.874412 Z-1.000000
G01 X246.957975 Y80.926424 Z-1.000000
G01 X246.633121 Y82.072048 Z-1.000000
G01 X246.246418 Y81.638539 Z-1.000000
G01 X246.261462 Y81.344332 Z-1.000000
G01 X246.230816 Y80.895778 Z-1.000000
G01 X246.416367 Y79.874412 Z-1.000000
G01 X246.493819 Y79.564603 Z-1.000000
G01 X246.633121 Y78.728788 Z-1.000000
G01 X244.404281 Y78.728788 Z-1.000000
G01 X244.249377 Y79.564603 Z-1.000000
G01 X243.924523 Y80.416020 Z-1.000000
G01 X243.723370 Y80.895778 Z-1.000000
G01 X243.413562 Y81.344332 Z-1.000000
G01 X243.289861 Y81.638539 Z-1.000000
G01 X242.732651 Y82.072048 Z-1.000000
G00 Z5.000000
M5
(End cutting path id: path2160)


(Start cutting path id: path2158)
(Change tool to Default tool)

G00 Z5.000000
G00 X156.365092 Y82.072048
M3S030
G01 Z-1.000000 F100.0(Penetrate)
G01 X156.798601 Y81.669742 Z-1.000000 F2000.000000
G01 X157.061604 Y81.654140 Z-1.000000
G01 X157.510715 Y81.546042 Z-1.000000
G01 X158.593932 Y81.514838 Z-1.000000
G01 X158.160422 Y81.917144 Z-1.000000
G01 X157.897419 Y81.932745 Z-1.000000
G01 X157.448308 Y82.040844 Z-1.000000
G01 X156.365092 Y82.072048 Z-1.000000
G00 Z5.000000
M5
(End cutting path id: path2158)


(Start cutting path id: path2156)
(Change tool to Default tool)

G00 Z5.000000
G00 X154.693461 Y82.072048
M3S030
G01 Z-1.000000 F100.0(Penetrate)
G01 X154.693461 Y79.843208 Z-1.000000 F2000.000000
G01 X155.157617 Y80.261115 Z-1.000000
G01 X155.591127 Y80.849529 Z-1.000000
G01 X155.714827 Y81.096930 Z-1.000000
G01 X156.365092 Y81.514838 Z-1.000000
G01 X155.962786 Y81.917144 Z-1.000000
G01 X155.668579 Y81.932745 Z-1.000000
G01 X154.693461 Y82.072048 Z-1.000000
G00 Z5.000000
M5
(End cutting path id: path2156)


(Start cutting path id: path2154)
(Change tool to Default tool)

G00 Z5.000000
G00 X90.614305 Y82.072048
M3S030
G01 Z-1.000000 F100.0(Penetrate)
G01 X91.171515 Y81.514838 Z-1.000000 F2000.000000
G01 X90.614305 Y82.072048 Z-1.000000
G00 Z5.000000
M5
(End cutting path id: path2154)


(Start cutting path id: path2152)
(Change tool to Default tool)

G00 Z5.000000
G00 X90.057094 Y82.072048
M3S030
G01 Z-1.000000 F100.0(Penetrate)
G01 X90.614305 Y81.514838 Z-1.000000 F2000.000000
G01 X90.057094 Y82.072048 Z-1.000000
G00 Z5.000000
M5
(End cutting path id: path2152)


(Start cutting path id: path2150)
(Change tool to Default tool)

G00 Z5.000000
G00 X61.082171 Y82.072048
M3S030
G01 Z-1.000000 F100.0(Penetrate)
G01 X61.639381 Y81.514838 Z-1.000000 F2000.000000
G01 X61.082171 Y82.072048 Z-1.000000
G00 Z5.000000
M5
(End cutting path id: path2150)


(Start cutting path id: path2148)
(Change tool to Default tool)

G00 Z5.000000
G00 X56.067281 Y82.072048
M3S030
G01 Z-1.000000 F100.0(Penetrate)
G01 X56.624491 Y81.514838 Z-1.000000 F2000.000000
G01 X56.067281 Y82.072048 Z-1.000000
G00 Z5.000000
M5
(End cutting path id: path2148)


(Start cutting path id: path2146)
(Change tool to Default tool)

G00 Z5.000000
G00 X50.495180 Y82.072048
M3S030
G01 Z-1.000000 F100.0(Penetrate)
G01 X51.052390 Y81.514838 Z-1.000000 F2000.000000
G01 X50.495180 Y82.072048 Z-1.000000
G00 Z5.000000
M5
(End cutting path id: path2146)


(Start cutting path id: path2144)
(Change tool to Default tool)

G00 Z5.000000
G00 X44.923080 Y82.072048
M3S030
G01 Z-1.000000 F100.0(Penetrate)
G01 X45.480290 Y81.514838 Z-1.000000 F2000.000000
G01 X44.923080 Y82.072048 Z-1.000000
G00 Z5.000000
M5
(End cutting path id: path2144)


(Start cutting path id: path2142)
(Change tool to Default tool)

G00 Z5.000000
G00 X30.435618 Y82.072048
M3S030
G01 Z-1.000000 F100.0(Penetrate)
G01 X30.992828 Y81.514838 Z-1.000000 F2000.000000
G01 X30.435618 Y82.072048 Z-1.000000
G00 Z5.000000
M5
(End cutting path id: path2142)


(Start cutting path id: path2140)
(Change tool to Default tool)

G00 Z5.000000
G00 X29.878408 Y82.072048
M3S030
G01 Z-1.000000 F100.0(Penetrate)
G01 X30.435618 Y81.514838 Z-1.000000 F2000.000000
G01 X29.878408 Y82.072048 Z-1.000000
G00 Z5.000000
M5
(End cutting path id: path2140)


(Start cutting path id: path2138)
(Change tool to Default tool)

G00 Z5.000000
G00 X204.842367 Y82.629258
M3S030
G01 Z-1.000000 F100.0(Penetrate)
G01 X205.275876 Y81.855293 Z-1.000000 F2000.000000
G01 X206.018637 Y81.329287 Z-1.000000
G01 X207.071207 Y81.019478 Z-1.000000
G01 X207.628417 Y80.973230 Z-1.000000
G01 X208.185627 Y80.957628 Z-1.000000
G01 X209.300047 Y80.957628 Z-1.000000
G01 X210.414467 Y80.957628 Z-1.000000
G01 X211.528888 Y80.957628 Z-1.000000
G01 X212.643308 Y81.003876 Z-1.000000
G01 X213.726524 Y81.205029 Z-1.000000
G01 X214.593543 Y81.530440 Z-1.000000
G01 X215.429358 Y82.072048 Z-1.000000
G01 X214.995849 Y82.428105 Z-1.000000
G01 X214.701642 Y82.350653 Z-1.000000
G01 X214.253088 Y82.335051 Z-1.000000
G01 X213.742126 Y82.149500 Z-1.000000
G01 X212.643308 Y81.777841 Z-1.000000
G01 X211.528888 Y81.561086 Z-1.000000
G01 X210.971677 Y81.530440 Z-1.000000
G01 X209.857257 Y81.514838 Z-1.000000
G01 X208.742837 Y81.561086 Z-1.000000
G01 X207.628417 Y81.777841 Z-1.000000
G01 X207.071207 Y81.978994 Z-1.000000
G01 X205.987991 Y82.366255 Z-1.000000
G01 X205.678182 Y82.474354 Z-1.000000
G01 X204.842367 Y82.629258 Z-1.000000
G00 Z5.000000
M5
(End cutting path id: path2138)


(Start cutting path id: path2136)
(Change tool to Default tool)

G00 Z5.000000
G00 X164.723242 Y81.514838
M3S030
G01 Z-1.000000 F100.0(Penetrate)
G01 X165.156752 Y81.128134 Z-1.000000 F2000.000000
G01 X165.450959 Y81.143179 Z-1.000000
G01 X165.899513 Y81.128134 Z-1.000000
G01 X166.920879 Y81.437386 Z-1.000000
G01 X167.230688 Y81.530440 Z-1.000000
G01 X168.066503 Y82.072048 Z-1.000000
G01 X167.632993 Y82.428105 Z-1.000000
G01 X167.338787 Y82.350653 Z-1.000000
G01 X166.890232 Y82.335051 Z-1.000000
G01 X165.868866 Y81.963949 Z-1.000000
G01 X165.559058 Y81.793443 Z-1.000000
G01 X164.723242 Y81.514838 Z-1.000000
G00 Z5.000000
M5
(End cutting path id: path2136)


(Start cutting path id: path2134)
(Change tool to Default tool)

G00 Z5.000000
G00 X154.693461 Y82.629258
M3S030
G01 Z-1.000000 F100.0(Penetrate)
G01 X155.095767 Y82.226952 Z-1.000000 F2000.000000
G01 X155.389974 Y82.211351 Z-1.000000
G01 X156.365092 Y82.072048 Z-1.000000
G01 X155.962786 Y82.474354 Z-1.000000
G01 X155.668579 Y82.489956 Z-1.000000
G01 X154.693461 Y82.629258 Z-1.000000
G00 Z5.000000
M5
(End cutting path id: path2134)


(Start cutting path id: path2132)
(Change tool to Default tool)

G00 Z5.000000
G00 X90.614305 Y82.629258
M3S030
G01 Z-1.000000 F100.0(Penetrate)
G01 X91.171515 Y82.072048 Z-1.000000 F2000.000000
G01 X90.614305 Y82.629258 Z-1.000000
G00 Z5.000000
M5
(End cutting path id: path2132)


(Start cutting path id: path2130)
(Change tool to Default tool)

G00 Z5.000000
G00 X61.639381 Y82.629258
M3S030
G01 Z-1.000000 F100.0(Penetrate)
G01 X62.196591 Y82.072048 Z-1.000000 F2000.000000
G01 X61.639381 Y82.629258 Z-1.000000
G00 Z5.000000
M5
(End cutting path id: path2130)


(Start cutting path id: path2128)
(Change tool to Default tool)

G00 Z5.000000
G00 X44.365870 Y82.629258
M3S030
G01 Z-1.000000 F100.0(Penetrate)
G01 X44.923080 Y82.072048 Z-1.000000 F2000.000000
G01 X44.365870 Y82.629258 Z-1.000000
G00 Z5.000000
M5
(End cutting path id: path2128)


(Start cutting path id: path2126)
(Change tool to Default tool)

G00 Z5.000000
G00 X29.878408 Y82.629258
M3S030
G01 Z-1.000000 F100.0(Penetrate)
G01 X30.435618 Y82.072048 Z-1.000000 F2000.000000
G01 X29.878408 Y82.629258 Z-1.000000
G00 Z5.000000
M5
(End cutting path id: path2126)


(Start cutting path id: path2124)
(Change tool to Default tool)

G00 Z5.000000
G00 X215.429358 Y83.186468
M3S030
G01 Z-1.000000 F100.0(Penetrate)
G01 X215.986568 Y82.629258 Z-1.000000 F2000.000000
G01 X215.429358 Y83.186468 Z-1.000000
G00 Z5.000000
M5
(End cutting path id: path2124)


(Start cutting path id: path2122)
(Change tool to Default tool)

G00 Z5.000000
G00 X204.285157 Y83.186468
M3S030
G01 Z-1.000000 F100.0(Penetrate)
G01 X204.842367 Y82.629258 Z-1.000000 F2000.000000
G01 X204.285157 Y83.186468 Z-1.000000
G00 Z5.000000
M5
(End cutting path id: path2122)


(Start cutting path id: path2120)
(Change tool to Default tool)

G00 Z5.000000
G00 X170.852553 Y83.186468
M3S030
G01 Z-1.000000 F100.0(Penetrate)
G01 X170.620197 Y82.381857 Z-1.000000 F2000.000000
G01 X170.434646 Y81.762239 Z-1.000000
G01 X170.295343 Y80.957628 Z-1.000000
G01 X170.930005 Y81.391137 Z-1.000000
G01 X171.023059 Y81.669742 Z-1.000000
G01 X171.224212 Y82.072048 Z-1.000000
G01 X171.239257 Y82.752959 Z-1.000000
G01 X170.852553 Y83.186468 Z-1.000000
G00 Z5.000000
M5
(End cutting path id: path2120)


(Start cutting path id: path2118)
(Change tool to Default tool)

G00 Z5.000000
G00 X62.196591 Y83.186468
M3S030
G01 Z-1.000000 F100.0(Penetrate)
G01 X62.753802 Y82.629258 Z-1.000000 F2000.000000
G01 X62.196591 Y83.186468 Z-1.000000
G00 Z5.000000
M5
(End cutting path id: path2118)


(Start cutting path id: path2116)
(Change tool to Default tool)

G00 Z5.000000
G00 X43.808659 Y83.186468
M3S030
G01 Z-1.000000 F100.0(Penetrate)
G01 X44.365870 Y82.629258 Z-1.000000 F2000.000000
G01 X43.808659 Y83.186468 Z-1.000000
G00 Z5.000000
M5
(End cutting path id: path2116)


(Start cutting path id: path2114)
(Change tool to Default tool)

G00 Z5.000000
G00 X29.506916 Y82.814809
M3S030
G01 Z-1.000000 F100.0(Penetrate)
G01 X29.506916 Y82.443707 Z-1.000000 F2000.000000
G01 X29.692690 Y82.443707 Z-1.000000
G01 X29.692690 Y82.629258 Z-1.000000
G01 X29.506916 Y82.814809 Z-1.000000
G00 Z5.000000
M5
(End cutting path id: path2114)


(Start cutting path id: path2112)
(Change tool to Default tool)

G00 Z5.000000
G00 X245.518701 Y83.743678
M3S030
G01 Z-1.000000 F100.0(Penetrate)
G01 X245.518701 Y82.072048 Z-1.000000 F2000.000000
G01 X245.905405 Y82.489956 Z-1.000000
G01 X245.905405 Y83.078369 Z-1.000000
G01 X245.905405 Y83.325771 Z-1.000000
G01 X245.518701 Y83.743678 Z-1.000000
G00 Z5.000000
M5
(End cutting path id: path2112)


(Start cutting path id: path2110)
(Change tool to Default tool)

G00 Z5.000000
G00 X242.360992 Y83.372019
M3S030
G01 Z-1.000000 F100.0(Penetrate)
G01 X242.360992 Y83.000917 Z-1.000000 F2000.000000
G01 X242.547100 Y83.000917 Z-1.000000
G01 X242.547100 Y83.372019 Z-1.000000
G01 X242.360992 Y83.372019 Z-1.000000
G00 Z5.000000
M5
(End cutting path id: path2110)


(Start cutting path id: path2108)
(Change tool to Default tool)

G00 Z5.000000
G00 X225.087480 Y83.372019
M3S030
G01 Z-1.000000 F100.0(Penetrate)
G01 X225.087480 Y83.000917 Z-1.000000 F2000.000000
G01 X225.273588 Y83.000917 Z-1.000000
G01 X225.273588 Y83.372019 Z-1.000000
G01 X225.087480 Y83.372019 Z-1.000000
G00 Z5.000000
M5
(End cutting path id: path2108)


(Start cutting path id: path2106)
(Change tool to Default tool)

G00 Z5.000000
G00 X224.344719 Y83.743678
M3S030
G01 Z-1.000000 F100.0(Penetrate)
G01 X224.344719 Y82.072048 Z-1.000000 F2000.000000
G01 X224.731423 Y82.489956 Z-1.000000
G01 X224.731423 Y83.078369 Z-1.000000
G01 X224.731423 Y83.325771 Z-1.000000
G01 X224.344719 Y83.743678 Z-1.000000
G00 Z5.000000
M5
(End cutting path id: path2106)


(Start cutting path id: path2104)
(Change tool to Default tool)

G00 Z5.000000
G00 X91.728725 Y83.743678
M3S030
G01 Z-1.000000 F100.0(Penetrate)
G01 X91.171515 Y83.186468 Z-1.000000 F2000.000000
G01 X91.171515 Y82.072048 Z-1.000000
G01 X91.790575 Y82.489956 Z-1.000000
G01 X91.991728 Y83.078369 Z-1.000000
G01 X92.069180 Y83.325771 Z-1.000000
G01 X91.728725 Y83.743678 Z-1.000000
G00 Z5.000000
M5
(End cutting path id: path2104)


(Start cutting path id: path2102)
(Change tool to Default tool)

G00 Z5.000000
G00 X91.171515 Y83.743678
M3S030
G01 Z-1.000000 F100.0(Penetrate)
G01 X91.728725 Y83.186468 Z-1.000000 F2000.000000
G01 X91.171515 Y83.743678 Z-1.000000
G00 Z5.000000
M5
(End cutting path id: path2102)


(Start cutting path id: path2100)
(Change tool to Default tool)

G00 Z5.000000
G00 X29.321198 Y83.743678
M3S030
G01 Z-1.000000 F100.0(Penetrate)
G01 X29.878408 Y83.186468 Z-1.000000 F2000.000000
G01 X29.321198 Y83.743678 Z-1.000000
G00 Z5.000000
M5
(End cutting path id: path2100)


(Start cutting path id: path2098)
(Change tool to Default tool)

G00 Z5.000000
G00 X91.728725 Y84.300888
M3S030
G01 Z-1.000000 F100.0(Penetrate)
G01 X92.285935 Y83.743678 Z-1.000000 F2000.000000
G01 X91.728725 Y84.300888 Z-1.000000
G00 Z5.000000
M5
(End cutting path id: path2098)


(Start cutting path id: path2096)
(Change tool to Default tool)

G00 Z5.000000
G00 X62.753802 Y84.300888
M3S030
G01 Z-1.000000 F100.0(Penetrate)
G01 X63.311012 Y83.743678 Z-1.000000 F2000.000000
G01 X62.753802 Y84.300888 Z-1.000000
G00 Z5.000000
M5
(End cutting path id: path2096)


(Start cutting path id: path2094)
(Change tool to Default tool)

G00 Z5.000000
G00 X56.624491 Y84.300888
M3S030
G01 Z-1.000000 F100.0(Penetrate)
G01 X56.624491 Y82.629258 Z-1.000000 F2000.000000
G01 X57.011418 Y83.047166 Z-1.000000
G01 X57.011418 Y83.635579 Z-1.000000
G01 X57.011418 Y83.882981 Z-1.000000
G01 X56.624491 Y84.300888 Z-1.000000
G00 Z5.000000
M5
(End cutting path id: path2094)


(Start cutting path id: path2092)
(Change tool to Default tool)

G00 Z5.000000
G00 X43.251449 Y84.300888
M3S030
G01 Z-1.000000 F100.0(Penetrate)
G01 X43.808659 Y83.743678 Z-1.000000 F2000.000000
G01 X43.251449 Y84.300888 Z-1.000000
G00 Z5.000000
M5
(End cutting path id: path2092)


(Start cutting path id: path2090)
(Change tool to Default tool)

G00 Z5.000000
G00 X28.949706 Y83.929229
M3S030
G01 Z-1.000000 F100.0(Penetrate)
G01 X28.949706 Y83.558127 Z-1.000000 F2000.000000
G01 X29.135480 Y83.558127 Z-1.000000
G01 X29.135480 Y83.929229 Z-1.000000
G01 X28.949706 Y83.929229 Z-1.000000
G00 Z5.000000
M5
(End cutting path id: path2090)


(Start cutting path id: path2088)
(Change tool to Default tool)

G00 Z5.000000
G00 X245.147042 Y84.486439
M3S030
G01 Z-1.000000 F100.0(Penetrate)
G01 X245.147042 Y84.300888 Z-1.000000 F2000.000000
G01 X245.333150 Y84.115337 Z-1.000000
G01 X245.333150 Y84.486439 Z-1.000000
G01 X245.147042 Y84.486439 Z-1.000000
G00 Z5.000000
M5
(End cutting path id: path2088)


(Start cutting path id: path2086)
(Change tool to Default tool)

G00 Z5.000000
G00 X242.360992 Y84.486439
M3S030
G01 Z-1.000000 F100.0(Penetrate)
G01 X242.360992 Y84.115337 Z-1.000000 F2000.000000
G01 X242.547100 Y84.115337 Z-1.000000
G01 X242.547100 Y84.486439 Z-1.000000
G01 X242.360992 Y84.486439 Z-1.000000
G00 Z5.000000
M5
(End cutting path id: path2086)


(Start cutting path id: path2084)
(Change tool to Default tool)

G00 Z5.000000
G00 X241.803782 Y84.486439
M3S030
G01 Z-1.000000 F100.0(Penetrate)
G01 X241.803782 Y84.115337 Z-1.000000 F2000.000000
G01 X241.989890 Y84.115337 Z-1.000000
G01 X241.989890 Y84.486439 Z-1.000000
G01 X241.803782 Y84.486439 Z-1.000000
G00 Z5.000000
M5
(End cutting path id: path2084)


(Start cutting path id: path2082)
(Change tool to Default tool)

G00 Z5.000000
G00 X228.245189 Y84.858098
M3S030
G01 Z-1.000000 F100.0(Penetrate)
G01 X227.796078 Y84.022283 Z-1.000000 F2000.000000
G01 X227.703581 Y83.712474 Z-1.000000
G01 X227.486826 Y83.155264 Z-1.000000
G01 X227.316320 Y82.629258 Z-1.000000
G01 X226.960263 Y81.546042 Z-1.000000
G01 X226.805916 Y80.988832 Z-1.000000
G01 X226.712862 Y80.679023 Z-1.000000
G01 X226.573559 Y79.843208 Z-1.000000
G01 X227.223823 Y80.276717 Z-1.000000
G01 X227.363126 Y80.570924 Z-1.000000
G01 X227.889132 Y81.530440 Z-1.000000
G01 X228.137091 Y82.072048 Z-1.000000
G01 X228.523794 Y83.170866 Z-1.000000
G01 X228.631893 Y83.681828 Z-1.000000
G01 X228.616848 Y84.130382 Z-1.000000
G01 X228.631893 Y84.424589 Z-1.000000
G01 X228.245189 Y84.858098 Z-1.000000
G00 Z5.000000
M5
(End cutting path id: path2082)


(Start cutting path id: path2080)
(Change tool to Default tool)

G00 Z5.000000
G00 X200.570237 Y84.486439
M3S030
G01 Z-1.000000 F100.0(Penetrate)
G01 X200.570237 Y84.115337 Z-1.000000 F2000.000000
G01 X200.756345 Y84.115337 Z-1.000000
G01 X200.756345 Y84.486439 Z-1.000000
G01 X200.570237 Y84.486439 Z-1.000000
G00 Z5.000000
M5
(End cutting path id: path2080)


(Start cutting path id: path2078)
(Change tool to Default tool)

G00 Z5.000000
G00 X92.471486 Y84.486439
M3S030
G01 Z-1.000000 F100.0(Penetrate)
G01 X92.471486 Y84.115337 Z-1.000000 F2000.000000
G01 X92.657594 Y84.115337 Z-1.000000
G01 X92.657594 Y84.300888 Z-1.000000
G01 X92.471486 Y84.486439 Z-1.000000
G00 Z5.000000
M5
(End cutting path id: path2078)


(Start cutting path id: path2076)
(Change tool to Default tool)

G00 Z5.000000
G00 X28.763988 Y84.858098
M3S030
G01 Z-1.000000 F100.0(Penetrate)
G01 X29.321198 Y84.300888 Z-1.000000 F2000.000000
G01 X28.763988 Y84.858098 Z-1.000000
G00 Z5.000000
M5
(End cutting path id: path2076)


(Start cutting path id: path2074)
(Change tool to Default tool)

G00 Z5.000000
G00 X219.515379 Y85.043649
M3S030
G01 Z-1.000000 F100.0(Penetrate)
G01 X219.515379 Y84.672547 Z-1.000000 F2000.000000
G01 X219.701487 Y84.672547 Z-1.000000
G01 X219.701487 Y85.043649 Z-1.000000
G01 X219.515379 Y85.043649 Z-1.000000
G00 Z5.000000
M5
(End cutting path id: path2074)


(Start cutting path id: path2072)
(Change tool to Default tool)

G00 Z5.000000
G00 X92.285935 Y85.415308
M3S030
G01 Z-1.000000 F100.0(Penetrate)
G01 X92.843145 Y84.858098 Z-1.000000 F2000.000000
G01 X92.285935 Y85.415308 Z-1.000000
G00 Z5.000000
M5
(End cutting path id: path2072)


(Start cutting path id: path2070)
(Change tool to Default tool)

G00 Z5.000000
G00 X63.311012 Y85.415308
M3S030
G01 Z-1.000000 F100.0(Penetrate)
G01 X63.868222 Y84.858098 Z-1.000000 F2000.000000
G01 X63.311012 Y85.415308 Z-1.000000
G00 Z5.000000
M5
(End cutting path id: path2070)


(Start cutting path id: path2068)
(Change tool to Default tool)

G00 Z5.000000
G00 X241.803782 Y85.600859
M3S030
G01 Z-1.000000 F100.0(Penetrate)
G01 X241.803782 Y85.229757 Z-1.000000 F2000.000000
G01 X241.989890 Y85.229757 Z-1.000000
G01 X241.989890 Y85.600859 Z-1.000000
G01 X241.803782 Y85.600859 Z-1.000000
G00 Z5.000000
M5
(End cutting path id: path2068)


(Start cutting path id: path2066)
(Change tool to Default tool)

G00 Z5.000000
G00 X241.061021 Y85.972518
M3S030
G01 Z-1.000000 F100.0(Penetrate)
G01 X241.618231 Y85.415308 Z-1.000000 F2000.000000
G01 X241.061021 Y85.972518 Z-1.000000
G00 Z5.000000
M5
(End cutting path id: path2066)


(Start cutting path id: path2064)
(Change tool to Default tool)

G00 Z5.000000
G00 X93.028696 Y85.600859
M3S030
G01 Z-1.000000 F100.0(Penetrate)
G01 X93.028696 Y85.229757 Z-1.000000 F2000.000000
G01 X93.214804 Y85.229757 Z-1.000000
G01 X93.214804 Y85.600859 Z-1.000000
G01 X93.028696 Y85.600859 Z-1.000000
G00 Z5.000000
M5
(End cutting path id: path2064)


(Start cutting path id: path2062)
(Change tool to Default tool)

G00 Z5.000000
G00 X27.649568 Y85.972518
M3S030
G01 Z-1.000000 F100.0(Penetrate)
G01 X28.021060 Y84.997401 Z-1.000000 F2000.000000
G01 X28.129381 Y84.703194 Z-1.000000
G01 X28.763988 Y84.300888 Z-1.000000
G01 X28.392496 Y85.276006 Z-1.000000
G01 X28.284174 Y85.570213 Z-1.000000
G01 X27.649568 Y85.972518 Z-1.000000
G00 Z5.000000
M5
(End cutting path id: path2062)


(Start cutting path id: path2060)
(Change tool to Default tool)

G00 Z5.000000
G00 X228.245189 Y84.858098
M3S030
G01 Z-1.000000 F100.0(Penetrate)
G01 X229.081004 Y85.229757 Z-1.000000 F2000.000000
G01 X229.390813 Y85.399706 Z-1.000000
G01 X230.474030 Y85.802012 Z-1.000000
G01 X231.031240 Y85.910668 Z-1.000000
G01 X231.588450 Y85.956917 Z-1.000000
G01 X232.702870 Y85.972518 Z-1.000000
G01 X233.260080 Y85.972518 Z-1.000000
G01 X234.931710 Y85.972518 Z-1.000000
G01 X241.618231 Y85.972518 Z-1.000000
G01 X241.184721 Y86.374824 Z-1.000000
G01 X240.890514 Y86.390426 Z-1.000000
G01 X240.441960 Y86.498525 Z-1.000000
G01 X239.930999 Y86.514127 Z-1.000000
G01 X239.389391 Y86.529728 Z-1.000000
G01 X238.832180 Y86.529728 Z-1.000000
G01 X237.717760 Y86.529728 Z-1.000000
G01 X232.702870 Y86.529728 Z-1.000000
G01 X231.588450 Y86.529728 Z-1.000000
G01 X230.474030 Y86.514127 Z-1.000000
G01 X229.932421 Y86.467878 Z-1.000000
G01 X229.421460 Y86.344178 Z-1.000000
G01 X228.647495 Y85.817614 Z-1.000000
G01 X228.446342 Y85.632063 Z-1.000000
G01 X228.245189 Y84.858098 Z-1.000000
G00 Z5.000000
M5
(End cutting path id: path2060)


(Start cutting path id: path2058)
(Change tool to Default tool)

G00 Z5.000000
G00 X225.459139 Y86.529728
M3S030
G01 Z-1.000000 F100.0(Penetrate)
G01 X225.134286 Y85.415308 Z-1.000000 F2000.000000
G01 X225.025630 Y84.858098 Z-1.000000
G01 X224.948177 Y84.579493 Z-1.000000
G01 X224.901929 Y83.743678 Z-1.000000
G01 X225.443537 Y84.177188 Z-1.000000
G01 X225.536591 Y84.471395 Z-1.000000
G01 X225.753346 Y84.904347 Z-1.000000
G01 X225.830798 Y85.802012 Z-1.000000
G01 X225.845843 Y86.096219 Z-1.000000
G01 X225.459139 Y86.529728 Z-1.000000
G00 Z5.000000
M5
(End cutting path id: path2058)


(Start cutting path id: path2056)
(Change tool to Default tool)

G00 Z5.000000
G00 X93.400355 Y86.529728
M3S030
G01 Z-1.000000 F100.0(Penetrate)
G01 X93.957565 Y85.972518 Z-1.000000 F2000.000000
G01 X93.400355 Y86.529728 Z-1.000000
G00 Z5.000000
M5
(End cutting path id: path2056)


(Start cutting path id: path2054)
(Change tool to Default tool)

G00 Z5.000000
G00 X92.843145 Y86.529728
M3S030
G01 Z-1.000000 F100.0(Penetrate)
G01 X93.400355 Y85.972518 Z-1.000000 F2000.000000
G01 X92.843145 Y86.529728 Z-1.000000
G00 Z5.000000
M5
(End cutting path id: path2054)


(Start cutting path id: path2052)
(Change tool to Default tool)

G00 Z5.000000
G00 X27.649568 Y86.529728
M3S030
G01 Z-1.000000 F100.0(Penetrate)
G01 X28.206778 Y85.972518 Z-1.000000 F2000.000000
G01 X27.649568 Y86.529728 Z-1.000000
G00 Z5.000000
M5
(End cutting path id: path2052)


(Start cutting path id: path2050)
(Change tool to Default tool)

G00 Z5.000000
G00 X93.400355 Y87.086939
M3S030
G01 Z-1.000000 F100.0(Penetrate)
G01 X93.957565 Y86.529728 Z-1.000000 F2000.000000
G01 X93.400355 Y87.086939 Z-1.000000
G00 Z5.000000
M5
(End cutting path id: path2050)


(Start cutting path id: path2048)
(Change tool to Default tool)

G00 Z5.000000
G00 X27.278076 Y86.715279
M3S030
G01 Z-1.000000 F100.0(Penetrate)
G01 X27.278076 Y86.344178 Z-1.000000 F2000.000000
G01 X27.463850 Y86.344178 Z-1.000000
G01 X27.463850 Y86.715279 Z-1.000000
G01 X27.278076 Y86.715279 Z-1.000000
G00 Z5.000000
M5
(End cutting path id: path2048)


(Start cutting path id: path2046)
(Change tool to Default tool)

G00 Z5.000000
G00 X226.201900 Y87.272489
M3S030
G01 Z-1.000000 F100.0(Penetrate)
G01 X226.201900 Y86.901388 Z-1.000000 F2000.000000
G01 X226.388008 Y86.901388 Z-1.000000
G01 X226.388008 Y87.272489 Z-1.000000
G01 X226.201900 Y87.272489 Z-1.000000
G00 Z5.000000
M5
(End cutting path id: path2046)


(Start cutting path id: path2044)
(Change tool to Default tool)

G00 Z5.000000
G00 X93.400355 Y87.644149
M3S030
G01 Z-1.000000 F100.0(Penetrate)
G01 X93.957565 Y87.086939 Z-1.000000 F2000.000000
G01 X93.400355 Y87.644149 Z-1.000000
G00 Z5.000000
M5
(End cutting path id: path2044)


(Start cutting path id: path2042)
(Change tool to Default tool)

G00 Z5.000000
G00 X49.937970 Y87.644149
M3S030
G01 Z-1.000000 F100.0(Penetrate)
G01 X49.937970 Y83.186468 Z-1.000000 F2000.000000
G01 X50.340387 Y83.619978 Z-1.000000
G01 X50.355878 Y83.914184 Z-1.000000
G01 X50.464199 Y84.362739 Z-1.000000
G01 X50.495180 Y85.415308 Z-1.000000
G01 X50.479690 Y85.956917 Z-1.000000
G01 X50.464199 Y86.467878 Z-1.000000
G01 X50.355878 Y86.916432 Z-1.000000
G01 X50.340387 Y87.210639 Z-1.000000
G01 X49.937970 Y87.644149 Z-1.000000
G00 Z5.000000
M5
(End cutting path id: path2042)


(Start cutting path id: path2040)
(Change tool to Default tool)

G00 Z5.000000
G00 X42.694239 Y87.644149
M3S030
G01 Z-1.000000 F100.0(Penetrate)
G01 X42.694239 Y85.415308 Z-1.000000 F2000.000000
G01 X43.096656 Y85.848818 Z-1.000000
G01 X43.096656 Y86.127423 Z-1.000000
G01 X43.189543 Y86.529728 Z-1.000000
G01 X43.096656 Y87.210639 Z-1.000000
G01 X42.694239 Y87.644149 Z-1.000000
G00 Z5.000000
M5
(End cutting path id: path2040)


(Start cutting path id: path2038)
(Change tool to Default tool)

G00 Z5.000000
G00 X27.092358 Y87.644149
M3S030
G01 Z-1.000000 F100.0(Penetrate)
G01 X27.649568 Y87.086939 Z-1.000000 F2000.000000
G01 X27.092358 Y87.644149 Z-1.000000
G00 Z5.000000
M5
(End cutting path id: path2038)


(Start cutting path id: path2036)
(Change tool to Default tool)

G00 Z5.000000
G00 X49.380760 Y88.201359
M3S030
G01 Z-1.000000 F100.0(Penetrate)
G01 X49.380760 Y84.858098 Z-1.000000 F2000.000000
G01 X49.783177 Y85.291608 Z-1.000000
G01 X49.798668 Y85.585815 Z-1.000000
G01 X49.906989 Y86.034369 Z-1.000000
G01 X49.906989 Y87.025088 Z-1.000000
G01 X49.798668 Y87.473642 Z-1.000000
G01 X49.783177 Y87.767849 Z-1.000000
G01 X49.380760 Y88.201359 Z-1.000000
G00 Z5.000000
M5
(End cutting path id: path2036)


(Start cutting path id: path2034)
(Change tool to Default tool)

G00 Z5.000000
G00 X26.720866 Y87.829700
M3S030
G01 Z-1.000000 F100.0(Penetrate)
G01 X26.720866 Y87.458598 Z-1.000000 F2000.000000
G01 X26.906640 Y87.458598 Z-1.000000
G01 X26.906640 Y87.829700 Z-1.000000
G01 X26.720866 Y87.829700 Z-1.000000
G00 Z5.000000
M5
(End cutting path id: path2034)


(Start cutting path id: path2032)
(Change tool to Default tool)

G00 Z5.000000
G00 X243.847071 Y88.758569
M3S030
G01 Z-1.000000 F100.0(Penetrate)
G01 X243.893319 Y87.922754 Z-1.000000 F2000.000000
G01 X243.970772 Y87.612945 Z-1.000000
G01 X244.063826 Y87.086939 Z-1.000000
G01 X244.264979 Y86.251123 Z-1.000000
G01 X244.404281 Y85.415308 Z-1.000000
G01 X244.806587 Y85.848818 Z-1.000000
G01 X244.806587 Y86.143025 Z-1.000000
G01 X244.884039 Y86.591579 Z-1.000000
G01 X244.714090 Y87.582298 Z-1.000000
G01 X244.481733 Y88.030852 Z-1.000000
G01 X244.388679 Y88.325059 Z-1.000000
G01 X243.847071 Y88.758569 Z-1.000000
G00 Z5.000000
M5
(End cutting path id: path2032)


(Start cutting path id: path2030)
(Change tool to Default tool)

G00 Z5.000000
G00 X243.475412 Y88.386910
M3S030
G01 Z-1.000000 F100.0(Penetrate)
G01 X243.475412 Y88.201359 Z-1.000000 F2000.000000
G01 X243.661520 Y88.015808 Z-1.000000
G01 X243.661520 Y88.386910 Z-1.000000
G01 X243.475412 Y88.386910 Z-1.000000
G00 Z5.000000
M5
(End cutting path id: path2030)


(Start cutting path id: path2028)
(Change tool to Default tool)

G00 Z5.000000
G00 X229.916820 Y88.758569
M3S030
G01 Z-1.000000 F100.0(Penetrate)
G01 X230.350329 Y88.356263 Z-1.000000 F2000.000000
G01 X230.644536 Y88.340661 Z-1.000000
